lprof/data/targets/Agfa/Reflective/C81115XX.it8
IT8.7/2
ORIGINATOR "FotoTune"
DESCRIPTOR "Agfa IT8"
MATERIAL "Agfacolor"
MANUFACTURER "Agfa"
CREATED "Tue Feb  2 08:58:25 1999"
PROD_DATE "1999:02"
SERIAL "5x7 c81115xx"
NUMBER_OF_FIELDS 9
BEGIN_DATA_FORMAT
SAMPLE_ID XYZ_X XYZ_Y XYZ_Z LAB_L LAB_A LAB_B LAB_C LAB_H
END_DATA_FORMAT
NUMBER_OF_SETS 288
BEGIN_DATA
A1     2.87    2.39    1.96   17.42   10.88    0.16   10.88  180.81
A2     3.49    2.43    1.61   17.61   20.63    4.12   21.04   11.30
A3     4.86    2.93    1.62   19.76   30.56    7.66   31.50   14.08
A4     5.21    3.12    1.78   20.53   31.59    7.31   32.42   13.02
A5    10.30    8.90    6.95   35.79   14.06    1.58   14.15    6.40
A6    12.48    9.21    5.90   36.38   27.15    7.23   28.10   14.92
A7    15.00    9.54    5.14   37.00   40.51   12.06   42.28   16.58
A8    17.38    9.93    4.76   37.71   50.99   15.32   53.24   16.72
A9    39.58   38.58   31.03   68.44    7.66    1.18    7.76    8.80
A10   42.11   38.97   30.31   68.73   14.19    2.80   14.47   11.13
A11   45.61   39.90   29.15   69.40   21.53    5.82   22.31   15.10
A12   45.72   38.32   26.70   68.25   26.79    7.92   27.94   16.46
A13   75.15   77.89   67.23   90.73    0.19   -2.83    2.84  273.67
A14   75.36   77.58   67.10   90.59    1.20   -2.95    3.18  292.15
A15   75.10   77.71   64.67   90.65    0.41   -0.56    0.69  306.67
A16   74.18   76.66   64.46   90.16    0.61   -1.20    1.34  296.74
A17   74.81   77.11   64.64   90.38    1.01   -1.01    1.43  314.95
A18   74.68   77.44   64.93   90.52    0.09   -1.02    1.03  274.91
A19   74.47   76.81   66.86   90.23    0.92   -3.34    3.47  285.42
A20    1.22    0.97    0.60    8.73    9.81    3.80   10.52   21.21
A21    4.60    2.78    0.67   19.17   29.72   20.56   36.14   34.67
A22    8.86    4.85    0.68   26.31   43.35   32.50   54.18   36.85
B1     2.74    2.39    1.50   17.42    8.61    5.10   10.01   30.67
B2     3.37    2.55    0.77   18.10   16.35   16.58   23.28   45.41
B3     4.11    2.76    0.70   19.05   23.64   19.65   30.74   39.74
B4     4.71    3.05    0.70   20.24   26.58   21.66   34.28   39.19
B5    10.84    9.39    5.28   36.72   14.13   10.89   17.83   37.61
B6    12.84    9.69    3.72   37.28   25.72   20.67   33.00   38.78
B7    14.95    9.68    2.22   37.26   39.06   31.86   50.40   39.21
B8    16.60    9.85    1.46   37.57   47.33   40.26   62.14   40.39
B9    39.71   39.06   28.88   68.79    6.57    5.22    8.40   38.49
B10   41.79   39.28   25.91   68.96   12.27   10.49   16.15   40.56
B11   45.33   40.44   23.61   69.79   19.06   16.07   24.93   40.13
B12   46.06   39.90   21.01   69.40   22.80   20.45   30.62   41.89
B13   66.23   71.51   65.43   87.74   -5.91   -6.31    8.65  226.86
B14   70.23   68.94   63.78   86.48    8.23   -6.91   10.74  319.96
B15   72.34   75.33   51.96   89.54   -0.55   10.52   10.53   93.00
B16   58.38   60.08   49.92   81.89    1.14   -0.44    1.22  339.04
B17   67.06   66.39   50.13   85.20    6.86    5.04    8.51   36.28
B18   63.35   68.96   51.65   86.49   -7.01    5.57    8.95  141.52
B19   61.28   62.76   61.75   83.32    1.83  -10.39   10.55  279.99
B20    2.74    1.89    0.65   14.91   19.28   13.36   23.46   34.72
B21    7.77    4.37    0.69   24.86   39.83   29.95   49.83   36.95
B22   27.88   23.76   13.03   55.85   21.01   15.72   26.24   36.80
C1     3.74    3.53    2.12   22.08    5.09    6.70    8.41   52.74
C2     4.07    3.65    1.16   22.49    8.28   17.98   19.80   65.26
C3     4.76    3.93    0.88   23.44   13.31   24.09   27.52   61.08
C4     4.81    3.98    0.88   23.60   13.36   24.35   27.78   61.24
C5    21.47   20.60    9.74   52.51    7.79   19.99   21.45   68.71
C6    23.90   20.91    5.29   52.84   17.41   38.62   42.36   65.74
C7    25.24   20.67    2.32   52.59   24.26   57.39   62.31   67.08
C8    27.53   21.65    1.64   53.65   29.11   65.89   72.04   66.16
C9    46.26   46.74   31.90   74.02    3.45    9.48   10.09   70.03
C10   49.10   48.04   26.33   74.85    7.74   19.93   21.38   68.77
C11   51.56   48.98   21.60   75.44   11.75   29.67   31.92   68.41
C12   51.21   47.51   17.54   74.51   14.82   36.67   39.54   67.99
C13   56.35   63.91   62.78   83.91  -12.57  -10.35   16.29  219.48
C14   63.33   58.29   58.78   80.90   17.01  -11.60   20.58  325.72
C15   69.99   73.00   42.47   88.45   -0.78   19.76   19.77   92.26
C16   43.65   44.99   37.19   72.89    0.84   -0.14    0.86  350.85
C17   58.56   54.83   38.89   78.94   14.27    8.02   16.37   29.33
C18   51.90   59.72   41.04   81.69  -14.31    9.93   17.42  145.25
C19   47.43   47.85   54.72   74.73    3.68  -18.02   18.40  281.55
C20    1.73    1.42    0.67   12.14    9.58    8.30   12.67   40.89
C21   21.67   16.40    5.23   47.49   30.39   29.69   42.49   44.33
C22   34.72   32.08   19.62   63.40   13.49   12.97   18.70   43.88
D1     3.49    3.60    2.14   22.29    0.40    6.80    6.81   86.58
D2     3.57    3.72    1.20   22.72   -0.30   17.86   17.86   90.95
D3     3.89    3.95    0.94   23.49    1.26   23.03   23.06   86.86
D4     3.98    4.05    0.96   23.82    1.18   23.32   23.34   87.11
D5    24.56   25.88   12.57   57.93   -1.65   20.64   20.70   94.57
D6    24.06   25.61    7.39   57.67   -2.68   37.48   37.57   94.09
D7    25.08   26.82    3.85   58.81   -3.20   57.00   57.09   93.21
D8    23.95   25.05    1.98   57.11   -0.77   68.41   68.42   90.65
D9    53.01   55.87   36.61   79.54   -2.14   12.13   12.32  100.01
D10   55.36   57.94   30.30   80.71   -1.21   23.48   23.51   92.95
D11   54.93   58.03   24.48   80.76   -2.51   33.40   33.49   94.29
D12   55.81   59.09   20.44   81.35   -2.83   42.19   42.28   93.84
D13   47.43   56.50   59.75   79.89  -18.60  -14.31   23.47  217.57
D14   56.71   48.97   53.61   75.43   24.89  -15.63   29.39  327.88
D15   67.77   70.56   33.99   87.27   -0.51   29.22   29.22   91.01
D16   31.55   32.57   27.01   63.82    0.57   -0.28    0.65  335.53
D17   50.39   44.47   28.99   72.54   21.16   11.49   24.08   28.51
D18   41.06   50.30   31.74   76.26  -21.44   13.57   25.38  147.65
D19   35.97   35.71   47.82   66.29    5.29  -24.90   25.45  281.99
D20   13.57   10.25    3.22   38.28   26.12   25.74   36.67   44.57
D21   22.03   21.26   13.53   53.24    7.27    9.88   12.26   53.65
D22   38.68   37.48   22.82   67.64    8.30   13.86   16.16   59.10
E1     3.20    3.62    2.22   22.35   -4.61    6.20    7.72  126.71
E2     2.93    3.63    1.27   22.41   -9.60   16.52   19.11  120.17
E3     3.09    4.01    1.03   23.69  -12.23   22.06   25.22  119.02
E4     3.14    4.09    1.03   23.97  -12.59   22.41   25.70  119.32
E5    11.01   12.55    6.90   42.07   -7.63   12.62   14.76  121.14
E6    10.30   12.93    4.70   42.67  -15.61   24.17   28.77  122.86
E7     9.62   13.29    2.68   43.19  -23.20   38.25   44.74  121.24
E8     9.43   13.74    1.81   43.86  -27.58   47.20   54.66  120.29
E9    35.12   38.37   25.48   68.29   -6.18   10.12   11.85  121.43
E10   34.37   38.89   22.39   68.67  -10.39   16.48   19.47  122.22
E11   34.32   40.17   19.05   69.60  -14.51   24.85   28.78  120.29
E12   33.26   40.30   15.73   69.68  -18.59   32.61   37.54  119.69
E13   40.33   50.24   56.68   76.21  -23.49  -17.53   29.31  216.74
E14   50.96   41.48   48.78   70.51   31.40  -18.74   36.57  329.17
E15   65.03   67.31   25.08   85.65    0.37   40.76   40.76   89.48
E16   23.28   23.99   19.60   56.07    0.74    0.38    0.83   27.45
E17   43.61   36.59   20.52   66.97   26.24   17.25   31.40   33.32
E18   32.24   41.99   23.49   70.87  -27.33   18.16   32.81  146.40
E19   27.63   26.99   41.72   58.97    6.53  -30.12   30.83  282.23
E20   21.91   15.03    1.24   45.68   39.28   57.01   69.24   55.43
E21   16.74   13.86    3.22   44.04   20.23   35.71   41.03   60.47
E22   28.67   25.11    9.06   57.18   18.37   30.38   35.49   58.85
F1     1.28    1.60    1.13   13.18   -7.18    2.51    7.61  160.78
F2     1.13    1.74    0.95   14.05  -15.85    6.55   17.15  157.57
F3     1.11    1.99    0.93   15.40  -22.44    9.42   24.34  157.24
F4     1.25    2.36    1.07   17.28  -25.78   10.36   27.78  158.09
F5     5.83    7.25    5.26   32.36  -12.17    3.48   12.65  164.05
F6     4.98    7.56    4.69   33.06  -25.25    7.64   26.38  163.16
F7     4.11    7.72    4.06   33.39  -38.19   11.83   39.99  162.79
F8     3.09    7.41    3.53   32.74  -51.23   14.09   53.13  164.62
F9    34.19   37.72   29.06   67.81   -7.29    3.24    7.98  156.06
F10   33.65   38.84   28.88   68.64  -12.75    4.93   13.66  158.83
F11   32.59   39.60   28.00   69.18  -18.85    7.34   20.23  158.70
F12   31.30   39.97   26.69   69.45  -24.65    9.99   26.60  157.93
F13   34.07   44.39   53.54   72.49  -27.85  -20.63   34.66  216.53
F14   46.11   35.58   44.53   66.20   36.76  -21.15   42.41  330.09
F15   63.35   65.18   20.22   84.57    1.24   48.22   48.24   88.52
F16   17.16   17.62   14.27   49.04    0.94    0.66    1.15   34.63
F17   38.53   30.81   15.43   62.35   30.64   20.67   36.96   34.00
F18   26.25   35.97   17.95   66.50  -31.50   21.93   38.38  145.15
F19   21.49   20.43   36.53   52.33    8.70  -34.67   35.74  284.09
F20   26.09   25.29   13.25   57.35    7.26   17.73   19.16   67.72
F21   33.14   30.80   11.88   62.33   12.64   30.21   32.74   67.29
F22   37.35   35.86   17.31   66.42    9.30   23.24   25.03   68.18
G1     1.97    2.42    2.41   17.54   -7.82   -3.81    8.69  206.01
G2     1.74    2.55    2.70   18.15  -16.21   -5.05   16.98  197.32
G3     1.63    2.87    3.16   19.49  -24.70   -6.23   25.48  194.17
G4     1.80    3.26    3.55   21.08  -27.19   -6.15   27.87  192.74
G5     7.95    9.71    8.45   37.32  -12.15   -1.66   12.27  187.77
G6     6.94    9.91    9.04   37.68  -23.40   -3.17   23.61  187.73
G7     5.69    9.80    9.45   37.47  -35.78   -4.97   36.12  187.90
G8     4.94   10.32   10.49   38.40  -48.72   -6.81   49.20  187.95
G9    33.72   37.33   30.39   67.53   -7.67    0.61    7.69  175.47
G10   32.64   38.04   32.39   68.05  -13.77   -1.58   13.86  186.51
G11   31.70   38.99   33.28   68.74  -20.10   -1.72   20.18  184.88
G12   30.71   40.07   35.14   69.52  -27.10   -3.08   27.28  186.48
G13   27.28   37.62   49.35   67.74  -32.67  -24.17   40.62  216.49
G14   39.52   28.10   38.44   59.99   43.94  -24.08   50.10  331.28
G15   60.75   61.75   14.23   82.78    2.91   58.98   59.05   87.18
G16   10.78   11.07    9.09   39.70    0.82    0.14    0.84   10.66
G17   32.13   23.82   10.43   55.91   36.74   23.59   43.65   32.71
G18   19.64   29.06   13.10   60.83  -36.96   24.15   44.15  146.85
G19   14.55   13.28   29.85   43.19   11.11  -40.49   41.99  285.34
G20   35.67   35.06   15.90   65.79    6.42   25.49   26.28   75.86
G21   33.98   33.27   10.24   64.38    6.76   38.78   39.37   80.11
G22   42.69   40.01    2.88   69.48   12.67   82.01   82.98   81.21
H1     2.12    2.38    2.90   17.37   -3.86   -8.03    8.91  244.32
H2     1.94    2.47    3.82   17.81   -9.62  -13.57   16.64  234.65
H3     1.75    2.45    4.85   17.70  -13.99  -19.67   24.14  234.58
H4     2.07    2.96    6.26   19.88  -15.54  -22.85   27.63  235.77
H5     8.40    9.59   10.21   37.11   -7.26   -8.12   10.90  228.21
H6     7.82    9.95   13.23   37.76  -15.22  -15.99   22.08  226.41
H7     7.00    9.80   16.86   37.46  -21.88  -25.64   33.71  229.52
H8     6.78   10.19   20.92   38.19  -27.15  -33.18   42.88  230.71
H9    34.22   37.49   33.69   67.65   -6.49   -4.20    7.72  212.90
H10   33.76   37.94   37.74   67.98   -9.53   -9.34   13.35  224.42
H11   33.94   39.49   45.13   69.11  -13.74  -16.87   21.76  230.82
H12   33.39   39.85   49.34   69.36  -16.78  -21.36   27.17  231.85
H13   22.23   32.28   45.67   63.58  -36.37  -27.05   45.32  216.64
H14   33.33   21.65   32.49   53.65   50.72  -26.54   57.25  332.38
H15   58.39   58.62   10.18   81.08    4.61   67.80   67.95   86.10
H16    6.68    6.81    5.63   31.38    1.23   -0.07    1.23  356.77
H17   26.67   18.31    6.45   49.87   41.91   28.06   50.43   33.81
H18   14.53   23.29    9.06   55.38  -41.53   27.27   49.68  146.70
H19   10.11    8.57   24.47   35.15   15.34  -45.21   47.75  288.74
H20   39.89   41.04   16.32   70.21    1.01   32.08   32.09   88.20
H21   31.52   32.92   22.49   64.10   -0.75    8.41    8.44   95.10
H22   33.83   37.27   11.57   67.48   -7.14   39.99   40.63  100.12
I1     3.35    3.36    4.60   21.42    1.82  -11.91   12.05  278.70
I2     3.43    3.36    7.23   21.42    3.16  -24.30   24.50  277.43
I3     3.65    3.47   10.35   21.83    4.82  -34.92   35.24  277.85
I4     3.93    3.62   14.23   22.39    6.63  -45.15   45.63  278.35
I5    11.98   12.32   12.90   41.72    0.68   -8.23    8.25  274.73
I6    12.10   12.29   16.94   41.67    1.75  -18.58   18.67  275.38
I7    12.19   12.22   21.42   41.56    2.85  -28.37   28.51  275.72
I8    12.76   12.64   26.00   42.21    4.00  -35.78   36.00  276.39
I9    35.82   37.31   34.18   67.51   -0.45   -5.16    5.18  264.93
I10   36.71   38.08   38.47   68.07    0.04  -10.16   10.16  270.18
I11   37.38   38.55   44.19   68.43    0.70  -16.90   16.92  272.39
I12   37.67   38.81   48.91   68.61    0.88  -22.17   22.19  272.27
I13   18.56   28.13   42.51   60.01  -38.89  -29.34   48.72  217.04
I14   29.57   18.05   28.76   49.56   54.65  -27.75   61.28  333.08
I15   56.70   56.38    8.01   79.83    5.89   73.27   73.51   85.40
I16    4.54    4.58    3.89   25.49    1.72   -0.78    1.89  335.96
I17   23.30   15.11    4.43   45.79   45.10   31.04   54.75   34.54
I18   11.61   19.74    6.85   51.54  -44.17   29.20   52.95  146.53
I19    7.49    5.87   20.67   29.08   19.05  -48.38   51.99  291.49
I20   40.60   44.97   17.20   72.88   -8.27   34.62   35.60  103.44
I21   11.11   14.99    4.05   45.64  -22.28   33.01   39.81  124.03
I22   27.55   35.51   18.11   66.14  -24.68   20.94   32.37  139.69
J1     1.74    1.57    2.61   13.03    6.05  -13.16   14.49  294.66
J2     1.96    1.54    4.18   12.85   12.12  -24.30   27.16  296.51
J3     2.45    1.63    7.09   13.44   20.02  -37.50   42.51  298.10
J4     2.78    1.64    9.84   13.50   26.08  -47.59   54.26  298.72
J5     9.69    9.38   10.60   36.71    5.37  -10.07   11.41  298.07
J6    10.25    9.27   13.66   36.49   10.65  -19.34   22.08  298.83
J7    10.84    9.13   17.77   36.23   16.20  -29.88   33.99  298.46
J8    11.70    9.44   20.94   36.81   19.97  -35.62   40.83  299.28
J9    37.33   38.00   34.76   68.02    2.30   -5.11    5.61  294.34
J10   38.33   38.24   38.65   68.20    4.76  -10.20   11.26  295.01
J11   39.68   38.33   43.85   68.26    8.73  -16.75   18.89  297.53
J12   40.31   37.94   48.05   67.97   11.97  -22.27   25.28  298.23
J13   13.51   21.95   37.17   53.97  -41.85  -32.70   53.11  218.00
J14   25.22   14.24   24.34   44.58   58.67  -28.72   65.32  333.92
J15   54.69   53.81    6.16   78.35    7.26   78.43   78.76   84.71
J16    2.31    2.34    2.16   17.20    1.08   -2.17    2.42  296.36
J17   19.19   11.52    2.66   40.44   48.63   33.59   59.11   34.64
J18    7.22   13.99    4.27   44.23  -48.85   29.31   56.96  149.04
J19    4.74    3.31   16.13   21.25   22.63  -51.88   56.60  293.57
J20   29.65   38.01   24.52   68.03  -24.69   11.37   27.18  155.26
J21    3.74    7.08    1.41   31.99  -37.58   31.15   48.81  140.35
J22    0.98    1.57    0.78   13.01  -16.75    7.74   18.45  155.20
K1     4.09    3.41    4.14   21.64   12.10   -8.93   15.04  323.58
K2     5.11    3.51    6.10   22.01   23.89  -18.44   30.17  322.34
K3     6.57    3.82    8.84   23.03   35.90  -27.70   45.35  322.35
K4     7.95    4.12   12.06   24.08   44.85  -36.27   57.68  321.04
K5    13.39   12.26   12.67   41.62   10.58   -7.78   13.13  323.68
K6    15.19   12.17   15.99   41.47   22.33  -16.67   27.86  323.24
K7    17.24   12.36   20.06   41.79   32.58  -25.19   41.18  322.29
K8    19.86   12.71   24.81   42.32   43.93  -33.46   55.22  322.70
K9    38.68   38.11   34.35   68.10    6.28   -4.36    7.64  325.24
K10   41.41   38.54   37.83   68.42   13.42   -8.72   16.00  327.01
K11   44.88   39.72   44.01   69.27   19.99  -15.23   25.14  322.72
K12   47.13   39.88   47.20   69.38   25.88  -18.85   32.01  323.93
K13   11.35   19.01   34.32   50.71  -42.47  -34.33   54.61  218.95
K14   20.79   10.79   19.70   39.22   61.79  -28.89   68.21  334.94
K15   47.06   44.29    2.78   72.43   12.57   87.88   88.76   81.86
K16    1.15    1.18    0.98   10.44    0.43    0.03    0.53  181.77
K17   16.11    9.17    1.32   36.31   49.93   39.87   63.90   38.60
K18    4.38    9.32    2.07   36.58  -48.29   32.10   57.99  146.39
K19    3.17    1.88   12.51   14.81   27.39  -53.57   60.17  297.08
K20    2.16    2.80    2.00   19.22  -10.78    2.82   11.15  165.40
K21    1.12    1.49    1.48   12.56   -9.82   -3.16   10.31  197.85
K22    1.47    1.83    2.95   14.55   -7.70  -13.23   15.31  239.82
L1     2.93    2.40    2.37   17.45   11.89   -3.60   12.42  343.17
L2     3.68    2.51    2.62   17.97   21.90   -4.74   22.40  347.78
L3     5.18    3.07    3.42   20.33   32.01   -6.61   32.68  348.35
L4     5.86    3.38    4.14   21.51   34.94   -9.07   36.10  345.45
L5    10.84    9.25    8.60   36.44   15.26   -3.72   15.70  346.32
L6    13.35    9.65    9.72   37.22   29.35   -6.31   30.02  347.88
L7    16.15    9.82   10.43   37.52   44.97   -8.11   45.70  349.79
L8    18.04   10.32   11.33   38.42   51.43   -9.39   52.28  349.65
L9    39.74   38.62   33.10   68.47    8.02   -1.88    8.24  346.78
L10   41.90   38.71   34.13   68.54   14.41   -3.31   14.78  347.10
L11   45.32   39.46   34.85   69.08   22.06   -3.40   22.33  351.23
L12   46.95   38.98   35.83   68.74   28.18   -5.39   28.69  349.17
L13    7.81   13.57   28.33   43.61  -40.57  -37.30   55.12  222.59
L14   16.94    8.16   15.84   34.31   63.21  -28.65   69.40  335.61
L15   43.25   39.86    2.24   69.37   14.82   87.11   88.36   80.35
L16    0.44    0.45    0.52    4.08    0.47   -2.70    2.74  279.93
L17   12.53    6.66    0.73   31.02   50.62   39.85   64.43   38.21
L18    2.69    6.32    1.43   30.19  -47.45   27.80   54.99  149.64
L19    1.94    0.92    8.80    8.29   31.36  -52.99   61.58  300.61
L20    0.62    0.71    0.71    6.36   -2.43   -2.51    3.51  226.05
L21    0.81    0.72    0.82    6.53    4.23   -4.20    5.96  315.11
L22    1.86    1.44    1.41   12.27   12.27   -2.82   12.59  347.06
GS0    75.99   78.50   67.74   91.01    0.68   -2.82    2.89  283.59
GS1    71.01   73.21   61.74   88.55    0.96   -1.35    1.65  305.59
GS2    59.93   61.60   51.70   82.70    1.35   -1.01    1.68  323.21
GS3    50.91   52.49   43.72   77.57    0.85   -0.55    1.02  327.67
GS4    45.08   46.62   38.24   73.94    0.45    0.27    0.53   29.94
GS5    38.49   39.78   32.97   69.31    0.49   -0.25    0.56  333.55
GS6    32.51   33.65   27.38   64.69    0.23    0.62    0.66   69.04
GS7    28.36   29.44   23.85   61.17   -0.06    0.76    0.76   94.40
GS8    24.17   24.99   20.37   57.07    0.39    0.48    0.62   50.24
GS9    20.54   21.33   17.38   53.32   -0.11    0.47    0.50  102.74
GS10   17.73   18.49   15.11   50.08   -0.42    0.32    0.53  142.12
GS11   13.97   14.49   12.00   44.92    0.03   -0.16    0.17  263.92
GS12   11.11   11.59    9.68   40.55   -0.35   -0.44    0.56  229.89
GS13    8.63    8.96    7.57   35.90   -0.05   -0.74    0.74  265.36
GS14    6.97    7.20    6.03   32.25    0.28   -0.45    0.54  304.99
GS15    5.54    5.67    4.69   28.57    0.87   -0.03    0.87  177.90
GS16    4.30    4.38    3.74   24.89    1.05   -0.77    1.31  324.35
GS17    3.06    3.12    2.80   20.53    0.83   -1.77    1.96  295.31
GS18    2.12    2.18    2.03   16.42    0.44   -2.26    2.30  280.95
GS19    1.50    1.53    1.35   12.82    0.51   -1.10    1.22  294.96
GS20    1.05    1.08    0.85    9.59    0.40    0.57    0.71   52.61
GS21    0.89    0.91    0.68    8.19    0.44    1.28    1.36   70.49
GS22    0.69    0.69    0.57    6.22    0.99   -0.09    1.00  174.79
GS23    0.41    0.41    0.50    3.75    0.52   -3.03    3.08  279.84
END_DATA
