lprof/data/targets/Agfa/Reflective/C81114XX.it8
IT8.7/2
ORIGINATOR "FotoTune"
DESCRIPTOR "Agfa IT8"
MATERIAL "Agfacolor"
MANUFACTURER "Agfa"
CREATED "Tue Feb  2 08:51:58 1999"
PROD_DATE "1999:02"
SERIAL "5x7 c81114xx"
NUMBER_OF_FIELDS 9
BEGIN_DATA_FORMAT
SAMPLE_ID XYZ_X XYZ_Y XYZ_Z LAB_L LAB_A LAB_B LAB_C LAB_H
END_DATA_FORMAT
NUMBER_OF_SETS 288
BEGIN_DATA
A1     2.93    2.45    1.78   17.73   10.56    2.41   10.83   12.85
A2     3.48    2.43    1.43   17.59   20.47    6.07   21.36   16.50
A3     4.89    2.97    1.51   19.89   30.37    9.15   31.72   16.77
A4     5.11    3.05    1.61   20.25   31.53    8.74   32.72   15.49
A5    10.34    9.02    6.55   36.01   13.35    3.74   13.86   15.62
A6    12.60    9.38    5.62   36.69   26.60    9.13   28.12   18.94
A7    15.34    9.82    4.93   37.51   40.32   14.05   42.70   19.21
A8    17.54   10.07    4.48   37.97   50.69   17.27   53.55   18.81
A9    40.28   39.30   31.34   68.96    7.61    1.62    7.78   11.98
A10   42.84   39.71   30.14   69.26   14.09    4.02   14.65   15.92
A11   45.94   40.31   29.07   69.69   21.25    6.46   22.20   16.90
A12   45.97   38.69   26.82   68.52   26.31    8.19   27.56   17.28
A13   75.06   77.77   67.26   90.68    0.19   -2.95    2.95  273.83
A14   75.45   77.72   67.26   90.65    1.11   -2.99    3.18  290.27
A15   75.21   77.81   65.19   90.69    0.44   -0.98    1.07  294.32
A16   74.39   76.92   64.93   90.28    0.52   -1.45    1.54  289.85
A17   75.01   77.37   65.14   90.49    0.89   -1.28    1.57  304.99
A18   74.85   77.63   65.34   90.61    0.09   -1.27    1.27  273.76
A19   74.60   77.02   66.96   90.33    0.75   -3.26    3.35  282.84
A20    1.25    0.98    0.59    8.84   10.24    4.09   11.03   21.78
A21    4.53    2.74    0.65   18.97   29.69   20.51   36.08   34.63
A22    8.84    4.84    0.67   26.26   43.33   32.64   54.25   36.99
B1     2.83    2.49    1.39   17.88    8.19    7.15   10.87   41.12
B2     3.42    2.58    0.76   18.29   16.47   17.12   23.76   46.11
B3     4.14    2.79    0.69   19.19   23.56   19.86   30.81   40.13
B4     4.75    3.08    0.70   20.37   26.55   21.96   34.46   39.60
B5    10.85    9.47    4.92   36.87   13.52   12.99   18.75   43.86
B6    12.88    9.82    3.43   37.51   25.00   23.01   33.97   42.63
B7    15.20    9.90    2.07   37.68   38.79   33.94   51.55   41.19
B8    16.93   10.11    1.38   38.04   47.08   42.11   63.17   41.82
B9    40.13   39.54   28.63   69.14    6.38    6.21    8.90   44.26
B10   42.79   40.22   25.70   69.62   12.35   12.02   17.24   44.21
B11   45.55   40.76   23.07   70.01   18.74   17.49   25.64   43.01
B12   46.28   40.29   20.72   69.68   22.24   21.51   30.94   44.05
B13   67.00   72.10   65.69   88.02   -5.42   -6.07    8.14  228.24
B14   70.64   69.59   64.07   86.79    7.71   -6.64   10.18  319.29
B15   72.38   75.38   51.93   89.57   -0.56   10.57   10.59   93.04
B16   59.47   61.17   50.54   82.46    1.25   -0.12    1.25  354.15
B17   67.40   66.97   50.07   85.49    6.34    5.62    8.47   41.53
B18   64.20   69.61   51.53   86.81   -6.47    6.26    8.99  135.95
B19   62.28   63.75   62.10   83.83    1.96   -9.84   10.03  281.24
B20    2.83    1.95    0.65   15.21   19.70   13.96   24.15   35.33
B21    7.78    4.38    0.67   24.88   39.84   30.17   49.97   37.14
B22   28.14   23.97   12.63   56.06   21.10   17.23   27.24   39.22
C1     3.81    3.62    1.93   22.40    4.78    8.98   10.17   61.96
C2     4.14    3.74    1.12   22.80    8.01   19.17   20.78   67.33
C3     4.81    4.01    0.88   23.70   12.93   24.40   27.61   62.10
C4     4.93    4.11    0.88   24.01   13.03   24.86   28.07   62.35
C5    21.56   20.74    9.43   52.67    7.52   21.31   22.59   70.56
C6    24.14   21.16    4.91   53.12   17.20   41.07   44.53   67.27
C7    25.48   20.83    2.20   52.76   24.49   58.72   63.62   67.35
C8    27.63   21.63    1.62   53.63   29.56   66.08   72.40   65.90
C9    47.00   47.58   31.61   74.57    3.18   10.85   11.31   73.64
C10   49.49   48.62   25.81   75.21    7.22   21.45   22.64   71.40
C11   52.03   49.58   21.47   75.81   11.38   30.58   32.64   69.60
C12   51.58   48.12   17.05   74.90   14.10   38.47   40.97   69.88
C13   56.91   64.35   62.96   84.15  -12.22  -10.12   15.86  219.65
C14   64.07   59.36   59.44   81.49   16.16  -11.26   19.69  325.15
C15   70.00   73.01   42.05   88.45   -0.77   20.30   20.31   92.17
C16   44.39   45.91   37.13   73.49    0.42    0.99    1.08   67.12
C17   58.94   55.48   38.67   79.32   13.56    8.94   16.24   33.42
C18   52.38   60.08   40.81   81.88  -13.90   10.56   17.45  142.75
C19   48.28   48.96   55.37   75.42    3.01  -17.52   17.78  279.77
C20    1.78    1.47    0.66   12.39    9.84    8.93   13.28   42.24
C21   21.98   16.67    4.88   47.83   30.34   32.14   44.19   46.65
C22   35.21   32.57   19.47   63.81   13.42   13.99   19.38   46.19
D1     3.51    3.64    1.96   22.44   -0.04    8.76    8.76   90.22
D2     3.59    3.75    1.16   22.83   -0.39   18.66   18.67   91.21
D3     3.89    3.94    0.93   23.46    1.32   23.22   23.26   86.76
D4     3.99    4.05    0.95   23.84    1.15   23.49   23.52   87.19
D5    24.17   25.56   12.01   57.61   -1.96   21.70   21.79   95.18
D6    23.79   25.37    6.75   57.43   -2.86   39.77   39.87   94.10
D7    25.01   26.69    3.55   58.68   -3.03   58.64   58.72   92.96
D8    23.88   24.92    1.96   57.00   -0.63   68.35   68.36   90.53
D9    53.51   56.31   35.80   79.79   -1.92   13.70   13.84   97.98
D10   55.53   58.11   29.78   80.81   -1.17   24.47   24.50   92.75
D11   55.18   58.27   23.86   80.89   -2.43   34.76   34.85   93.99
D12   55.61   58.82   19.74   81.19   -2.70   43.38   43.47   93.55
D13   47.25   56.34   59.67   79.81  -18.73  -14.38   23.61  217.52
D14   57.03   49.47   53.86   75.74   24.33  -15.36   28.78  327.74
D15   67.62   70.40   33.49   87.19   -0.50   29.81   29.81   90.97
D16   31.76   32.91   26.76   64.09    0.15    0.65    0.67   77.25
D17   50.50   44.77   28.48   72.74   20.58   12.68   24.17   31.64
D18   40.75   49.99   31.08   76.06  -21.55   14.26   25.83  146.51
D19   36.10   35.99   47.94   66.51    4.77  -24.67   25.13  280.93
D20   13.50   10.25    2.91   38.28   25.67   27.95   37.96   47.43
D21   21.91   21.22   13.01   53.18    6.97   11.19   13.18   58.12
D22   39.03   37.92   22.44   67.96    8.00   15.16   17.15   62.18
E1     3.18    3.62    2.01   22.39   -5.01    8.21    9.61  121.40
E2     2.91    3.61    1.20   22.32   -9.36   17.28   19.66  118.44
E3     3.05    3.93    1.00   23.46  -12.01   22.05   25.10  118.58
E4     3.09    4.02    1.02   23.73  -12.34   22.21   25.41  119.05
E5    10.78   12.37    6.28   41.80   -8.19   14.85   16.96  118.86
E6    10.12   12.66    4.15   42.26  -15.21   26.59   30.64  119.78
E7     9.40   12.97    2.45   42.72  -22.91   39.32   45.50  120.24
E8     9.43   13.66    1.76   43.74  -27.08   47.49   54.67  119.69
E9    35.13   38.61   24.88   68.47   -6.93   11.49   13.42  121.10
E10   34.44   39.07   21.66   68.81  -10.73   18.12   21.06  120.65
E11   34.06   39.99   18.45   69.46  -14.85   25.93   29.88  119.81
E12   33.06   40.17   15.22   69.58  -18.90   33.69   38.63  119.30
E13   39.97   49.87   56.46   75.99  -23.65  -17.67   29.53  216.77
E14   50.90   41.47   48.75   70.50   31.31  -18.74   36.50  329.10
E15   64.80   67.03   24.50   85.51    0.44   41.58   41.58   89.39
E16   22.90   23.72   18.64   55.82    0.11    1.99    2.00   87.04
E17   43.44   36.51   19.99   66.90   26.03   18.23   31.78   34.99
E18   31.71   41.43   22.74   70.47  -27.57   18.91   33.43  145.55
E19   27.53   26.97   41.66   58.94    6.29  -30.08   30.74  281.80
E20   21.81   14.92    1.22   45.53   39.48   57.00   69.35   55.30
E21   16.38   13.56    2.84   43.58   20.08   37.61   42.65   61.90
E22   28.58   24.94    8.35   57.01   18.67   32.67   37.64   60.25
F1     1.28    1.60    1.07   13.23   -7.44    3.41    8.19  155.40
F2     1.12    1.71    0.92   13.88  -15.61    6.84   17.05  156.36
F3     1.10    1.95    0.90   15.22  -22.09    9.38   24.00  157.01
F4     1.24    2.34    1.02   17.15  -25.62   10.86   27.83  157.03
F5     5.85    7.32    4.84   32.51  -12.62    5.92   13.94  154.88
F6     4.91    7.48    4.24   32.89  -25.31    9.90   27.18  158.65
F7     4.02    7.57    3.66   33.06  -38.02   13.74   40.42  160.13
F8     3.00    7.24    3.22   32.35  -51.09   15.52   53.40  163.10
F9    34.43   38.14   28.90   68.12   -7.82    4.03    8.81  152.74
F10   33.68   39.10   28.24   68.82  -13.43    6.30   14.83  154.85
F11   32.38   39.58   27.81   69.18  -19.55    7.62   20.98  158.71
F12   31.08   39.85   26.17   69.37  -25.10   10.75   27.30  156.82
F13   33.43   43.74   53.10   72.05  -28.22  -20.90   35.11  216.52
F14   45.90   35.40   44.33   66.06   36.73  -21.15   42.39  330.07
F15   62.97   64.70   19.51   84.32    1.41   49.28   49.30   88.36
F16   16.80   17.36   13.73   48.71    0.38    1.54    1.59   76.78
F17   38.47   30.85   14.91   62.38   30.27   22.03   37.44   36.03
F18   25.76   35.42   17.24   66.08  -31.73   22.80   39.07  144.30
F19   21.24   20.30   36.39   52.17    8.17  -34.74   35.69  283.23
F20   26.01   25.22   12.78   57.29    7.21   18.92   20.24   69.14
F21   33.18   30.77   11.27   62.31   12.86   32.03   34.51   68.12
F22   37.60   36.10   16.86   66.60    9.31   24.59   26.29   69.26
G1     1.99    2.47    2.22   17.78   -8.51   -1.65    8.66  190.97
G2     1.73    2.57    2.47   18.25  -16.90   -3.08   17.17  190.33
G3     1.58    2.81    2.88   19.26  -25.17   -4.57   25.58  190.30
G4     1.77    3.26    3.24   21.04  -27.83   -4.18   28.14  188.55
G5     7.87    9.68    8.02   37.28  -12.69   -0.13   12.69  180.57
G6     6.90    9.90    8.78   37.65  -23.57   -2.30   23.68  185.56
G7     5.72    9.86    9.15   37.58  -36.00   -3.71   36.19  185.89
G8     4.93   10.35   10.14   38.47  -49.06   -5.55   49.38  186.46
G9    33.80   37.67   30.19   67.77   -8.50    1.36    8.61  170.96
G10   32.69   38.42   32.06   68.33  -14.80   -0.58   14.81  182.23
G11   31.66   39.10   32.74   68.83  -20.64   -0.75   20.66  182.08
G12   30.26   39.65   34.51   69.21  -27.49   -2.68   27.61  185.57
G13   27.39   37.73   49.41   67.82  -32.60  -24.09   40.54  216.46
G14   39.61   28.22   38.56   60.08   43.79  -24.07   49.97  331.21
G15   60.47   61.42   13.74   82.60    3.06   59.95   60.03   87.08
G16   10.66   11.03    8.65   39.64    0.21    1.62    1.63   82.70
G17   32.22   23.99   10.07   56.08   36.31   25.06   44.11   34.62
G18   19.69   29.06   12.56   60.83  -36.68   25.67   44.77  145.02
G19   14.59   13.38   29.98   43.33   10.73  -40.46   41.86  284.84
G20   36.12   35.57   15.72   66.19    6.24   26.60   27.33   76.80
G21   34.18   33.44    9.65   64.51    6.85   41.01   41.58   80.52
G22   42.32   39.51    2.74   69.12   13.10   82.49   83.52   80.98
H1     2.15    2.47    2.70   17.76   -4.76   -5.77    7.49  230.51
H2     1.94    2.53    3.52   18.05  -10.81  -11.18   15.55  225.96
H3     1.72    2.48    4.61   17.82  -15.11  -18.18   23.65  230.27
H4     2.05    3.01    6.05   20.04  -16.78  -21.59   27.35  232.15
H5     8.49    9.78   10.01   37.46   -7.95   -6.86   10.51  220.79
H6     7.90   10.10   13.06   38.00  -15.61  -15.09   21.72  224.02
H7     7.11    9.98   16.87   37.82  -22.21  -25.08   33.50  228.48
H8     6.87   10.38   20.95   38.51  -27.62  -32.71   42.81  229.82
H9    34.46   37.88   33.40   67.93   -6.89   -3.27    7.63  205.36
H10   33.89   38.35   37.86   68.28  -10.38   -8.99   13.73  220.88
H11   34.14   40.02   45.12   69.49  -14.71  -16.20   21.89  227.76
H12   33.51   40.17   49.75   69.59  -17.33  -21.43   27.56  231.04
H13   22.31   32.35   45.67   63.64  -36.26  -26.95   45.18  216.62
H14   33.65   21.97   32.86   54.00   50.38  -26.49   56.91  332.26
H15   57.99   58.10    9.61   80.79    4.89   69.17   69.33   85.96
H16    6.76    6.94    5.38   31.67    0.70    1.67    1.83   67.10
H17   26.83   18.53    6.13   50.13   41.46   29.91   51.12   35.81
H18   14.66   23.36    8.61   55.44  -41.06   28.99   50.27  144.77
H19   10.37    8.89   24.90   35.78   14.65  -44.93   47.26  288.06
H20   40.69   41.93   15.84   70.82    0.88   34.29   34.30   88.53
H21   31.87   33.36   22.18   64.45   -1.01    9.59    9.64   96.01
H22   33.94   37.38   11.10   67.56   -7.09   41.57   42.18   99.68
I1     3.35    3.41    4.28   21.62    1.02   -9.77    9.83  275.95
I2     3.49    3.49    6.94   21.89    2.12  -22.33   22.44  275.40
I3     3.68    3.58   10.16   22.23    3.64  -33.63   33.82  276.19
I4     4.01    3.74   14.30   22.83    5.80  -44.61   44.99  277.40
I5    12.03   12.51   12.69   42.01   -0.14   -7.17    7.17  268.94
I6    12.15   12.49   16.75   41.99    0.83  -17.60   17.62  272.68
I7    12.32   12.47   21.28   41.96    2.03  -27.40   27.47  274.22
I8    12.90   12.88   26.19   42.58    3.26  -35.47   35.62  275.25
I9    36.24   37.77   33.64   67.85   -0.54   -3.76    3.80  261.68
I10   37.12   38.57   38.44   68.43   -0.14   -9.49    9.50  269.16
I11   37.81   39.16   44.26   68.87    0.20  -16.23   16.23  270.73
I12   38.08   39.28   49.12   68.96    0.72  -21.81   21.83  271.90
I13   18.67   28.25   42.52   60.11  -38.79  -29.16   48.53  216.93
I14   29.92   18.39   29.14   49.97   54.19  -27.65   60.83  332.96
I15   55.99   55.44    7.28   79.29    6.44   75.24   75.51   85.11
I16    4.60    4.69    3.63   25.84    0.99    1.50    1.79   55.94
I17   23.41   15.30    4.10   46.04   44.57   33.41   55.69   36.85
I18   11.52   19.51    6.24   51.29  -43.69   31.39   53.79  144.30
I19    7.66    6.09   21.01   29.63   18.36  -48.14   51.52  290.89
I20   40.89   45.28   16.56   73.07   -8.23   36.46   37.38  102.71
I21   11.02   14.83    3.60   45.39  -21.96   35.42   41.68  121.81
I22   27.58   35.59   17.58   66.21  -24.83   22.24   33.33  138.15
J1     1.75    1.60    2.40   13.20    5.44  -11.18   12.43  295.93
J2     1.98    1.59    3.99   13.12   11.36  -22.65   25.34  296.65
J3     2.49    1.69    7.06   13.76   19.64  -36.84   41.75  298.05
J4     2.84    1.70    9.93   13.84   25.85  -47.35   53.94  298.64
J5     9.78    9.52   10.39   36.98    4.85   -8.91   10.15  298.59
J6    10.44    9.54   13.52   37.00    9.89  -18.08   20.60  298.68
J7    11.07    9.40   18.03   36.74   15.66  -29.56   33.45  297.91
J8    11.92    9.72   21.19   37.32   19.32  -35.23   40.18  298.74
J9    37.44   38.19   34.38   68.16    2.07   -4.32    4.79  295.64
J10   38.93   38.92   38.85   68.70    4.53   -9.60   10.61  295.33
J11   40.53   39.13   44.06   68.85    8.86  -16.01   18.30  298.96
J12   41.03   38.81   48.55   68.61   11.43  -21.75   24.57  297.72
J13   13.66   22.13   37.28   54.17  -41.74  -32.53   52.92  217.93
J14   25.52   14.52   24.70   44.97   58.27  -28.70   64.96  333.78
J15   53.92   52.78    5.51   77.74    7.93   80.48   80.87   84.38
J16    2.41    2.47    2.01   17.76    0.61    0.26    0.65   23.60
J17   19.31   11.67    2.45   40.69   48.21   35.72   60.00   36.54
J18    7.27   13.97    3.93   44.18  -48.17   31.23   57.40  147.04
J19    4.88    3.45   16.49   21.78   22.11  -51.79   56.32  293.12
J20   29.61   38.08   24.01   68.07  -25.00   12.40   27.90  153.62
J21    3.80    7.15    1.40   32.15  -37.39   31.61   48.97  139.79
J22    0.99    1.60    0.77   13.21  -17.34    8.25   19.20  154.57
K1     4.32    3.67    4.07   22.56   11.56   -6.91   13.47  329.13
K2     5.36    3.73    6.27   22.76   23.74  -17.93   29.75  322.95
K3     6.72    3.93    8.89   23.42   35.91  -27.22   45.07  322.84
K4     8.01    4.14   12.12   24.13   45.20  -36.39   58.03  321.16
K5    13.90   12.81   12.96   42.47   10.16   -7.12   12.40  324.96
K6    15.68   12.74   16.29   42.38   21.33  -15.83   26.56  323.42
K7    17.76   12.90   20.51   42.61   31.89  -24.74   40.36  322.20
K8    20.60   13.35   25.66   43.29   43.42  -33.30   54.72  322.51
K9    39.84   39.35   34.83   69.01    6.05   -3.50    6.99  329.96
K10   42.41   39.40   38.46   69.04   13.73   -8.48   16.14  328.33
K11   46.15   40.94   44.72   70.13   19.92  -14.60   24.70  323.75
K12   48.27   40.89   47.97   70.10   25.94  -18.52   31.88  324.47
K13   11.64   19.41   34.73   51.16  -42.39  -34.13   54.42  218.84
K14   21.01   10.98   20.07   39.53   61.51  -29.12   68.06  334.67
K15   46.65   43.77    2.66   72.07   12.96   88.22   89.17   81.64
K16    1.19    1.24    0.94   10.80    0.19    1.34    1.36   81.73
K17   16.24    9.30    1.24   36.56   49.64   41.33   64.59   39.78
K18    4.45    9.36    1.97   36.68  -47.62   33.19   58.04  145.12
K19    3.28    1.98   12.91   15.34   27.03  -53.76   60.19  296.70
K20    2.28    2.99    1.88   19.98  -11.62    5.30   12.77  155.48
K21    1.16    1.59    1.38   13.14  -10.94   -0.96   10.98  184.97
K22    1.53    1.95    2.83   15.25   -9.15  -11.12   14.40  230.52
L1     3.13    2.59    2.26   18.30   11.60   -1.08   11.66  354.68
L2     3.78    2.59    2.47   18.35   21.92   -2.88   22.12  352.51
L3     5.19    3.09    3.29   20.40   31.99   -5.56   32.46  350.14
L4     5.84    3.37    4.01   21.45   34.88   -8.43   35.88  346.42
L5    11.23    9.74    8.66   37.38   14.18   -2.35   14.38  350.62
L6    13.66   10.03    9.76   37.90   28.38   -5.27   28.86  349.47
L7    16.78   10.32   10.75   38.40   44.69   -7.61   45.33  350.33
L8    18.53   10.66   11.51   39.01   51.44   -8.90   52.21  350.19
L9    40.53   39.42   33.01   69.06    7.95   -0.75    7.99  354.59
L10   42.74   39.44   34.28   69.07   14.62   -2.61   14.85  349.90
L11   46.08   40.12   35.07   69.55   22.19   -2.90   22.39  352.55
L12   47.25   39.28   36.32   68.95   28.09   -5.72   28.67  348.51
L13    7.82   13.56   28.33   43.58  -40.40  -37.35   55.01  222.76
L14   16.71    8.06   15.77   34.10   62.85  -28.85   69.16  335.34
L15   43.22   39.78    2.23   69.31   14.97   87.08   88.35   80.24
L16    0.44    0.45    0.51    4.05    0.56   -2.74    2.80  281.42
L17   12.40    6.60    0.72   30.88   50.34   39.72   64.12   38.27
L18    2.70    6.30    1.42   30.17  -47.22   27.91   54.85  149.42
L19    1.93    0.90    8.78    8.15   31.71  -53.19   61.93  300.79
L20    0.62    0.71    0.69    6.40   -2.58   -1.93    3.23  216.98
L21    0.81    0.74    0.77    6.64    4.32   -3.14    5.35  323.93
L22    1.93    1.51    1.33   12.64   12.39   -1.06   12.43  355.10
GS0    76.08   78.60   67.83   91.06    0.64   -2.83    2.89  282.91
GS1    71.54   73.71   62.39   88.79    1.03   -1.58    1.88  303.06
GS2    60.94   62.72   52.65   83.29    1.17   -1.03    1.56  318.89
GS3    52.24   53.86   44.76   78.38    0.86   -0.43    0.98  333.95
GS4    46.32   48.05   38.78   74.85    0.05    1.10    1.10   87.89
GS5    39.59   41.19   33.22   70.31   -0.34    1.10    1.15  107.64
GS6    33.69   35.05   27.98   65.79   -0.29    1.52    1.55  100.96
GS7    29.16   30.38   24.26   61.98   -0.45    1.42    1.50  107.56
GS8    24.83   25.83   20.60   57.88   -0.32    1.41    1.45  102.83
GS9    21.40   22.33   17.85   54.38   -0.56    1.25    1.37  114.01
GS10   18.62   19.49   15.60   51.25   -0.82    1.15    1.42  125.85
GS11   14.73   15.41   12.26   46.19   -0.77    1.25    1.47  121.58
GS12   11.93   12.50    9.82   42.00   -0.88    1.59    1.82  118.94
GS13    9.28    9.72    7.68   37.33   -0.66    1.28    1.44  117.35
GS14    7.62    7.95    6.02   33.89   -0.44    2.42    2.46  100.19
GS15    6.05    6.27    4.66   30.08    0.08    2.70    2.70   88.31
GS16    4.68    4.83    3.61   26.24    0.32    2.36    2.38   82.16
GS17    3.41    3.53    2.74   22.06    0.14    1.36    1.37   84.51
GS18    2.41    2.51    1.96   17.93   -0.06    1.00    1.00   93.49
GS19    1.68    1.75    1.31   14.08    0.11    1.57    1.58   85.77
GS20    1.16    1.20    0.85   10.55    0.32    2.25    2.28   81.32
GS21    0.96    0.99    0.68    8.86    0.47    2.45    2.51   78.85
GS22    0.77    0.77    0.60    6.94    1.19    0.71    1.39   30.52
GS23    0.43    0.43    0.51    3.88    0.50   -2.92    2.96  279.71
END_DATA
