lprof/data/targets/Agfa/Reflective/C81116XX.it8
IT8.7/2
ORIGINATOR "FotoTune"
DESCRIPTOR "Agfa IT8"
MATERIAL "Agfacolor"
MANUFACTURER "Agfa"
CREATED "Tue Feb  2 09:01:42 1999"
PROD_DATE "1999:02"
SERIAL "5x7 c81116xx"
NUMBER_OF_FIELDS 9
BEGIN_DATA_FORMAT
SAMPLE_ID XYZ_X XYZ_Y XYZ_Z LAB_L LAB_A LAB_B LAB_C LAB_H
END_DATA_FORMAT
NUMBER_OF_SETS 288
BEGIN_DATA
A1     3.24    2.70    2.10   18.81   11.24    1.19   11.31    6.03
A2     3.85    2.69    1.71   18.76   21.10    4.99   21.68   13.29
A3     5.16    3.12    1.77   20.50   31.18    7.40   32.05   13.34
A4     5.51    3.29    1.90   21.17   32.38    7.12   33.15   12.42
A5    11.12    9.68    7.57   37.26   13.88    1.61   13.97    6.61
A6    13.45   10.06    6.53   37.94   26.88    7.13   27.81   14.85
A7    15.88   10.23    5.75   38.26   40.20   11.21   41.74   15.59
A8    18.12   10.47    5.35   38.66   50.79   13.91   52.67   15.32
A9    41.21   40.27   32.60   69.66    7.44    0.90    7.50    6.93
A10   43.65   40.60   32.03   69.89   13.76    2.14   13.91    8.86
A11   46.68   41.08   30.63   70.24   20.97    4.91   21.53   13.18
A12   46.72   39.42   28.23   69.05   26.16    6.73   27.01   14.43
A13   75.46   78.16   67.60   90.85    0.25   -2.96    2.97  274.89
A14   75.62   77.91   67.45   90.74    1.09   -3.02    3.22  289.73
A15   75.43   78.06   65.32   90.81    0.40   -0.90    1.00  293.85
A16   74.68   77.20   65.15   90.42    0.55   -1.42    1.52  291.16
A17   75.13   77.50   65.34   90.56    0.89   -1.37    1.63  303.18
A18   75.01   77.76   65.49   90.67    0.11   -1.30    1.30  274.85
A19   74.82   77.25   67.24   90.43    0.76   -3.34    3.43  282.85
A20    1.38    1.08    0.62    9.62   10.71    5.06   11.85   25.28
A21    4.86    2.94    0.67   19.81   30.51   21.44   37.28   35.11
A22    9.16    5.03    0.70   26.81   43.67   33.03   54.76   37.10
B1     3.03    2.68    1.60   18.70    8.29    6.07   10.27   36.19
B2     3.64    2.78    0.81   19.10   16.48   17.69   24.18   47.03
B3     4.49    3.03    0.74   20.15   24.12   20.92   31.94   40.94
B4     5.02    3.26    0.73   21.07   26.90   22.65   35.17   40.10
B5    11.57   10.10    5.80   38.03   13.75   10.56   17.34   37.52
B6    13.55   10.36    4.07   38.49   25.16   20.58   32.50   39.27
B7    15.75   10.33    2.38   38.43   38.78   32.52   50.61   39.97
B8    17.25   10.39    1.56   38.53   46.74   40.75   62.01   41.10
B9    41.09   40.48   30.18   69.81    6.45    4.88    8.09   37.04
B10   43.14   40.68   27.31   69.95   11.98    9.82   15.48   39.36
B11   46.37   41.62   24.81   70.61   18.49   15.30   23.99   39.60
B12   46.86   40.83   22.17   70.06   22.25   19.26   29.43   40.89
B13   67.04   72.13   65.82   88.04   -5.43   -6.16    8.22  228.68
B14   70.94   69.99   64.36   86.99    7.51   -6.57    9.98  318.80
B15   72.71   75.68   53.10   89.71   -0.49    9.54    9.56   92.91
B16   59.50   61.36   51.28   82.57    0.86   -0.76    1.14  318.58
B17   67.93   67.55   51.57   85.78    6.27    4.43    7.68   35.29
B18   64.26   69.72   52.81   86.86   -6.57    4.95    8.23  143.03
B19   62.49   64.14   62.40   84.04    1.58   -9.78    9.91  279.16
B20    2.97    2.06    0.68   15.81   19.74   14.53   24.51   36.35
B21    8.09    4.57    0.70   25.46   40.18   30.63   50.52   37.32
B22   28.96   24.74   13.97   56.82   21.01   14.88   25.74   35.31
C1     4.08    3.90    2.26   23.33    4.69    7.49    8.84   57.92
C2     4.38    3.95    1.25   23.51    8.10   18.66   20.33   66.54
C3     5.10    4.25    0.91   24.49   13.12   25.22   28.42   62.51
C4     5.12    4.29    0.93   24.60   12.99   25.23   28.38   62.75
C5    22.36   21.52   10.55   53.51    7.61   19.08   20.53   68.26
C6    24.85   21.85    5.74   53.88   17.02   38.21   41.83   65.99
C7    25.88   21.31    2.45   53.29   23.85   57.56   62.31   67.50
C8    27.80   21.95    1.69   53.97   28.75   65.85   71.86   66.42
C9    47.61   48.31   33.26   75.01    2.93    9.16    9.61   72.29
C10   50.25   49.43   27.58   75.72    7.07   19.30   20.56   69.86
C11   52.54   50.25   22.86   76.22   10.97   28.57   30.61   68.99
C12   52.33   48.97   18.63   75.43   13.82   35.82   38.39   68.90
C13   57.22   64.61   63.18   84.29  -12.01  -10.12   15.72  220.11
C14   64.29   59.70   59.57   81.67   15.86  -11.06   19.33  325.11
C15   70.37   73.37   43.79   88.62   -0.75   18.42   18.44   92.32
C16   45.11   46.69   38.67   73.99    0.35   -0.24    0.43  325.72
C17   59.57   56.15   40.22   79.69   13.42    7.57   15.40   29.40
C18   52.71   60.44   42.27   82.08  -13.88    9.03   16.56  146.95
C19   48.65   49.40   55.62   75.70    2.88  -17.30   17.54  279.43
C20    1.89    1.57    0.69   13.03    9.74    9.42   13.56   44.03
C21   22.62   17.31    5.92   48.65   29.74   28.35   41.08   43.61
C22   35.86   33.24   20.90   64.35   13.29   11.96   17.88   41.99
D1     3.78    3.93    2.35   23.42    0.03    6.94    6.94   89.75
D2     3.78    3.95    1.28   23.50   -0.51   18.17   18.17   91.62
D3     4.17    4.22    1.00   24.39    1.44   23.74   23.78   86.51
D4     4.26    4.34    1.01   24.76    1.09   24.11   24.14   87.42
D5    25.50   26.81   13.45   58.79   -1.42   19.67   19.72   94.14
D6    24.96   26.60    7.91   58.60   -2.88   37.08   37.19   94.45
D7    25.81   27.65    4.07   59.57   -3.44   56.98   57.08   93.46
D8    24.46   25.51    2.05   57.57   -0.58   68.45   68.46   90.49
D9    54.17   57.11   37.82   80.24   -2.20   11.70   11.91  100.65
D10   56.32   58.92   31.45   81.25   -1.17   22.63   22.66   92.97
D11   56.01   59.16   25.72   81.38   -2.48   32.26   32.35   94.40
D12   56.46   59.82   21.49   81.74   -2.91   40.77   40.88   94.09
D13   48.17   57.14   60.10   80.26  -18.11  -14.03   22.92  217.77
D14   57.45   49.98   54.27   76.06   24.00  -15.26   28.43  327.55
D15   68.09   70.94   35.17   87.46   -0.62   27.81   27.83   91.26
D16   32.82   33.88   28.44   64.87    0.58   -0.83    1.01  305.08
D17   51.29   45.58   30.08   73.26   20.40   10.99   23.19   28.31
D18   42.03   51.21   32.97   76.81  -20.86   12.65   24.40  148.75
D19   36.93   36.75   48.49   67.09    4.99  -24.31   24.82  281.60
D20   14.22   10.82    3.49   39.28   25.90   25.59   36.42   44.65
D21   22.98   22.17   14.32   54.22    7.36    9.49   12.02   52.17
D22   39.90   38.83   24.26   68.62    7.90   12.86   15.09   58.46
E1     3.45    3.93    2.37   23.42   -5.06    6.69    8.39  127.10
E2     3.10    3.85    1.33   23.15   -9.75   16.99   19.60  119.86
E3     3.28    4.23    1.07   24.42  -12.12   22.64   25.68  118.17
E4     3.29    4.28    1.08   24.59  -12.75   22.81   26.13  119.21
E5    11.58   13.20    7.44   43.06   -7.90   12.15   14.50  123.06
E6    10.90   13.59    5.06   43.64  -15.32   23.92   28.40  122.65
E7    10.10   13.93    2.81   44.14  -23.44   38.86   45.39  121.09
E8     9.92   14.33    1.89   44.69  -27.28   47.79   55.03  119.72
E9    36.67   40.10   26.92   69.54   -6.38    9.76   11.66  123.15
E10   36.14   40.81   23.68   70.04  -10.32   16.39   19.36  122.18
E11   35.57   41.53   20.26   70.55  -14.41   23.94   27.94  121.04
E12   34.51   41.68   16.90   70.65  -18.42   31.48   36.48  120.34
E13   41.12   50.93   57.17   76.64  -22.90  -17.30   28.69  217.07
E14   51.76   42.50   49.51   71.21   30.51  -18.37   35.61  328.95
E15   65.42   67.81   26.39   85.91    0.15   38.90   38.90   89.79
E16   24.33   25.05   20.69   57.12    0.81   -0.09    0.83  174.53
E17   44.71   37.83   21.94   67.89   25.46   15.98   30.06   32.12
E18   33.19   42.94   24.74   71.52  -26.76   17.01   31.69  147.55
E19   28.62   28.04   42.49   59.92    6.33  -29.44   30.12  282.14
E20   22.32   15.44    1.29   46.23   38.82   57.32   69.23   55.89
E21   17.45   14.56    3.42   45.03   19.85   35.97   41.08   61.10
E22   29.58   26.01    9.84   58.03   18.17   29.19   34.38   58.11
F1     1.38    1.73    1.19   13.97   -7.86    2.96    8.40  159.33
F2     1.19    1.85    1.00   14.66  -16.70    6.86   18.07  157.67
F3     1.15    2.09    0.97   15.93  -23.40    9.57   25.28  157.76
F4     1.29    2.47    1.12   17.76  -26.91   10.52   28.90  158.65
F5     6.41    7.91    5.82   33.81  -12.06    3.20   12.48  165.12
F6     5.43    8.18    5.14   34.35  -25.25    7.53   26.35  163.39
F7     4.42    8.20    4.39   34.41  -38.37   11.68   40.11  163.07
F8     3.14    7.57    3.76   33.08  -51.80   13.19   53.45  165.71
F9    36.03   39.75   30.86   69.29   -7.42    2.90    7.97  158.58
F10   35.50   40.96   30.61   70.15  -12.91    4.78   13.77  159.67
F11   34.28   41.42   29.73   70.47  -18.47    6.74   19.67  159.95
F12   32.66   41.48   28.29   70.51  -24.32    9.14   25.98  159.40
F13   34.75   45.03   53.95   72.90  -27.34  -20.35   34.08  216.65
F14   46.85   36.44   45.22   66.85   36.00  -20.85   41.61  329.92
F15   63.79   65.75   21.38   84.87    0.98   46.38   46.39   88.79
F16   17.95   18.45   15.34   50.04    0.88   -0.30    0.96  342.90
F17   39.46   31.82   16.52   63.19   29.97   19.49   35.75   33.04
F18   27.09   36.89   19.06   67.19  -31.08   20.68   37.33  146.35
F19   22.39   21.45   37.41   53.44    8.03  -33.97   34.90  283.30
F20   27.32   26.47   14.18   58.47    7.44   17.18   18.72   66.61
F21   34.47   32.14   12.88   63.46   12.42   29.28   31.81   67.01
F22   38.77   37.35   18.60   67.54    9.00   22.28   24.03   68.01
G1     2.15    2.65    2.61   18.60   -8.45   -3.57    9.19  202.93
G2     1.88    2.78    2.93   19.15  -16.89   -5.15   17.66  196.96
G3     1.70    3.01    3.43   20.08  -25.17   -7.06   26.15  195.66
G4     1.88    3.44    3.78   21.72  -28.06   -6.59   28.83  193.21
G5     8.48   10.31    9.13   38.40  -12.09   -2.26   12.30  190.57
G6     7.45   10.54    9.80   38.80  -23.22   -3.85   23.54  189.40
G7     6.19   10.50   10.15   38.74  -35.66   -5.13   36.03  188.19
G8     5.22   10.79   11.22   39.23  -48.83   -7.62   49.43  188.88
G9    35.35   39.10   31.91   68.82   -7.73    0.50    7.74  176.36
G10   34.11   39.79   33.76   69.32  -14.07   -1.41   14.14  185.74
G11   33.07   40.48   34.82   69.82  -19.86   -2.10   19.97  186.03
G12   31.83   41.15   36.32   70.29  -26.28   -3.41   26.49  187.40
G13   28.08   38.44   49.92   68.34  -32.08  -23.78   39.93  216.56
G14   40.41   29.06   39.32   60.83   43.05  -23.78   49.18  331.08
G15   61.17   62.32   15.08   83.09    2.57   57.31   57.36   87.43
G16   11.43   11.73    9.61   40.78    0.96    0.19    1.00  190.35
G17   33.19   24.94   11.25   57.01   35.76   22.91   42.47   32.64
G18   20.58   30.11   13.85   61.75  -36.26   23.68   43.31  146.85
G19   15.34   14.10   30.72   44.38   10.68  -39.80   41.21  285.03
G20   37.07   36.57   17.02   66.96    6.06   24.80   25.53   76.29
G21   35.27   34.68   11.19   65.49    6.36   37.74   38.27   80.44
G22   43.36   40.79    2.98   70.03   12.31   82.19   83.11   81.49
H1     2.37    2.68    3.20   18.72   -4.32   -7.84    8.95  241.13
H2     2.16    2.79    4.20   19.18  -10.56  -13.47   17.11  231.90
H3     1.86    2.66    5.22   18.59  -14.98  -20.07   25.05  233.24
H4     2.20    3.18    6.76   20.76  -16.49  -23.51   28.71  234.95
H5     9.17   10.45   11.07   38.64   -7.28   -8.19   10.95  228.40
H6     8.61   10.90   14.33   39.40  -15.22  -16.09   22.15  226.59
H7     7.60   10.59   17.95   38.87  -22.10  -25.72   33.91  229.32
H8     7.21   10.82   21.86   39.26  -27.54  -33.20   43.14  230.32
H9    35.88   39.19   35.14   68.90   -6.25   -4.14    7.50  213.54
H10   35.39   39.79   39.22   69.32   -9.70   -9.02   13.26  222.92
H11   35.49   41.27   46.46   70.37  -13.88  -16.30   21.40  229.58
H12   34.74   41.37   50.38   70.43  -16.72  -20.69   26.60  231.06
H13   23.28   33.41   46.54   64.49  -35.54  -26.51   44.33  216.73
H14   34.31   22.62   33.44   54.68   49.71  -26.19   56.19  332.21
H15   58.96   59.38   10.98   81.50    4.19   65.98   66.11   86.37
H16    7.39    7.59    6.31   33.10    0.82   -0.23    0.87  343.05
H17   27.72   19.31    7.22   51.05   41.03   26.83   49.02   33.18
H18   15.51   24.47    9.85   56.56  -40.78   26.57   48.67  146.92
H19   10.95    9.47   25.60   36.86   14.33  -44.28   46.54  287.92
H20   41.60   43.00   17.47   71.55    0.48   31.71   31.72   89.12
H21   32.96   34.43   23.67   65.31   -0.81    8.25    8.30   95.57
H22   35.29   38.86   12.69   68.65   -7.17   38.76   39.42  100.48
I1     3.84    3.86    5.20   23.20    1.78  -12.01   12.14  278.42
I2     3.97    3.93    8.10   23.42    2.82  -24.31   24.48  276.61
I3     4.17    4.04   11.49   23.81    3.89  -35.07   35.28  276.34
I4     4.36    4.11   15.35   24.05    5.49  -45.14   45.47  276.93
I5    13.23   13.65   14.37   43.72    0.50   -8.75    8.76  273.30
I6    13.41   13.66   18.58   43.74    1.63  -18.71   18.78  274.98
I7    13.33   13.44   23.03   43.42    2.44  -28.30   28.40  274.92
I8    13.95   13.86   27.56   44.04    3.74  -35.28   35.49  276.05
I9    37.74   39.26   36.05   68.93   -0.31   -5.36    5.36  266.76
I10   38.40   39.85   40.10   69.36   -0.02  -10.12   10.12  269.89
I11   39.37   40.64   45.94   69.93    0.64  -16.43   16.45  272.23
I12   39.68   40.85   50.34   70.07    0.98  -21.26   21.29  272.63
I13   19.51   29.24   43.44   60.99  -38.26  -28.79   47.89  216.96
I14   30.82   19.22   30.05   50.93   53.38  -27.44   60.01  332.79
I15   57.44   57.34    8.76   80.37    5.39   71.46   71.65   85.69
I16    5.17    5.24    4.45   27.38    1.53   -0.81    1.73  331.82
I17   24.45   16.18    5.09   47.21   44.07   29.96   53.28   34.22
I18   12.51   20.90    7.55   52.84  -43.54   28.56   52.07  146.74
I19    8.26    6.65   21.90   31.01   17.82  -47.51   50.74  290.56
I20   42.45   46.90   18.47   74.13   -8.07   33.92   34.87  103.37
I21   12.04   16.10    4.39   47.11  -22.08   33.59   40.20  123.32
I22   29.41   37.55   19.69   67.69  -24.10   20.19   31.44  140.04
J1     1.97    1.77    2.93   14.25    6.20  -13.60   14.95  294.53
J2     2.26    1.79    4.72   14.35   12.44  -24.74   27.69  296.71
J3     2.80    1.88    7.93   14.85   20.66  -38.44   43.64  298.26
J4     3.12    1.89   10.76   14.94   26.15  -48.11   54.75  298.52
J5    10.81   10.43   11.72   38.61    5.70  -10.21   11.69  299.22
J6    11.57   10.54   15.35   38.79   10.45  -19.74   22.33  297.90
J7    12.16   10.35   19.42   38.47   15.98  -29.62   33.65  298.35
J8    13.01   10.65   22.61   38.98   19.45  -35.14   40.17  298.97
J9    39.60   40.36   37.01   69.73    2.20   -5.33    5.77  292.45
J10   40.54   40.51   40.62   69.83    4.66   -9.98   11.02  295.04
J11   41.83   40.58   45.72   69.88    8.39  -16.24   18.27  297.31
J12   42.39   40.09   49.58   69.53   11.57  -21.34   24.28  298.46
J13   14.40   23.08   38.30   55.17  -41.44  -32.19   52.49  217.84
J14   26.29   15.14   25.49   45.82   57.81  -28.66   64.53  333.63
J15   55.46   54.75    6.64   78.90    6.86   77.23   77.53   84.93
J16    2.70    2.76    2.46   19.04    0.88   -1.61    1.84  298.90
J17   20.14   12.32    3.01   41.72   47.90   33.18   58.27   34.71
J18    7.89   14.98    4.74   45.61  -48.44   29.02   56.47  149.08
J19    5.30    3.83   17.29   23.10   21.55  -51.39   55.72  292.74
J20   31.44   39.97   26.23   69.46  -24.11   10.80   26.42  155.87
J21    4.10    7.67    1.48   33.29  -37.88   32.60   49.97  139.29
J22    1.04    1.71    0.81   13.93  -18.51    8.79   20.49  154.59
K1     4.69    3.97    4.78   23.56   12.17   -9.18   15.24  322.96
K2     5.80    4.01    6.94   23.72   24.69  -19.17   31.26  322.16
K3     7.30    4.26    9.79   24.52   36.85  -28.45   46.56  322.34
K4     8.43    4.37   12.58   24.86   45.78  -36.42   58.50  321.51
K5    14.82   13.60   14.23   43.65   10.75   -8.50   13.71  321.64
K6    16.58   13.47   17.53   43.46   21.77  -16.86   27.54  322.24
K7    18.76   13.62   21.73   43.69   32.47  -25.30   41.17  322.07
K8    21.34   13.93   26.28   44.14   43.30  -32.94   54.41  322.74
K9    40.94   40.42   36.54   69.77    6.15   -4.61    7.68  323.16
K10   43.29   40.36   39.79   69.73   13.40   -9.07   16.18  325.89
K11   46.49   41.38   45.57   70.44   19.52  -15.09   24.67  322.29
K12   48.36   41.22   48.26   70.33   25.21  -18.45   31.24  323.79
K13   11.96   19.86   35.25   51.68  -42.34  -33.97   54.28  218.74
K14   21.58   11.38   20.62   40.21   61.36  -29.10   67.90  334.62
K15   47.59   44.92    2.88   72.83   12.28   87.82   88.68   82.04
K16    1.28    1.32    1.04   11.44    0.15    0.77    0.78   79.32
K17   16.67    9.60    1.40   37.11   49.59   40.12   63.79   38.98
K18    4.62    9.74    2.17   37.38  -48.40   32.54   58.32  146.08
K19    3.42    2.10   13.26   16.00   26.42  -53.58   59.74  296.25
K20    2.45    3.17    2.20   20.72  -11.40    3.53   11.94  162.79
K21    1.23    1.67    1.60   13.66  -11.05   -2.56   11.34  193.06
K22    1.67    2.11    3.41   16.02   -8.64  -13.95   16.42  238.23
L1     3.47    2.86    2.75   19.49   12.16   -3.20   12.59  345.27
L2     4.22    2.89    3.03   19.62   22.61   -5.05   23.17  347.41
L3     5.66    3.34    3.89   21.38   33.28   -7.85   34.19  346.73
L4     6.36    3.65    4.72   22.47   36.21  -10.71   37.76  343.52
L5    12.17   10.51    9.76   38.75   14.86   -3.82   15.35  345.58
L6    14.81   10.86   11.01   39.35   29.21   -6.80   29.99  346.91
L7    17.59   10.91   11.86   39.42   44.75   -9.26   45.70  348.32
L8    19.33   11.26   12.75   40.01   51.28  -10.77   52.40  348.14
L9    41.93   40.85   35.40   70.07    7.89   -2.49    8.28  342.47
L10   44.02   40.79   36.54   70.03   14.23   -4.15   14.83  343.73
L11   47.18   41.38   37.22   70.43   21.47   -4.39   21.91  348.45
L12   48.42   40.57   37.83   69.87   27.36   -6.20   28.06  347.22
L13    7.89   13.67   28.56   43.76  -40.47  -37.42   55.12  222.76
L14   17.03    8.24   16.06   34.47   62.94  -28.90   69.26  335.33
L15   43.71   40.41    2.31   69.76   14.48   87.10   88.30   80.57
L16    0.47    0.47    0.53    4.27    0.37   -2.74    2.76  277.67
L17   12.71    6.81    0.75   31.36   50.35   39.96   64.28   38.43
L18    2.78    6.49    1.49   30.62  -47.68   27.88   55.24  149.68
L19    1.99    0.95    9.05    8.57   31.28  -53.38   61.88  300.36
L20    0.66    0.78    0.76    7.06   -3.47   -2.26    4.14  213.14
L21    0.91    0.81    0.89    7.39    4.78   -3.84    6.12  321.18
L22    2.21    1.71    1.60   13.90   13.11   -2.14   13.28  350.74
GS0    76.13   78.64   68.01   91.07    0.68   -2.96    3.03  282.92
GS1    71.62   73.89   62.60   88.87    0.87   -1.64    1.86  297.91
GS2    61.51   63.38   53.67   83.64    1.00   -1.53    1.83  303.10
GS3    52.83   54.51   45.74   78.76    0.75   -0.95    1.21  308.74
GS4    47.42   49.15   40.69   75.54    0.12   -0.22    0.25  299.63
GS5    40.70   42.24   35.00   71.04   -0.01   -0.24    0.26  268.45
GS6    34.59   35.83   29.48   66.40    0.19    0.12    0.22   30.21
GS7    30.19   31.33   25.83   62.79   -0.01    0.01    0.13  157.90
GS8    25.84   26.74   22.24   58.74    0.27   -0.36    0.47  305.55
GS9    22.35   23.20   19.19   55.28   -0.03   -0.13    0.33  202.42
GS10   19.31   20.10   16.91   51.96   -0.35   -0.78    0.86  245.90
GS11   15.41   16.01   13.43   46.98   -0.10   -0.63    0.64  261.74
GS12   12.54   13.04   10.90   42.82   -0.21   -0.47    0.51  246.64
GS13    9.78   10.16    8.59   38.14   -0.07   -0.75    0.76  264.85
GS14    8.03    8.33    6.86   34.64    0.06    0.00    0.09  190.80
GS15    6.43    6.60    5.46   30.88    0.67   -0.09    0.76  177.48
GS16    5.14    5.26    4.37   27.45    0.82   -0.21    0.91  168.53
GS17    3.78    3.88    3.30   23.27    0.60   -0.72    0.94  309.64
GS18    2.62    2.72    2.35   18.88    0.10   -0.98    0.99  275.40
GS19    1.86    1.92    1.55   15.07    0.09    0.43    0.44   77.43
GS20    1.27    1.31    0.95   11.31    0.22    1.94    1.95   83.63
GS21    1.04    1.07    0.73    9.51    0.18    2.68    2.69   86.20
GS22    0.81    0.81    0.61    7.35    0.89    1.19    1.50   52.99
GS23    0.43    0.44    0.52    3.93    0.34   -3.06    3.08  276.33
END_DATA
