lprof/data/targets/Agfa/Reflective/C81121XX.it8
IT8.7/2
ORIGINATOR "FotoTune"
DESCRIPTOR "Agfa IT8"
MATERIAL "Agfacolor"
MANUFACTURER "Agfa"
CREATED "Tue Feb  2 11:37:27 1999"
PROD_DATE "1999:02"
SERIAL "5x7 c81121xx"
NUMBER_OF_FIELDS 9
BEGIN_DATA_FORMAT
SAMPLE_ID XYZ_X XYZ_Y XYZ_Z LAB_L LAB_A LAB_B LAB_C LAB_H
END_DATA_FORMAT
NUMBER_OF_SETS 288
BEGIN_DATA
A1     3.22    2.69    2.11   18.76   11.16    1.06   11.21    5.43
A2     3.80    2.64    1.66   18.53   21.32    5.11   21.93   13.49
A3     5.09    3.04    1.72   20.20   31.50    7.38   32.35   13.18
A4     5.35    3.18    1.88   20.74   32.35    6.57   33.00   11.48
A5    11.08    9.62    7.78   37.16   13.97    0.59   13.99    2.41
A6    13.43    9.97    6.76   37.79   27.40    5.89   28.02   12.12
A7    16.12   10.33    5.90   38.43   40.89   10.80   42.29   14.79
A8    18.26   10.52    5.52   38.76   51.15   13.20   52.83   14.48
A9    41.64   40.44   33.18   69.78    8.26    0.23    8.26    1.64
A10   44.00   40.55   31.92   69.86   14.91    2.28   15.09    8.70
A11   46.95   41.17   30.89   70.30   21.45    4.60   21.94   12.12
A12   46.76   39.35   28.58   69.00   26.49    6.07   27.17   12.91
A13   75.61   78.25   68.04   90.90    0.39   -3.30    3.32  276.72
A14   75.73   77.88   67.84   90.72    1.36   -3.41    3.67  291.71
A15   75.67   78.22   65.94   90.88    0.58   -1.37    1.49  292.95
A16   74.79   77.21   65.54   90.42    0.77   -1.79    1.95  293.37
A17   75.34   77.60   65.76   90.60    1.12   -1.68    2.03  303.60
A18   75.23   77.91   66.01   90.74    0.26   -1.67    1.69  278.88
A19   74.96   77.27   67.61   90.44    1.00   -3.67    3.81  285.14
A20    1.30    1.02    0.60    9.18   10.73    4.50   11.64   22.75
A21    4.74    2.85    0.65   19.43   30.48   21.08   37.07   34.68
A22    9.03    4.93    0.68   26.53   43.88   32.88   54.82   36.84
B1     3.02    2.66    1.57   18.60    8.48    6.27   10.54   36.48
B2     3.59    2.71    0.79   18.83   16.76   17.57   24.27   46.35
B3     4.40    2.95    0.73   19.85   24.22   20.58   31.78   40.35
B4     4.90    3.18    0.72   20.75   26.78   22.16   34.76   39.61
B5    11.47    9.96    5.84   37.77   14.17    9.95   17.31   35.07
B6    13.49   10.29    4.12   38.36   25.27   20.04   32.26   38.42
B7    15.66   10.23    2.37   38.25   38.97   32.31   50.62   39.66
B8    17.38   10.42    1.54   38.59   47.18   41.01   62.52   40.99
B9    41.37   40.58   30.58   69.88    6.99    4.38    8.25   32.08
B10   43.55   40.79   27.39   70.03   12.86    9.82   16.18   37.36
B11   46.54   41.64   25.19   70.62   18.92   14.63   23.92   37.71
B12   47.14   41.08   22.51   70.23   22.28   18.94   29.24   40.36
B13   67.79   72.71   66.33   88.31   -4.95   -6.18    7.91  231.23
B14   70.91   69.69   64.68   86.85    8.09   -7.14   10.79  318.55
B15   72.87   75.80   53.17   89.76   -0.39    9.58    9.58   92.32
B16   60.08   61.51   51.46   82.65    1.91   -0.83    2.08  336.72
B17   67.74   67.17   51.19   85.59    6.67    4.53    8.06   34.25
B18   65.03   70.27   52.72   87.13   -5.99    5.51    8.14  137.46
B19   62.85   64.08   62.64   84.01    2.53  -10.07   10.38  284.11
B20    2.88    1.99    0.67   15.43   19.81   13.95   24.23   35.16
B21    7.89    4.43    0.69   25.04   40.20   30.17   50.26   36.90
B22   29.26   24.98   14.04   57.06   21.19   15.11   26.02   35.50
C1     4.05    3.86    2.22   23.22    4.82    7.64    9.04   57.72
C2     4.36    3.91    1.21   23.40    8.32   19.01   20.75   66.36
C3     5.06    4.22    0.91   24.38   13.17   25.08   28.33   62.29
C4     5.11    4.24    0.90   24.47   13.39   25.27   28.60   62.09
C5    22.63   21.75   10.75   53.76    7.76   18.86   20.40   67.63
C6    25.01   21.97    5.77   54.00   17.20   38.25   41.94   65.79
C7    26.06   21.35    2.39   53.33   24.44   58.06   63.00   67.17
C8    28.06   22.05    1.67   54.07   29.36   66.29   72.49   66.11
C9    47.83   48.17   32.95   74.93    3.91    9.46   10.23   67.52
C10   50.31   49.22   27.63   75.59    7.80   18.99   20.53   67.67
C11   52.68   50.07   23.19   76.12   11.76   27.78   30.17   67.04
C12   52.01   48.39   18.69   75.07   14.53   35.07   37.96   67.49
C13   57.79   65.10   63.67   84.54  -11.72  -10.15   15.50  220.89
C14   63.85   58.85   59.51   81.21   16.86  -11.82   20.59  324.99
C15   70.43   73.40   43.31   88.64   -0.67   19.03   19.05   92.00
C16   45.15   46.39   38.38   73.79    1.27   -0.17    1.30  172.72
C17   59.03   55.28   39.71   79.21   14.25    7.38   16.06   27.36
C18   53.28   60.90   42.03   82.32  -13.46    9.75   16.62  144.07
C19   48.67   48.96   55.61   75.43    4.09  -17.78   18.24  282.93
C20    1.81    1.49    0.67   12.53    9.85    8.90   13.27   42.08
C21   22.72   17.26    5.70   48.58   30.49   29.26   42.26   43.82
C22   36.08   33.24   21.00   64.35   14.02   11.76   18.31   39.99
D1     3.76    3.87    2.26   23.23    0.46    7.36    7.38   86.39
D2     3.78    3.93    1.25   23.47   -0.32   18.52   18.52   90.99
D3     4.11    4.15    0.99   24.17    1.61   23.57   23.62   86.10
D4     4.19    4.26    0.99   24.51    1.35   24.09   24.13   86.81
D5    25.48   26.82   13.61   58.81   -1.55   19.26   19.32   94.60
D6    24.88   26.44    8.02   58.44   -2.56   36.36   36.44   94.03
D7    25.76   27.36    3.97   59.31   -2.55   57.10   57.16   92.56
D8    24.66   25.70    2.04   57.76   -0.50   68.89   68.90   90.42
D9    54.77   57.33   37.68   80.37   -1.25   12.10   12.16   95.86
D10   56.53   59.01   31.83   81.30   -0.87   22.12   22.13   92.23
D11   56.53   59.47   26.25   81.55   -1.95   31.62   31.68   93.54
D12   57.03   60.28   21.73   81.99   -2.61   40.72   40.81   93.67
D13   48.60   57.57   60.54   80.50  -17.98  -14.05   22.82  218.01
D14   57.49   49.88   54.54   76.00   24.36  -15.65   28.96  327.29
D15   68.40   71.21   35.46   87.58   -0.50   27.64   27.64   91.04
D16   32.62   33.55   28.17   64.60    1.04   -0.85    1.34  320.66
D17   51.08   45.19   30.19   73.01   20.97   10.40   23.40   26.38
D18   42.22   51.42   33.03   76.93  -20.84   12.78   24.45  148.48
D19   36.81   36.51   48.51   66.90    5.41  -24.65   25.24  282.38
D20   14.15   10.74    3.45   39.14   26.08   25.67   36.59   44.54
D21   22.97   22.10   14.38   54.14    7.70    9.18   11.98   50.03
D22   40.07   38.69   24.21   68.53    8.82   12.82   15.56   55.47
E1     3.40    3.86    2.28   23.20   -5.02    7.18    8.76  125.00
E2     3.02    3.75    1.32   22.83   -9.73   16.60   19.24  120.39
E3     3.24    4.19    1.07   24.28  -12.31   22.49   25.63  118.68
E4     3.26    4.26    1.07   24.49  -12.78   22.84   26.17  119.24
E5    11.62   13.26    7.57   43.15   -7.95   11.75   14.19  124.09
E6    10.82   13.52    5.03   43.55  -15.51   23.92   28.50  122.97
E7    10.01   13.72    2.74   43.83  -22.94   38.81   45.08  120.60
E8    10.02   14.41    1.86   44.81  -26.99   48.35   55.37  119.17
E9    36.42   39.63   27.19   69.21   -5.82    8.73   10.49  123.69
E10   36.01   40.47   23.77   69.80   -9.67   15.80   18.53  121.47
E11   35.42   41.31   20.61   70.39  -14.24   22.97   27.02  121.82
E12   34.56   41.68   17.26   70.65  -18.24   30.65   35.67  120.76
E13   41.36   51.22   57.55   76.82  -22.92  -17.39   28.77  217.18
E14   51.74   42.38   49.68   71.12   30.81  -18.71   36.04  328.73
E15   65.89   68.26   26.80   86.14    0.23   38.57   38.57   89.67
E16   24.24   24.97   20.67   57.04    0.76   -0.19    0.79  347.08
E17   44.49   37.44   21.93   67.60   26.04   15.53   30.32   30.81
E18   33.40   43.19   25.07   71.68  -26.77   16.71   31.56  148.03
E19   28.60   28.05   42.69   59.93    6.23  -29.68   30.33  281.85
E20   22.32   15.36    1.25   46.12   39.27   57.69   69.79   55.75
E21   17.25   14.34    3.35   44.72   20.05   35.92   41.13   60.84
E22   29.79   26.01    9.83   58.06   18.88   29.24   34.80   57.16
F1     1.37    1.71    1.15   13.86   -7.67    3.28    8.34  156.90
F2     1.19    1.84    1.00   14.60  -16.11    6.74   17.47  157.30
F3     1.14    2.05    0.94   15.76  -22.87    9.68   24.83  157.04
F4     1.31    2.47    1.11   17.80  -26.36   10.79   28.49  157.74
F5     6.43    7.95    5.94   33.88  -12.18    2.73   12.49  167.36
F6     5.38    8.08    5.06   34.15  -25.12    7.60   26.25  163.18
F7     4.41    8.18    4.36   34.36  -38.14   11.71   39.90  162.94
F8     3.24    7.70    3.75   33.36  -51.44   13.73   53.24  165.07
F9    36.20   39.71   31.01   69.26   -6.76    2.65    7.26  158.61
F10   35.63   40.83   30.69   70.06  -12.08    4.49   12.90  159.58
F11   34.23   41.32   30.02   70.40  -18.32    6.14   19.33  161.47
F12   32.94   41.69   28.42   70.65  -23.93    9.18   25.64  159.01
F13   34.75   45.10   54.23   72.96  -27.56  -20.56   34.38  216.72
F14   47.20   36.78   45.69   67.11   35.89  -20.99   41.58  329.67
F15   64.15   66.09   21.69   85.04    1.04   46.05   46.07   88.71
F16   18.23   18.81   15.59   50.46    0.56   -0.22    0.61  339.13
F17   39.72   32.03   16.88   63.36   30.03   18.95   35.51   32.26
F18   27.35   37.22   19.48   67.44  -31.07   20.23   37.07  146.93
F19   22.42   21.47   37.58   53.45    8.16  -34.17   35.13  283.44
F20   27.54   26.57   14.46   58.57    7.89   16.62   18.40   64.60
F21   34.64   32.10   12.99   63.43   13.12   28.93   31.78   65.60
F22   39.03   37.33   18.74   67.53    9.87   21.97   24.09   65.81
G1     2.16    2.65    2.60   18.58   -8.20   -3.60    8.95  203.68
G2     1.87    2.76    2.91   19.08  -16.86   -5.14   17.62  196.96
G3     1.74    3.05    3.39   20.24  -25.05   -6.61   25.90  194.79
G4     1.92    3.50    3.82   21.93  -27.93   -6.45   28.67  193.01
G5     8.60   10.43    9.23   38.61  -11.95   -2.23   12.16  190.60
G6     7.57   10.64    9.98   38.97  -22.87   -4.13   23.24  190.24
G7     6.23   10.55   10.34   38.81  -35.58   -5.64   36.02  188.99
G8     5.34   10.94   11.37   39.47  -48.61   -7.68   49.21  188.97
G9    35.50   39.11   32.06   68.82   -7.23    0.28    7.24  177.74
G10   34.25   39.72   33.85   69.26  -13.39   -1.63   13.48  186.97
G11   33.52   40.85   35.04   70.07  -19.37   -1.97   19.46  185.80
G12   31.94   41.33   36.19   70.40  -26.43   -3.03   26.60  186.53
G13   28.51   38.93   50.33   68.70  -31.92  -23.62   39.72  216.51
G14   40.56   29.17   39.64   60.92   43.12  -24.05   49.36  330.85
G15   61.59   62.71   15.34   83.29    2.69   57.03   57.10   87.29
G16   11.64   11.91   10.00   41.07    1.13   -0.60    1.28  332.34
G17   33.28   24.94   11.43   57.02   36.04   22.38   42.42   31.84
G18   21.04   30.63   14.23   62.19  -36.00   23.48   42.98  146.89
G19   15.56   14.27   30.98   44.62   10.91  -39.80   41.27  285.34
G20   37.46   36.76   17.19   67.10    6.72   24.67   25.58   74.76
G21   35.54   34.71   11.14   65.52    7.16   37.94   38.60   79.31
G22   43.48   40.72    2.91   69.97   12.88   82.68   83.68   81.15
H1     2.38    2.70    3.24   18.83   -4.54   -7.91    9.13  240.18
H2     2.18    2.80    4.31   19.24  -10.36  -14.02   17.43  233.54
H3     1.95    2.74    5.49   18.95  -14.61  -20.81   25.42  234.93
H4     2.26    3.26    6.91   21.03  -16.49  -23.70   28.87  235.18
H5     9.33   10.63   11.52   38.95   -7.26   -9.06   11.60  231.30
H6     8.72   10.96   14.69   39.51  -14.87  -16.84   22.47  228.55
H7     7.75   10.76   18.50   39.17  -21.95  -26.41   34.33  230.26
H8     7.39   11.08   22.31   39.72  -27.71  -33.31   43.33  230.24
H9    36.11   39.38   35.61   69.02   -6.01   -4.59    7.57  217.35
H10   35.38   39.61   39.46   69.19   -9.20   -9.56   13.26  226.10
H11   35.53   41.16   46.72   70.29  -13.41  -16.73   21.44  231.27
H12   35.01   41.56   50.94   70.57  -16.37  -21.08   26.69  232.18
H13   23.80   34.02   47.10   64.98  -35.39  -26.33   44.11  216.65
H14   34.64   22.88   33.97   54.94   49.69  -26.51   56.32  331.92
H15   59.42   59.84   11.28   81.75    4.22   65.46   65.60   86.32
H16    7.49    7.66    6.39   33.27    1.01   -0.36    1.08  340.49
H17   28.04   19.58    7.38   51.36   40.93   26.69   48.86   33.10
H18   15.82   24.88   10.11   56.96  -40.67   26.44   48.50  146.97
H19   11.11    9.61   25.86   37.12   14.37  -44.30   46.57  287.97
H20   42.14   43.21   17.78   71.70    1.50   31.27   31.31   87.25
H21   33.45   34.78   24.39   65.58   -0.25    7.40    7.41   91.94
H22   35.72   39.18   12.93   68.88   -6.75   38.50   39.08   99.94
I1     3.97    4.00    5.43   23.67    1.63  -12.41   12.52  277.49
I2     4.01    3.95    8.34   23.50    3.07  -25.09   25.27  276.97
I3     4.22    4.09   11.73   23.97    3.93  -35.49   35.71  276.33
I4     4.40    4.18   15.53   24.25    5.22  -45.26   45.56  276.58
I5    13.44   13.82   14.82   43.97    0.81   -9.50    9.53  274.84
I6    13.60   13.84   18.99   43.99    1.70  -19.18   19.25  275.09
I7    13.60   13.68   23.44   43.76    2.68  -28.46   28.58  275.40
I8    14.26   14.19   28.06   44.51    3.60  -35.30   35.49  275.82
I9    38.54   39.86   36.58   69.36    0.41   -5.35    5.36  274.28
I10   39.55   40.85   40.99   70.07    0.58  -10.04   10.06  273.29
I11   39.95   41.02   46.38   70.19    1.28  -16.49   16.54  274.43
I12   40.17   41.20   50.72   70.32    1.42  -21.28   21.32  273.83
I13   19.98   29.83   44.01   61.50  -38.14  -28.61   47.67  216.88
I14   31.18   19.49   30.56   51.25   53.40  -27.72   60.15  332.57
I15   57.86   57.72    8.91   80.58    5.47   71.27   71.48   85.60
I16    5.34    5.39    4.57   27.82    1.72   -0.72    1.87  337.40
I17   24.76   16.42    5.20   47.53   44.04   29.91   53.24   34.18
I18   12.86   21.35    7.68   53.33  -43.28   28.87   52.03  146.30
I19    8.45    6.82   22.24   31.40   17.85  -47.51   50.75  290.59
I20   43.07   47.40   19.00   74.45   -7.60   33.31   34.17  102.85
I21   12.24   16.33    4.38   47.40  -21.95   34.14   40.59  122.75
I22   29.74   37.82   20.08   67.89  -23.72   19.73   30.85  140.24
J1     1.95    1.75    2.91   14.14    6.26  -13.64   15.01  294.68
J2     2.27    1.79    4.77   14.35   12.53  -25.06   28.01  296.58
J3     2.80    1.88    8.05   14.82   20.97  -38.96   44.25  298.29
J4     3.11    1.88   10.73   14.83   26.22  -48.21   54.88  298.55
J5    10.93   10.57   12.00   38.84    5.62  -10.62   12.02  297.88
J6    11.64   10.58   15.55   38.86   10.63  -20.10   22.73  297.88
J7    12.20   10.38   19.70   38.52   16.08  -30.11   34.14  298.10
J8    12.99   10.63   22.77   38.95   19.53  -35.53   40.54  298.81
J9    39.90   40.53   37.33   69.84    2.64   -5.56    6.15  295.40
J10   40.83   40.64   41.10   69.92    5.15  -10.44   11.64  296.25
J11   42.48   40.82   46.06   70.06    9.60  -16.35   18.96  300.40
J12   42.79   40.28   49.97   69.66   12.21  -21.56   24.77  299.52
J13   14.51   23.27   38.49   55.34  -41.58  -32.14   52.56  217.70
J14   26.49   15.24   25.81   45.97   57.95  -28.94   64.78  333.46
J15   55.85   55.06    6.68   79.08    7.05   77.40   77.71   84.80
J16    2.66    2.71    2.41   18.84    0.83   -1.51    1.73  298.86
J17   20.24   12.41    2.98   41.85   47.85   33.61   58.48   35.08
J18    7.92   15.01    4.64   45.65  -48.38   29.66   56.75  148.49
J19    5.32    3.84   17.40   23.15   21.55  -51.55   55.88  292.68
J20   31.62   40.11   26.58   69.55  -23.91   10.38   26.06  156.55
J21    4.12    7.66    1.47   33.28  -37.49   32.79   49.81  138.83
J22    1.07    1.74    0.81   14.01  -17.88    8.84   19.94  153.71
K1     4.81    4.05    4.98   23.83   12.39   -9.82   15.81  321.60
K2     5.86    4.05    7.15   23.83   24.90  -19.86   31.85  321.42
K3     7.33    4.26    9.96   24.52   37.15  -29.01   47.13  322.02
K4     8.45    4.36   12.66   24.83   46.17  -36.69   58.98  321.53
K5    14.96   13.78   14.65   43.91   10.48   -9.12   13.90  318.97
K6    16.89   13.74   18.14   43.86   21.78  -17.52   27.96  321.17
K7    18.95   13.81   21.92   43.96   32.30  -25.22   40.98  322.03
K8    21.81   14.26   26.83   44.61   43.44  -33.07   54.59  322.72
K9    41.56   40.89   37.06   70.10    6.62   -4.74    8.15  324.37
K10   44.26   41.15   40.56   70.28   13.86   -9.12   16.60  326.66
K11   47.44   42.12   46.32   70.96   19.99  -15.10   25.05  322.92
K12   49.45   42.10   49.15   70.94   25.52  -18.42   31.48  324.17
K13   12.12   20.12   35.53   51.98  -42.51  -33.86   54.35  218.54
K14   21.76   11.48   20.92   40.37   61.49  -29.42   68.17  334.42
K15   47.77   45.01    2.82   72.90   12.49   88.33   89.21   81.95
K16    1.28    1.33    1.02   11.44    0.26    0.98    1.01   74.92
K17   16.61    9.56    1.37   37.03   49.67   40.49   64.08   39.18
K18    4.66    9.75    2.11   37.39  -48.00   33.10   58.30  145.41
K19    3.46    2.12   13.40   16.12   26.48  -53.74   59.92  296.23
K20    2.45    3.18    2.18   20.76  -11.41    3.79   12.02  161.62
K21    1.24    1.67    1.56   13.66  -10.92   -2.15   11.13  191.17
K22    1.68    2.13    3.39   16.15   -8.88  -13.60   16.24  236.86
L1     3.58    2.95    2.81   19.83   12.44   -3.06   12.81  346.18
L2     4.34    2.96    3.11   19.88   23.22   -5.19   23.80  347.40
L3     5.85    3.43    4.07   21.67   34.08   -8.45   35.12  346.07
L4     6.49    3.68    4.94   22.60   37.06  -11.73   38.86  342.43
L5    12.55   10.88   10.32   39.38   14.76   -4.59   15.45  342.73
L6    15.26   11.24   11.51   39.99   29.20   -7.24   30.08  346.05
L7    18.39   11.41   12.64   40.28   45.29  -10.01   46.39  347.55
L8    20.10   11.74   13.51   40.81   51.71  -11.51   52.97  347.45
L9    42.99   41.80   36.14   70.74    8.15   -2.38    8.49  343.75
L10   45.10   41.75   37.08   70.70   14.50   -3.74   14.98  345.53
L11   48.19   42.21   37.81   71.02   21.80   -4.19   22.19  349.11
L12   49.19   41.28   38.92   70.37   27.31   -6.81   28.15  345.98
L13    8.09   14.02   28.94   44.26  -40.83  -37.19   55.23  222.34
L14   16.95    8.19   16.11   34.39   62.92  -29.17   69.36  335.13
L15   44.19   40.88    2.32   70.08   14.47   87.58   88.76   80.62
L16    0.48    0.48    0.55    4.32    0.63   -2.82    2.89  282.62
L17   12.71    6.80    0.75   31.34   50.40   39.87   64.26   38.34
L18    2.88    6.68    1.50   31.06  -47.61   28.55   55.51  149.05
L19    2.01    0.96    9.03    8.59   31.47  -53.30   61.90  300.56
L20    0.69    0.81    0.76    7.23   -3.21   -2.00    3.78  211.82
L21    0.92    0.81    0.87    7.36    5.23   -3.49    6.28  326.22
L22    2.26    1.75    1.56   14.11   13.45   -1.34   13.52  354.34
GS0    76.40   78.81   68.56   91.15    0.88   -3.33    3.45  284.80
GS1    72.32   74.43   63.60   89.12    1.24   -2.17    2.51  299.66
GS2    62.10   63.70   54.07   83.81    1.63   -1.67    2.34  314.25
GS3    53.72   55.11   46.33   79.10    1.52   -1.07    1.86  325.17
GS4    47.71   49.15   40.70   75.54    0.94   -0.23    0.97  346.58
GS5    41.03   42.31   35.61   71.08    0.81   -1.05    1.34  308.78
GS6    35.10   36.29   30.03   66.74    0.43   -0.17    0.46  339.02
GS7    30.62   31.67   26.23   63.07    0.38   -0.19    0.42  333.91
GS8    26.25   27.09   22.60   59.06    0.59   -0.51    0.79  320.36
GS9    22.60   23.42   19.67   55.50    0.07   -0.74    0.75  273.62
GS10   19.61   20.44   17.32   52.33   -0.43   -1.08    1.17  247.08
GS11   15.65   16.22   13.81   47.26    0.06   -1.16    1.16  272.27
GS12   12.79   13.33   11.39   43.26   -0.39   -1.21    1.28  250.88
GS13    9.95   10.34    8.85   38.44   -0.04   -1.20    1.20  267.89
GS14    8.18    8.49    7.04   34.98   -0.01   -0.19    0.46  192.59
GS15    6.45    6.63    5.49   30.94    0.71   -0.16    0.80  171.02
GS16    5.05    5.16    4.31   27.19    0.84   -0.30    0.90  340.92
GS17    3.69    3.79    3.24   22.98    0.51   -0.78    0.94  306.08
GS18    2.53    2.63    2.24   18.48    0.01   -0.74    0.74  272.07
GS19    1.77    1.83    1.46   14.58    0.31    0.64    0.72   60.57
GS20    1.22    1.25    0.90   10.93    0.41    1.94    1.98   78.01
GS21    0.99    1.01    0.69    9.07    0.41    2.70    2.73   81.49
GS22    0.78    0.77    0.60    7.01    1.13    0.75    1.38   32.78
GS23    0.43    0.43    0.51    3.81    0.60   -3.04    3.10  281.11
END_DATA
