lprof/data/targets/Agfa/Reflective/C81113XX.it8
IT8.7/2
ORIGINATOR "FotoTune"
DESCRIPTOR "Agfa IT8"
MATERIAL "Agfacolor"
MANUFACTURER "Agfa"
CREATED "Tue Feb  2 08:46:10 1999"
PROD_DATE "1999:02"
SERIAL "5x7 c81113xx"
NUMBER_OF_FIELDS 9
BEGIN_DATA_FORMAT
SAMPLE_ID XYZ_X XYZ_Y XYZ_Z LAB_L LAB_A LAB_B LAB_C LAB_H
END_DATA_FORMAT
NUMBER_OF_SETS 288
BEGIN_DATA
A1     3.23    2.69    2.02   18.76   11.40    1.81   11.54    9.01
A2     3.87    2.68    1.63   18.70   21.57    5.76   22.33   14.95
A3     5.19    3.12    1.70   20.49   31.53    8.09   32.56   14.39
A4     5.38    3.20    1.83   20.83   32.31    7.30   33.12   12.74
A5    11.16    9.68    7.85   37.27   14.07    0.51   14.08    2.08
A6    13.33    9.88    6.70   37.62   27.40    5.78   27.99   11.93
A7    15.86   10.16    5.81   38.14   40.65   10.75   42.06   14.81
A8    17.93   10.35    5.43   38.47   50.63   13.14   52.31   14.54
A9    41.36   40.45   33.51   69.79    7.39   -0.24    7.39  358.14
A10   44.01   40.82   32.65   70.04   14.11    1.49   14.19    6.04
A11   46.76   41.19   31.26   70.31   20.88    4.06   21.26   11.01
A12   46.83   39.60   28.94   69.18   25.92    5.78   26.56   12.57
A13   75.15   77.80   67.32   90.69    0.32   -2.99    3.01  276.17
A14   75.44   77.68   67.32   90.64    1.16   -3.07    3.29  290.69
A15   75.27   77.84   65.33   90.71    0.51   -1.10    1.20  295.21
A16   74.45   76.93   65.04   90.29    0.61   -1.54    1.65  291.69
A17   75.00   77.34   65.33   90.48    0.95   -1.50    1.77  302.52
A18   74.90   77.60   65.54   90.60    0.23   -1.49    1.51  278.67
A19   74.64   77.06   67.16   90.35    0.79   -3.43    3.52  282.97
A20    1.38    1.09    0.64    9.72   10.60    4.53   11.52   23.14
A21    4.99    3.01    0.72   20.10   30.69   21.19   37.29   34.63
A22    9.21    5.07    0.74   26.91   43.64   32.36   54.33   36.56
B1     3.05    2.68    1.55   18.70    8.65    6.72   10.95   37.85
B2     3.65    2.75    0.80   19.01   17.07   17.74   24.62   46.09
B3     4.48    2.99    0.73   20.01   24.41   20.78   32.05   40.39
B4     5.07    3.28    0.74   21.12   27.22   22.44   35.28   39.50
B5    11.49    9.98    5.73   37.80   14.19   10.52   17.67   36.53
B6    13.41   10.18    3.92   38.17   25.60   20.94   33.07   39.29
B7    15.51   10.14    2.28   38.10   38.78   32.72   50.74   40.16
B8    17.08   10.26    1.50   38.30   46.76   40.99   62.18   41.24
B9    41.39   40.90   31.11   70.11    6.05    3.93    7.22   33.04
B10   43.86   41.37   28.24   70.43   12.02    9.10   15.07   37.11
B11   46.44   41.71   25.74   70.67   18.40   13.75   22.97   36.76
B12   46.96   41.01   22.91   70.18   21.99   18.10   28.48   39.46
B13   67.07   72.06   65.68   87.99   -5.18   -6.09    7.99  229.63
B14   70.66   69.67   64.15   86.83    7.61   -6.65   10.10  318.84
B15   72.65   75.56   53.57   89.65   -0.35    8.94    8.94   92.26
B16   60.03   61.75   51.92   82.79    1.21   -1.11    1.64  317.92
B17   68.00   67.67   52.05   85.84    6.16    4.02    7.36   33.06
B18   64.72   69.99   53.47   86.99   -6.10    4.45    7.55  143.83
B19   62.53   64.04   62.33   83.99    1.86   -9.81    9.98  280.71
B20    3.04    2.10    0.72   16.00   20.02   14.09   24.48   35.12
B21    8.13    4.60    0.75   25.55   40.22   29.95   50.14   36.68
B22   29.01   24.86   14.45   56.94   20.72   13.84   24.92   33.74
C1     4.03    3.80    2.15   23.02    5.38    7.97    9.61   55.95
C2     4.39    3.91    1.18   23.39    8.74   19.33   21.22   65.68
C3     5.18    4.31    0.92   24.66   13.36   25.51   28.80   62.35
C4     5.28    4.36    0.93   24.85   13.78   25.65   29.11   61.74
C5    22.63   21.83   10.96   53.86    7.40   18.36   19.80   68.04
C6    24.74   21.75    5.57   53.76   17.08   38.81   42.40   66.24
C7    25.57   20.98    2.34   52.93   24.19   57.80   62.65   67.29
C8    27.93   22.05    1.69   54.07   28.83   66.08   72.10   66.42
C9    48.19   48.85   34.11   75.35    3.09    8.48    9.02   69.99
C10   50.43   49.66   28.31   75.86    6.93   18.32   19.59   69.26
C11   53.00   50.66   23.78   76.47   11.04   27.30   29.44   67.98
C12   52.52   49.28   19.31   75.62   13.47   34.70   37.22   68.78
C13   57.17   64.50   63.07   84.23  -11.90  -10.10   15.61  220.33
C14   64.25   59.65   59.61   81.65   15.88  -11.15   19.40  324.92
C15   70.38   73.35   44.31   88.61   -0.68   17.76   17.77   92.19
C16   45.22   46.81   39.40   74.07    0.29   -1.08    1.12  285.10
C17   59.67   56.26   41.00   79.76   13.39    6.66   14.96   26.45
C18   52.99   60.67   43.14   82.21  -13.66    8.15   15.91  149.17
C19   48.60   49.29   55.55   75.63    3.00  -17.35   17.61  279.81
C20    1.90    1.58    0.72   13.09    9.78    9.02   13.31   42.69
C21   22.29   16.99    5.72   48.26   29.94   28.58   41.40   43.66
C22   35.81   33.20   21.41   64.32   13.22   10.89   17.12   39.48
D1     3.77    3.88    2.21   23.26    0.55    7.85    7.86   85.97
D2     3.82    3.95    1.23   23.51    0.18   18.97   18.97   89.46
D3     4.31    4.36    1.01   24.83    1.43   24.21   24.25   86.62
D4     4.32    4.39    1.01   24.92    1.27   24.35   24.38   87.00
D5    25.71   27.08   14.09   59.04   -1.60   18.39   18.46   94.98
D6    24.89   26.57    7.93   58.58   -3.07   36.94   37.07   94.74
D7    25.90   27.62    3.89   59.55   -2.98   57.97   58.06   92.94
D8    24.74   25.74    2.07   57.80   -0.35   68.76   68.77   90.29
D9    54.95   57.74   38.79   80.60   -1.75   10.99   11.13   99.04
D10   56.71   59.37   32.50   81.49   -1.26   21.44   21.49   93.37
D11   56.27   59.46   26.50   81.54   -2.55   31.19   31.29   94.68
D12   57.11   60.37   22.36   82.04   -2.61   39.57   39.65   93.78
D13   48.40   57.31   60.14   80.35  -17.88  -13.91   22.65  217.89
D14   57.43   49.99   54.32   76.06   23.92  -15.30   28.39  327.39
D15   68.35   71.18   36.14   87.57   -0.56   26.65   26.67   91.21
D16   33.24   34.31   29.22   65.20    0.62   -1.54    1.66  292.22
D17   51.56   45.89   31.11   73.48   20.21    9.74   22.43   25.73
D18   42.33   51.47   33.69   76.96  -20.64   11.86   23.81  150.11
D19   36.98   36.80   48.49   67.12    5.03  -24.25   24.76  281.72
D20   14.05   10.66    3.35   38.99   26.06   26.06   36.86   44.99
D21   23.10   22.27   14.78   54.31    7.47    8.45   11.28   48.53
D22   40.06   38.99   24.89   68.74    7.89   11.95   14.32   56.58
E1     3.45    3.88    2.26   23.27   -4.52    7.47    8.73  121.18
E2     3.11    3.82    1.28   23.07   -9.39   17.47   19.83  118.26
E3     3.38    4.39    1.09   24.93  -12.68   23.35   26.57  118.52
E4     3.36    4.38    1.09   24.88  -12.83   23.23   26.53  118.93
E5    11.78   13.40    7.49   43.36   -7.70   12.43   14.62  121.81
E6    11.05   13.75    4.96   43.86  -15.19   24.88   29.15  121.42
E7    10.34   14.09    2.73   44.36  -22.62   39.86   45.83  119.57
E8    10.23   14.59    1.88   45.07  -26.52   48.61   55.37  118.62
E9    37.01   40.41   27.72   69.76   -6.24    8.79   10.78  125.35
E10   36.41   41.06   24.55   70.21  -10.15   15.09   18.19  123.93
E11   36.00   41.94   21.19   70.83  -14.17   22.56   26.64  122.14
E12   34.85   42.07   17.74   70.92  -18.45   30.02   35.24  121.57
E13   41.35   51.10   57.17   76.74  -22.65  -17.12   28.39  217.11
E14   51.72   42.53   49.61   71.24   30.31  -18.43   35.47  328.70
E15   65.76   68.19   27.50   86.10    0.09   37.33   37.33   89.85
E16   24.72   25.46   21.52   57.52    0.77   -1.06    1.32  306.18
E17   44.82   37.97   22.76   68.00   25.31   14.61   29.23   30.00
E18   33.41   43.16   25.59   71.67  -26.65   15.73   30.94  149.45
E19   28.75   28.17   42.55   60.04    6.31  -29.31   29.98  282.15
E20   22.70   15.85    1.36   46.78   38.17   57.37   68.91   56.36
E21   17.33   14.38    3.26   44.76   20.24   36.61   41.83   61.05
E22   29.65   26.08    9.84   58.11   18.08   29.34   34.46   58.35
F1     1.37    1.70    1.16   13.87   -7.60    3.22    8.26  157.11
F2     1.17    1.82    0.98   14.49  -16.35    6.89   17.75  157.15
F3     1.12    2.02    0.94   15.59  -22.89    9.45   24.76  157.55
F4     1.28    2.43    1.09   17.62  -26.44   10.68   28.51  158.01
F5     6.49    8.01    5.89   34.00  -12.02    3.24   12.45  164.93
F6     5.47    8.23    5.14   34.44  -25.26    7.69   26.40  163.07
F7     4.40    8.20    4.32   34.40  -38.54   12.02   40.37  162.68
F8     3.14    7.54    3.64   33.00  -51.47   13.77   53.28  165.02
F9    36.35   40.03   31.50   69.49   -7.24    2.28    7.59  162.55
F10   35.85   41.31   31.37   70.38  -12.80    4.02   13.41  162.57
F11   34.68   41.83   30.58   70.75  -18.30    5.87   19.22  162.23
F12   32.99   41.77   29.14   70.71  -24.01    8.11   25.35  161.34
F13   35.12   45.32   53.99   73.10  -26.95  -20.05   33.58  216.64
F14   46.92   36.65   45.33   67.01   35.53  -20.72   41.14  329.75
F15   63.95   65.96   22.28   84.98    0.87   44.79   44.80   88.89
F16   18.39   18.83   16.02   50.50    1.23   -1.21    1.73  316.28
F17   39.56   31.95   17.36   63.31   29.76   17.74   34.65   30.81
F18   27.72   37.49   19.97   67.65  -30.52   19.57   36.25  147.33
F19   22.60   21.58   37.43   53.58    8.39  -33.75   34.77  283.97
F20   27.51   26.66   14.79   58.65    7.43   15.93   17.58   65.00
F21   34.36   32.03   13.07   63.37   12.42   28.62   31.20   66.54
F22   39.12   37.61   19.33   67.74    9.27   21.07   23.01   66.24
G1     2.14    2.65    2.59   18.60   -8.44   -3.43    9.11  202.08
G2     1.88    2.80    2.89   19.23  -17.24   -4.73   17.86  195.35
G3     1.72    3.05    3.40   20.23  -25.56   -6.64   26.41  194.58
G4     1.89    3.47    3.82   21.85  -28.26   -6.54   29.01  193.03
G5     8.85   10.68    9.55   39.03  -11.64   -2.61   11.93  192.65
G6     7.74   10.92   10.43   39.44  -23.24   -4.79   23.72  191.65
G7     6.30   10.68   10.73   39.03  -35.90   -6.45   36.48  190.19
G8     5.32   10.91   11.77   39.43  -48.48   -8.97   49.31  190.48
G9    35.77   39.60   32.90   69.18   -7.84   -0.38    7.85  182.82
G10   34.75   40.46   34.81   69.79  -13.93   -2.11   14.09  188.62
G11   33.69   41.15   35.61   70.29  -19.69   -2.41   19.85  186.98
G12   32.51   41.85   37.19   70.77  -25.94   -3.77   26.22  188.26
G13   28.76   39.10   50.26   68.82  -31.50  -23.33   39.20  216.53
G14   40.37   29.11   39.39   60.88   42.72  -23.78   48.90  330.89
G15   61.31   62.56   15.82   83.21    2.38   55.70   55.76   87.54
G16   11.80   12.03   10.32   41.27    1.41   -1.30    1.91  317.33
G17   33.21   24.99   11.91   57.06   35.60   21.06   41.35   30.60
G18   21.10   30.67   14.61   62.23  -35.82   22.52   42.31  147.83
G19   15.58   14.34   30.88   44.71   10.72  -39.49   40.93  285.18
G20   37.38   36.90   17.56   67.20    6.01   24.01   24.74   75.96
G21   35.33   34.76   11.31   65.56    6.31   37.49   38.01   80.45
G22   42.75   40.08    2.95   69.53   12.66   81.60   82.58   81.18
H1     2.41    2.74    3.29   18.95   -4.41   -8.05    9.18  241.31
H2     2.22    2.85    4.39   19.40  -10.34  -14.20   17.57  233.97
H3     1.99    2.80    5.71   19.23  -14.82  -21.40   26.04  235.29
H4     2.32    3.31    7.22   21.24  -16.35  -24.61   29.55  236.42
H5     9.68   10.92   11.98   39.44   -6.61   -9.53   11.60  235.24
H6     9.01   11.22   15.27   39.93  -14.20  -17.55   22.58  231.01
H7     7.91   10.98   18.88   39.53  -22.11  -26.59   34.58  230.25
H8     7.49   11.23   22.68   39.96  -27.88  -33.60   43.65  230.32
H9    36.78   40.22   36.62   69.62   -6.39   -4.95    8.09  217.77
H10   36.13   40.63   40.42   69.91   -9.82   -9.58   13.71  224.27
H11   36.44   42.28   47.51   71.06  -13.73  -16.32   21.33  229.92
H12   35.47   42.15   51.07   70.97  -16.56  -20.53   26.38  231.11
H13   23.86   34.01   46.94   64.97  -35.07  -26.15   43.75  216.71
H14   34.40   22.78   33.71   54.85   49.27  -26.27   55.84  331.93
H15   59.23   59.78   11.69   81.72    3.88   64.18   64.30   86.54
H16    7.78    7.85    6.72   33.68    1.96   -1.03    2.22  332.48
H17   27.81   19.46    7.67   51.22   40.65   25.28   47.87   31.88
H18   16.21   25.23   10.47   57.30  -39.96   25.87   47.61  147.08
H19   11.41    9.86   26.02   37.59   14.49  -43.77   46.10  288.32
H20   42.26   43.71   18.53   72.04    0.42   30.19   30.19   89.21
H21   33.68   35.19   24.96   65.90   -0.85    6.93    6.97   96.94
H22   35.79   39.42   13.30   69.05   -7.19   37.78   38.47  100.77
I1     3.93    3.92    5.49   23.40    2.24  -13.10   13.29  279.71
I2     4.08    3.98    8.59   23.59    3.62  -25.87   26.12  277.95
I3     4.24    4.07   11.96   23.89    4.64  -36.32   36.61  277.27
I4     4.40    4.16   15.61   24.17    5.55  -45.60   45.93  276.95
I5    13.81   14.15   15.16   44.44    1.08   -9.51    9.57  276.42
I6    13.85   14.01   19.38   44.26    2.19  -19.53   19.65  276.41
I7    13.83   13.85   23.76   44.03    3.03  -28.61   28.77  276.03
I8    14.42   14.36   28.19   44.74    3.62  -35.13   35.32  275.89
I9    38.35   39.94   36.99   69.43   -0.50   -5.82    5.84  265.16
I10   39.42   40.89   41.32   70.10    0.02  -10.41   10.41  270.11
I11   40.00   41.31   46.69   70.40    0.60  -16.52   16.53  272.06
I12   40.14   41.42   50.71   70.46    0.69  -21.01   21.02  271.86
I13   19.97   29.73   43.81   61.42  -37.88  -28.50   47.40  216.96
I14   30.66   19.15   30.05   50.86   53.11  -27.57   59.83  332.57
I15   57.28   57.19    8.86   80.29    5.34   70.93   71.13   85.70
I16    5.43    5.44    4.61   27.94    2.18   -0.74    2.30  341.36
I17   24.28   16.09    5.14   47.10   43.81   29.49   52.82   33.94
I18   12.89   21.27    7.62   53.25  -42.79   28.96   51.67  145.92
I19    8.52    6.85   22.11   31.46   18.17  -47.15   50.53  291.08
I20   42.94   47.47   19.34   74.49   -8.16   32.67   33.68  104.03
I21   12.31   16.31    4.28   47.39  -21.43   34.72   40.81  121.68
I22   29.88   38.03   20.62   68.04  -23.87   18.89   30.43  141.65
J1     1.95    1.75    2.91   14.15    6.38  -13.65   15.07  295.04
J2     2.28    1.78    4.92   14.28   13.01  -25.93   29.01  296.64
J3     2.84    1.88    8.21   14.88   21.27  -39.46   44.83  298.33
J4     3.06    1.83   10.66   14.57   26.51  -48.42   55.21  298.71
J5    10.89   10.48   12.09   38.68    5.97  -11.15   12.65  298.17
J6    11.77   10.65   15.89   38.99   11.06  -20.69   23.47  298.12
J7    12.29   10.40   19.85   38.54   16.58  -30.38   34.60  298.62
J8    13.18   10.76   22.92   39.17   19.79  -35.42   40.57  299.20
J9    39.89   40.67   37.62   69.94    2.18   -5.81    6.20  290.57
J10   40.83   40.81   41.35   70.04    4.68  -10.56   11.55  293.88
J11   42.49   41.14   46.17   70.27    8.68  -16.11   18.30  298.33
J12   42.65   40.50   49.83   69.82   11.10  -21.12   23.87  297.72
J13   14.31   22.95   38.09   55.03  -41.42  -32.16   52.44  217.83
J14   26.06   15.01   25.39   45.64   57.62  -28.77   64.41  333.46
J15   54.93   54.15    6.48   78.55    7.01   77.38   77.70   84.82
J16    2.68    2.72    2.35   18.90    0.99   -0.94    1.37  316.80
J17   19.91   12.22    2.91   41.56   47.48   33.59   58.16   35.28
J18    7.83   14.80    4.49   45.36  -47.92   29.98   56.52  147.96
J19    5.30    3.83   17.22   23.09   21.55  -51.26   55.60  292.80
J20   31.72   40.26   27.10   69.65  -23.97    9.67   25.85  158.03
J21    4.21    7.91    1.57   33.81  -38.63   32.53   50.51  139.90
J22    1.10    1.82    0.88   14.51  -18.89    8.64   20.76  155.43
K1     4.97    4.14    5.03   24.15   12.98   -9.49   16.08  323.83
K2     6.14    4.20    7.47   24.33   25.81  -20.29   32.83  321.83
K3     7.55    4.36   10.24   24.80   38.03  -29.45   48.10  322.24
K4     8.61    4.45   12.79   25.10   46.40  -36.60   59.10  321.73
K5    15.39   14.10   15.15   44.39   10.98   -9.59   14.57  318.89
K6    17.10   13.81   18.42   43.97   22.44  -17.97   28.76  321.32
K7    19.20   13.92   22.47   44.12   32.90  -26.01   41.94  321.67
K8    21.82   14.32   26.78   44.69   43.09  -32.83   54.17  322.70
K9    41.90   41.46   37.91   70.49    5.95   -5.24    7.93  318.65
K10   44.31   41.45   41.21   70.49   13.12   -9.60   16.25  323.82
K11   47.67   42.56   46.62   71.25   19.35  -14.96   24.45  322.29
K12   49.44   42.31   49.03   71.08   24.90  -18.03   30.74  324.08
K13   12.07   20.01   35.36   51.85  -42.27  -33.85   54.16  218.70
K14   21.49   11.35   20.67   40.17   61.06  -29.28   67.71  334.38
K15   47.09   44.35    2.80   72.46   12.51   87.75   88.63   81.89
K16    1.34    1.39    1.04   11.86    0.18    1.43    1.45   82.16
K17   16.62    9.62    1.36   37.15   49.21   40.76   63.90   39.64
K18    4.72    9.79    2.12   37.47  -47.58   33.13   57.98  145.15
K19    3.51    2.18   13.49   16.41   26.08  -53.52   59.54  295.98
K20    2.52    3.27    2.15   21.10  -11.49    4.62   12.39  158.11
K21    1.29    1.75    1.58   14.14  -11.15   -1.56   11.26  187.96
K22    1.73    2.18    3.45   16.41   -8.89  -13.50   16.17  236.65
L1     3.68    3.01    2.78   20.08   12.92   -2.43   13.14  349.34
L2     4.52    3.08    3.13   20.36   23.58   -4.51   24.01  349.17
L3     5.93    3.47    4.14   21.82   34.42   -8.59   35.47  345.98
L4     6.61    3.75    5.02   22.81   37.26  -11.73   39.06  342.53
L5    12.80   11.03   10.65   39.65   15.23   -5.16   16.08  341.27
L6    15.37   11.24   11.91   39.98   29.85   -8.41   31.01  344.27
L7    18.06   11.18   12.80   39.90   45.19  -11.12   46.54  346.18
L8    19.78   11.54   13.57   40.47   51.54  -12.23   52.97  346.64
L9    42.88   41.88   36.66   70.79    7.62   -3.02    8.20  338.41
L10   45.22   41.99   37.72   70.87   14.10   -4.34   14.75  342.90
L11   48.33   42.55   38.49   71.24   21.17   -4.72   21.69  347.42
L12   49.33   41.65   39.28   70.63   26.55   -6.84   27.40  345.55
L13    7.97   13.81   28.64   43.95  -40.56  -37.22   55.04  222.54
L14   16.94    8.24   16.12   34.47   62.49  -29.04   68.90  335.08
L15   43.86   40.69    2.32   69.96   14.09   87.32   88.44   80.83
L16    0.50    0.51    0.60    4.61    0.47   -3.35    3.39  278.05
L17   12.81    6.89    0.77   31.56   50.18   39.83   64.06   38.43
L18    2.91    6.72    1.51   31.17  -47.66   28.49   55.53  149.13
L19    2.03    0.99    9.16    8.85   31.08  -53.31   61.71  300.24
L20    0.73    0.86    0.81    7.74   -3.70   -1.91    4.16  207.24
L21    0.97    0.88    0.89    7.89    5.12   -3.05    5.96  329.27
L22    2.36    1.83    1.55   14.52   13.52   -0.60   13.53  357.45
GS0    76.04   78.52   67.89   91.01    0.74   -2.95    3.03  284.01
GS1    71.81   73.97   62.64   88.91    1.08   -1.62    1.95  303.70
GS2    61.69   63.52   53.92   83.71    1.12   -1.67    2.01  303.66
GS3    53.46   55.04   46.40   79.07    1.03   -1.21    1.59  310.24
GS4    47.61   49.36   41.28   75.68    0.09   -0.75    0.75  276.74
GS5    41.07   42.61   35.82   71.29    0.00   -0.96    0.97  268.57
GS6    34.97   36.28   30.35   66.74   -0.01   -0.68    0.70  270.51
GS7    30.60   31.68   26.69   63.08    0.23   -0.99    1.02  283.59
GS8    26.31   27.19   23.10   59.14    0.46   -1.30    1.38  289.65
GS9    22.62   23.42   19.98   55.50    0.19   -1.40    1.41  277.57
GS10   19.62   20.36   17.47   52.25   -0.02   -1.59    1.59  269.59
GS11   15.80   16.32   13.98   47.39    0.40   -1.41    1.47  285.38
GS12   12.73   13.18   11.43   43.03    0.23   -1.73    1.75  277.69
GS13    9.94   10.23    8.98   38.24    0.71   -2.01    2.13  289.47
GS14    8.25    8.48    7.12   34.95    0.81   -0.56    0.99  325.82
GS15    6.49    6.61    5.41   30.89    1.35    0.19    1.37    8.39
GS16    5.10    5.18    4.28   27.23    1.29   -0.09    1.30  355.96
GS17    3.66    3.72    3.13   22.74    1.11   -0.48    1.20  336.45
GS18    2.60    2.68    2.24   18.70    0.24   -0.27    0.36  311.63
GS19    1.81    1.87    1.48   14.77    0.28    0.71    0.77   67.38
GS20    1.24    1.27    0.91   11.06    0.37    2.13    2.17   80.40
GS21    1.00    1.02    0.72    9.22    0.33    2.40    2.42   82.11
GS22    0.81    0.81    0.64    7.37    0.97    0.62    1.15   32.73
GS23    0.44    0.45    0.56    4.09    0.50   -3.54    3.58  278.12
END_DATA
