lprof/data/targets/Agfa/Reflective/C81251XX.it8
IT8.7/2
ORIGINATOR "FotoTune"
DESCRIPTOR "Agfa IT8"
MATERIAL "Agfacolor"
MANUFACTURER "Agfa"
CREATED "Mon Apr 12 14:25:04 1999"
PROD_DATE "1999:04"
SERIAL "5x7 c81251xx"
NUMBER_OF_FIELDS 9
BEGIN_DATA_FORMAT
SAMPLE_ID XYZ_X XYZ_Y XYZ_Z LAB_L LAB_A LAB_B LAB_C LAB_H
END_DATA_FORMAT
NUMBER_OF_SETS 288
BEGIN_DATA
A1     2.97    2.49    1.92   17.88   10.80    1.29   10.87    6.78
A2     3.61    2.51    1.53   17.97   20.84    5.60   21.58   15.03
A3     4.98    3.01    1.59   20.08   30.64    8.59   31.82   15.66
A4     5.26    3.15    1.72   20.65   31.77    8.11   32.79   14.32
A5    10.55    9.08    6.95   36.14   14.41    2.18   14.58    8.61
A6    12.85    9.47    5.98   36.85   27.62    7.69   28.67   15.56
A7    15.65    9.95    5.16   37.76   41.06   13.24   43.15   17.88
A8    18.11   10.35    4.76   38.47   51.60   16.67   54.22   17.90
A9    39.63   38.50   30.77   68.38    8.07    1.50    8.20   10.52
A10   42.60   39.28   29.97   68.95   14.69    3.72   15.16   14.22
A11   45.85   40.03   29.01   69.49   21.86    6.20   22.72   15.82
A12   46.15   38.53   26.76   68.41   27.35    8.11   28.53   16.49
A13   75.37   78.15   67.61   90.85    0.09   -2.97    2.98  271.77
A14   75.47   77.69   67.40   90.64    1.20   -3.15    3.37  290.84
A15   75.38   78.04   64.96   90.80    0.32   -0.60    0.67  298.29
A16   74.18   76.70   64.49   90.18    0.53   -1.19    1.31  294.15
A17   75.00   77.31   64.83   90.46    1.00   -1.03    1.44  314.10
A18   74.91   77.73   65.15   90.65   -0.00   -1.01    1.01  269.59
A19   74.69   77.03   67.23   90.33    0.94   -3.51    3.64  285.03
A20    1.28    1.02    0.63    9.16   10.09    3.87   10.81   20.99
A21    4.68    2.84    0.70   19.39   29.88   20.12   36.03   33.97
A22    9.11    4.99    0.73   26.72   43.68   32.26   54.30   36.44
B1     2.84    2.49    1.50   17.87    8.41    5.82   10.23   34.66
B2     3.40    2.58    0.81   18.25   16.43   16.13   23.02   44.47
B3     4.24    2.86    0.75   19.46   23.76   19.31   30.62   39.10
B4     4.78    3.11    0.75   20.48   26.55   21.11   33.92   38.50
B5    10.90    9.32    5.00   36.60   15.04   12.10   19.31   38.82
B6    13.06    9.82    3.59   37.52   26.13   21.92   34.11   39.99
B7    15.20    9.81    2.16   37.51   39.53   32.86   51.40   39.73
B8    17.24   10.23    1.49   38.25   47.92   41.14   63.15   40.64
B9    39.60   38.83   28.54   68.63    6.93    5.48    8.84   38.38
B10   42.28   39.47   25.67   69.10   13.12   11.18   17.24   40.40
B11   45.54   40.52   23.52   69.84   19.47   16.33   25.41   39.99
B12   46.50   40.13   21.23   69.56   23.35   20.28   30.93   40.97
B13   66.46   71.75   65.78   87.85   -5.89   -6.45    8.73  227.58
B14   69.94   68.32   63.83   86.16    8.97   -7.51   11.69  320.07
B15   72.33   75.37   51.17   89.57   -0.63   11.42   11.44   93.18
B16   58.08   59.42   49.10   81.53    1.96   -0.13    1.97  176.52
B17   66.57   65.63   49.18   84.81    7.48    5.44    9.26   36.04
B18   63.60   69.17   50.96   86.59   -6.90    6.52    9.49  136.60
B19   61.17   62.17   61.71   83.01    2.96  -10.89   11.28  285.20
B20    2.83    1.96    0.69   15.29   19.38   13.28   23.49   34.42
B21    7.91    4.45    0.73   25.11   40.11   29.53   49.81   36.37
B22   28.13   23.79   13.05   55.88   21.88   15.76   26.97   35.75
C1     3.81    3.61    2.05   22.33    5.11    7.67    9.22   56.31
C2     4.09    3.65    1.20   22.47    8.60   17.55   19.54   63.89
C3     4.80    3.97    0.94   23.55   13.38   23.24   26.82   60.07
C4     4.84    3.98    0.93   23.61   13.65   23.53   27.20   59.89
C5    21.77   20.86    9.72   52.81    7.94   20.58   22.06   68.90
C6    24.26   21.20    5.23   53.17   17.60   39.49   43.23   65.99
C7    25.54   20.83    2.34   52.75   24.80   57.58   62.70   66.70
C8    27.93   21.76    1.73   53.76   30.15   65.16   71.79   65.17
C9    46.39   46.72   31.16   74.01    3.87   10.59   11.28   69.96
C10   48.99   47.81   26.05   74.70    8.06   20.17   21.72   68.23
C11   51.85   49.01   21.90   75.46   12.43   29.15   31.69   66.89
C12   51.58   47.68   17.59   74.62   15.32   36.75   39.82   67.35
C13   56.22   63.86   63.08   83.89  -12.81  -10.69   16.68  219.86
C14   63.31   57.99   59.00   80.73   17.69  -12.11   21.43  325.60
C15   70.12   73.12   41.57   88.50   -0.75   21.00   21.01   92.04
C16   43.16   44.51   36.26   72.57    0.76    0.62    1.01   38.75
C17   58.32   54.33   37.88   78.65   14.90    8.89   17.35   30.81
C18   51.53   59.47   40.16   81.55  -14.63   10.83   18.20  143.50
C19   47.24   47.55   54.90   74.54    3.99  -18.55   18.98  282.13
C20    1.78    1.47    0.70   12.42    9.49    8.15   12.51   40.64
C21   21.98   16.53    5.21   47.67   31.03   30.10   43.23   44.12
C22   35.07   32.30   19.95   63.58   13.91   12.60   18.76   42.17
D1     3.55    3.64    2.12   22.45    0.55    7.20    7.22   85.69
D2     3.61    3.73    1.26   22.77    0.01   17.19   17.19   89.94
D3     3.95    3.97    1.01   23.58    1.73   22.14   22.20   85.53
D4     3.94    3.98    1.01   23.60    1.51   22.17   22.22   86.11
D5    24.57   25.89   12.67   57.92   -1.60   20.33   20.40   94.49
D6    23.84   25.40    7.16   57.46   -2.79   38.07   38.17   94.19
D7    25.03   26.67    3.78   58.66   -2.81   57.17   57.23   92.81
D8    23.83   24.89    2.10   56.96   -0.69   66.99   66.99   90.60
D9    52.91   55.41   35.65   79.27   -1.26   13.05   13.10   95.54
D10   55.11   57.44   29.76   80.43   -0.64   23.85   23.86   91.54
D11   55.22   58.21   24.55   80.85   -2.20   33.44   33.51   93.77
D12   56.19   59.28   20.55   81.44   -2.32   42.14   42.21   93.16
D13   47.11   56.28   59.83   79.78  -18.95  -14.59   23.92  217.60
D14   56.67   48.60   53.69   75.21   25.76  -16.10   30.38  328.00
D15   67.99   70.77   33.54   87.37   -0.46   30.03   30.03   90.88
D16   31.57   32.45   26.78   63.71    1.09   -0.05    1.09  177.70
D17   50.58   44.42   28.59   72.51   21.84   12.08   24.96   28.95
D18   40.86   50.15   31.22   76.17  -21.64   14.21   25.89  146.71
D19   35.68   35.27   47.76   65.96    5.78  -25.42   26.07  282.79
D20   13.60   10.23    3.18   38.24   26.49   25.95   37.08   44.42
D21   22.18   21.32   13.40   53.29    7.72   10.34   12.90   53.25
D22   38.92   37.64   23.14   67.76    8.59   13.46   15.97   57.46
E1     3.16    3.57    2.14   22.17   -4.40    6.60    7.93  123.74
E2     2.82    3.46    1.28   21.81   -8.91   15.26   17.67  120.29
E3     3.04    3.92    1.10   23.41  -11.92   20.47   23.69  120.22
E4     3.06    4.00    1.12   23.64  -12.48   20.72   24.18  121.05
E5    10.91   12.48    6.66   41.97   -7.96   13.47   15.65  120.58
E6    10.38   12.96    4.56   42.71  -15.22   25.00   29.26  121.32
E7     9.61   13.23    2.66   43.10  -22.92   38.24   44.58  120.93
E8     9.52   13.81    1.90   43.97  -27.33   46.43   53.88  120.48
E9    35.06   38.21   25.29   68.17   -5.90   10.24   11.82  119.98
E10   34.44   38.85   22.20   68.63  -10.01   16.76   19.53  120.84
E11   34.36   40.00   19.28   69.46  -13.86   24.16   27.85  119.84
E12   33.40   40.49   16.07   69.82  -18.74   32.00   37.08  120.35
E13   40.18   50.13   56.81   76.15  -23.66  -17.76   29.58  216.90
E14   51.18   41.41   49.02   70.46   32.22  -19.11   37.46  329.33
E15   65.51   67.75   25.11   85.88    0.46   41.10   41.11   89.35
E16   23.24   23.90   19.37   55.97    0.95    0.69    1.18   35.71
E17   43.85   36.44   20.49   66.85   27.41   17.11   32.31   31.98
E18   31.89   41.75   23.49   70.69  -27.88   17.88   33.11  147.34
E19   27.56   26.83   41.79   58.82    6.89  -30.48   31.24  282.75
E20   22.15   15.05    1.32   45.69   40.35   55.97   69.01   54.21
E21   16.80   13.79    3.14   43.94   20.99   36.03   41.70   59.78
E22   28.82   25.05    8.98   57.12   19.13   30.59   36.08   57.97
F1     1.26    1.57    1.15   13.05   -7.54    1.90    7.79  165.73
F2     1.11    1.68    0.98   13.74  -15.23    5.61   16.23  159.80
F3     1.09    1.92    0.95   15.06  -21.64    8.29   23.17  159.04
F4     1.25    2.34    1.12   17.17  -25.35    9.58   27.10  159.29
F5     5.88    7.30    5.20   32.49  -12.14    4.00   12.78  161.79
F6     5.01    7.61    4.64   33.15  -25.35    8.16   26.64  162.15
F7     4.09    7.71    3.97   33.38  -38.44   12.39   40.38  162.14
F8     3.07    7.40    3.49   32.70  -51.37   14.30   53.31  164.45
F9    34.39   37.81   28.94   67.88   -6.91    3.53    7.77  152.98
F10   33.94   39.13   28.90   68.85  -12.62    5.28   13.68  157.30
F11   32.80   39.69   28.24   69.25  -18.37    7.06   19.67  158.99
F12   31.37   40.08   26.83   69.53  -24.74    9.89   26.65  158.21
F13   33.96   44.31   53.61   72.43  -28.05  -20.79   34.91  216.55
F14   46.35   35.50   44.69   66.13   37.71  -21.45   43.38  330.37
F15   64.07   65.88   20.62   84.93    1.30   48.01   48.03   88.44
F16   17.26   17.69   14.52   49.13    1.13    0.19    1.16    9.22
F17   39.33   31.30   15.81   62.76   31.39   20.47   37.47   33.10
F18   26.49   36.35   18.40   66.79  -31.78   21.45   38.34  145.99
F19   21.69   20.58   36.85   52.49    8.95  -34.82   35.95  284.41
F20   26.49   25.57   13.59   57.62    7.73   17.30   18.94   65.92
F21   33.56   31.05   11.98   62.55   13.16   30.26   33.00   66.49
F22   37.89   36.17   17.78   66.65   10.05   22.56   24.70   65.98
G1     1.98    2.43    2.39   17.58   -7.95   -3.49    8.68  203.70
G2     1.74    2.57    2.70   18.21  -16.22   -5.02   16.97  197.20
G3     1.64    2.88    3.13   19.58  -24.60   -5.89   25.29  193.46
G4     1.80    3.28    3.48   21.15  -27.40   -5.61   27.96  191.56
G5     8.11    9.87    8.65   37.60  -11.93   -1.88   12.08  188.95
G6     7.14   10.15    9.32   38.11  -23.23   -3.38   23.47  188.29
G7     5.82   10.02    9.61   37.89  -36.10   -4.81   36.42  187.58
G8     5.03   10.47   10.66   38.67  -48.76   -6.86   49.24  188.01
G9    33.87   37.44   30.37   67.61   -7.55    0.79    7.59  174.03
G10   32.75   38.17   32.00   68.15  -13.83   -0.81   13.85  183.37
G11   31.65   38.86   32.72   68.65  -19.92   -1.03   19.94  182.96
G12   30.73   39.99   34.60   69.46  -26.80   -2.38   26.90  185.08
G13   27.57   37.97   49.73   68.00  -32.67  -24.15   40.63  216.49
G14   40.11   28.34   38.88   60.19   44.89  -24.31   51.04  331.57
G15   61.64   62.62   14.47   83.24    2.99   59.14   59.22   87.10
G16   11.00   11.28    9.19   40.05    0.95    0.37    1.01   21.40
G17   33.02   24.38   10.65   56.46   37.55   23.82   44.47   32.39
G18   20.11   29.73   13.46   61.42  -37.10   24.17   44.27  146.92
G19   14.81   13.50   30.28   43.51   11.30  -40.62   42.16  285.54
G20   36.25   35.54   16.35   66.16    6.77   25.04   25.93   74.88
G21   34.38   33.61   10.45   64.65    6.98   38.60   39.22   79.75
G22   43.09   40.15    2.93   69.57   13.47   81.78   82.88   80.65
H1     2.18    2.47    2.92   17.78   -4.14   -7.43    8.50  240.90
H2     1.99    2.56    3.83   18.15   -9.93  -12.99   16.35  232.60
H3     1.81    2.54    4.94   18.10  -14.15  -19.46   24.06  233.97
H4     2.12    3.03    6.33   20.14  -15.77  -22.70   27.65  235.22
H5     8.81   10.01   10.71   37.86   -6.94   -8.43   10.91  230.54
H6     8.23   10.41   13.66   38.58  -15.07  -15.74   21.79  226.24
H7     7.24   10.14   17.19   38.08  -22.20  -25.35   33.70  228.77
H8     6.86   10.42   20.90   38.58  -28.01  -32.46   42.88  229.21
H9    34.57   37.76   33.38   67.85   -6.15   -3.39    7.03  208.83
H10   33.89   38.07   37.53   68.07   -9.49   -8.88   13.00  223.11
H11   34.18   39.71   44.88   69.26  -13.59  -16.31   21.23  230.18
H12   33.35   39.62   49.33   69.20  -16.24  -21.62   27.04  233.10
H13   22.65   32.81   46.13   64.00  -36.29  -26.86   45.15  216.51
H14   34.17   22.10   33.08   54.14   51.53  -26.58   57.99  332.72
H15   59.53   59.75   10.57   81.71    4.66   67.60   67.76   86.06
H16    6.96    7.09    5.89   31.99    1.36   -0.20    1.39  172.15
H17   27.76   19.03    6.82   50.72   42.62   27.92   50.95   33.22
H18   15.01   23.98    9.41   56.07  -41.64   27.24   49.75  146.81
H19   10.48    8.91   25.03   35.79   15.38  -45.11   47.67  288.83
H20   40.64   41.72   16.78   70.68    1.29   31.80   31.82   87.67
H21   31.98   33.29   22.97   64.39   -0.40    7.99    8.01   92.83
H22   34.14   37.51   12.03   67.65   -6.78   38.94   39.53   99.88
I1     3.49    3.51    4.70   21.97    1.84  -11.50   11.65  279.10
I2     3.59    3.53    7.39   22.02    3.09  -23.94   24.14  277.36
I3     3.80    3.66   10.55   22.51    4.12  -34.38   34.61  276.84
I4     4.00    3.73   14.31   22.77    6.02  -44.71   45.11  277.66
I5    12.42   12.77   13.31   42.41    0.75   -8.19    8.23  275.21
I6    12.61   12.84   17.35   42.51    1.64  -18.10   18.17  275.20
I7    12.63   12.69   21.57   42.29    2.65  -27.41   27.53  275.54
I8    13.30   13.21   26.50   43.08    3.76  -35.15   35.35  276.10
I9    36.18   37.46   33.88   67.62    0.23   -4.51    4.52  272.94
I10   37.22   38.40   38.35   68.32    0.71   -9.59    9.62  274.21
I11   37.89   38.85   44.11   68.65    1.41  -16.43   16.49  274.91
I12   38.10   38.94   49.04   68.71    1.82  -22.13   22.21  274.70
I13   18.92   28.64   42.99   60.46  -38.96  -29.16   48.65  216.82
I14   30.43   18.51   29.33   50.11   55.51  -27.74   62.05  333.45
I15   57.71   57.31    8.05   80.35    6.13   74.03   74.28   85.27
I16    4.82    4.84    4.04   26.26    2.05   -0.32    2.08  351.17
I17   24.30   15.75    4.64   46.65   45.83   31.42   55.57   34.42
I18   12.01   20.33    6.96   52.22  -44.31   29.88   53.44  146.01
I19    7.85    6.19   21.29   29.88   19.00  -48.26   51.87  291.49
I20   41.12   45.36   17.54   73.13   -7.76   34.28   35.15  102.75
I21   11.50   15.45    4.09   46.25  -22.17   33.87   40.49  123.21
I22   28.30   36.35   18.92   66.79  -24.49   20.29   31.81  140.36
J1     1.84    1.67    2.68   13.65    5.80  -12.68   13.93  294.57
J2     2.12    1.70    4.36   13.81   11.57  -23.71   26.39  296.02
J3     2.62    1.78    7.43   14.30   19.69  -37.42   42.29  297.76
J4     2.92    1.78   10.13   14.33   25.22  -47.15   53.47  298.14
J5    10.10    9.73   10.89   37.35    5.76   -9.85   11.41  300.35
J6    10.84    9.77   14.20   37.42   11.12  -19.17   22.17  300.11
J7    11.47    9.65   18.24   37.21   16.53  -29.24   33.58  299.49
J8    12.28    9.95   21.45   37.76   19.90  -35.00   40.26  299.63
J9    38.09   38.62   34.89   68.47    2.82   -4.51    5.32  302.02
J10   39.15   38.92   38.86   68.69    5.26   -9.62   10.96  298.66
J11   40.83   39.17   44.15   68.88    9.66  -16.08   18.75  300.99
J12   41.57   39.23   49.16   68.92   11.74  -21.92   24.86  298.17
J13   13.90   22.51   37.82   54.57  -42.03  -32.57   53.17  217.77
J14   26.32   14.89   25.15   45.47   59.40  -28.64   65.94  334.26
J15   56.03   55.06    6.38   79.07    7.48   78.69   79.05   84.57
J16    2.54    2.59    2.29   18.31    0.86   -1.38    1.62  301.72
J17   20.29   12.24    2.83   41.60   49.15   34.28   59.93   34.90
J18    7.57   14.60    4.48   45.08  -49.13   29.52   57.32  148.99
J19    5.01    3.56   16.81   22.17   22.15  -51.90   56.43  293.11
J20   30.43   38.93   25.47   68.70  -24.61   10.84   26.90  156.23
J21    3.91    7.38    1.53   32.65  -37.78   30.91   48.82  140.71
J22    1.02    1.64    0.85   13.51  -17.15    7.49   18.72  156.40
K1     4.44    3.73    4.41   22.76   12.26   -8.52   14.93  325.18
K2     5.57    3.86    6.57   23.19   24.31  -18.47   30.53  322.76
K3     7.03    4.12    9.26   24.07   36.24  -27.42   45.44  322.89
K4     8.28    4.32   12.27   24.69   45.26  -35.82   57.72  321.65
K5    14.22   12.98   13.50   42.74   11.01   -8.14   13.69  323.53
K6    15.96   12.81   16.62   42.47   22.56  -16.45   27.92  323.88
K7    18.05   12.97   20.49   42.72   32.99  -24.50   41.08  323.40
K8    20.92   13.50   25.84   43.51   43.96  -33.24   55.11  322.90
K9    39.77   39.10   34.80   68.83    6.61   -3.78    7.61  330.27
K10   42.39   39.35   38.29   69.00   13.87   -8.33   16.17  329.03
K11   46.16   40.80   44.56   70.04   20.35  -14.58   25.03  324.40
K12   48.31   40.82   48.03   70.04   26.30  -18.68   32.25  324.61
K13   11.72   19.60   35.00   51.39  -42.77  -34.14   54.72  218.60
K14   21.98   11.49   20.69   40.39   62.40  -28.92   68.78  335.13
K15   48.59   45.65    2.89   73.32   12.94   88.52   89.47   81.68
K16    1.26    1.31    1.07   11.32    0.00    0.14    0.18  188.81
K17   16.90    9.64    1.39   37.19   50.60   40.42   64.76   38.62
K18    4.57    9.69    2.17   37.29  -48.69   32.39   58.49  146.38
K19    3.38    2.07   13.18   15.81   26.49  -53.70   59.88  296.26
K20    2.33    3.00    2.11   20.05  -10.87    3.30   11.36  163.08
K21    1.22    1.63    1.57   13.39  -10.28   -2.71   10.65  194.80
K22    1.58    1.97    3.10   15.35   -8.29  -12.89   15.32  237.23
L1     3.26    2.68    2.55   18.72   11.98   -2.84   12.31  346.65
L2     3.95    2.72    2.71   18.88   22.14   -3.93   22.48  349.93
L3     5.39    3.21    3.52   20.86   32.36   -6.34   32.97  348.92
L4     6.04    3.49    4.25   21.90   35.25   -9.10   36.40  345.52
L5    11.45    9.75    9.11   37.39   15.68   -3.92   16.16  345.95
L6    14.27   10.37   10.35   38.50   29.60   -6.16   30.24  348.24
L7    17.10   10.45   11.16   38.65   45.40   -8.43   46.17  349.48
L8    19.17   11.06   12.00   39.67   51.92   -9.21   52.73  349.94
L9    40.49   39.31   33.26   68.98    8.17   -1.26    8.27  351.20
L10   42.88   39.47   34.35   69.09   14.94   -2.66   15.18  349.90
L11   46.35   40.21   35.31   69.61   22.67   -3.12   22.89  352.15
L12   47.85   39.60   36.35   69.18   28.77   -5.36   29.26  349.46
L13    7.98   13.86   28.78   44.03  -40.85  -37.30   55.32  222.40
L14   17.44    8.41   16.24   34.83   63.68  -28.73   69.87  335.72
L15   45.00   41.42    2.38   70.47   15.19   87.81   89.11   80.18
L16    0.49    0.50    0.56    4.46    0.41   -2.98    3.01  277.72
L17   13.10    6.98    0.80   31.75   51.26   39.72   64.85   37.78
L18    2.82    6.60    1.55   30.87  -48.02   27.58   55.38  150.14
L19    2.00    0.96    9.03    8.67   31.14  -53.17   61.62  300.36
L20    0.69    0.80    0.79    7.22   -3.29   -2.51    4.14  217.26
L21    0.88    0.81    0.89    7.25    4.29   -4.12    5.95  316.21
L22    2.03    1.60    1.49   13.21   12.20   -2.14   12.40  350.04
GS0    76.40   78.96   68.24   91.22    0.60   -2.91    2.97  281.68
GS1    71.38   73.40   62.10   88.64    1.33   -1.55    2.05  310.76
GS2    59.97   61.46   51.57   82.62    1.76   -0.99    2.02  330.74
GS3    51.33   52.58   43.65   77.63    1.73   -0.36    1.77  348.31
GS4    45.49   47.03   38.18   74.21    0.49    0.80    0.94   57.24
GS5    39.28   40.53   33.40   69.85    0.64    0.05    0.64    3.62
GS6    33.25   34.47   28.02   65.33    0.09    0.67    0.68   81.42
GS7    29.25   30.34   24.54   61.94    0.04    0.86    0.87   87.71
GS8    25.05   25.88   21.23   57.92    0.44    0.22    0.50   26.27
GS9    21.57   22.37   18.53   54.41    0.07   -0.20    0.22  285.29
GS10   18.60   19.33   16.04   51.07   -0.11   -0.24    0.26  244.39
GS11   14.79   15.31   12.91   46.05    0.23   -0.81    0.85  285.71
GS12   11.99   12.43   10.45   41.89    0.05   -0.65    0.67  274.35
GS13    9.31    9.60    8.19   37.12    0.41   -1.04    1.12  291.82
GS14    7.58    7.82    6.45   33.61    0.39   -0.04    0.40  176.22
GS15    6.02    6.14    5.03   29.76    1.19    0.17    1.22  188.61
GS16    4.76    4.86    4.03   26.31    1.09   -0.13    1.10  173.35
GS17    3.47    3.54    3.07   22.10    0.78   -1.07    1.33  306.58
GS18    2.47    2.55    2.24   18.17    0.10   -1.25    1.26  273.51
GS19    1.75    1.83    1.50   14.54   -0.14   -0.02    0.24  183.61
GS20    1.19    1.24    0.92   10.84   -0.04    1.46    1.46   91.32
GS21    1.00    1.04    0.75    9.30   -0.20    1.99    2.00   95.87
GS22    0.78    0.80    0.64    7.25    0.54    0.43    0.69   38.76
GS23    0.44    0.45    0.55    4.11    0.38   -3.25    3.28  276.57
END_DATA
