lprof/data/targets/Agfa/Reflective/C81207XX.it8
IT8.7/2
ORIGINATOR "FotoTune"
DESCRIPTOR "Agfa IT8"
MATERIAL "Agfacolor"
MANUFACTURER "Agfa"
CREATED "Thu Mar  4 15:21:30 1999"
PROD_DATE "1999:03"
SERIAL "5x7 c81207xx"
NUMBER_OF_FIELDS 9
BEGIN_DATA_FORMAT
SAMPLE_ID XYZ_X XYZ_Y XYZ_Z LAB_L LAB_A LAB_B LAB_C LAB_H
END_DATA_FORMAT
NUMBER_OF_SETS 288
BEGIN_DATA
A1     3.43    2.88    2.17   19.55   11.26    1.77   11.40    8.93
A2     3.99    2.76    1.70   19.06   21.80    5.59   22.50   14.38
A3     5.29    3.16    1.72   20.67   31.99    8.12   33.00   14.26
A4     5.60    3.32    1.88   21.27   33.05    7.61   33.92   12.97
A5    11.81   10.32    7.92   38.40   13.77    2.19   13.94    9.03
A6    14.07   10.55    6.84   38.79   27.08    7.28   28.05   15.04
A7    16.25   10.52    5.94   38.76   40.15   11.18   41.67   15.57
A8    18.34   10.63    5.47   38.96   50.74   13.82   52.60   15.24
A9    41.69   41.05   33.12   70.21    6.54    1.07    6.63    9.26
A10   44.28   41.47   32.39   70.50   12.97    2.67   13.24   11.65
A11   47.45   42.19   30.95   70.99   19.82    5.72   20.62   16.10
A12   47.78   40.79   28.70   70.03   24.90    7.64   26.05   17.06
A13   75.24   77.99   67.68   90.78    0.14   -3.16    3.16  272.51
A14   75.58   77.86   67.49   90.72    1.10   -3.10    3.28  289.54
A15   75.43   78.06   65.29   90.81    0.40   -0.88    0.97  294.41
A16   74.28   76.82   64.87   90.24    0.51   -1.47    1.56  289.18
A17   75.07   77.42   65.21   90.51    0.93   -1.32    1.61  305.18
A18   74.78   77.59   65.42   90.60   -0.02   -1.37    1.37  269.20
A19   74.64   77.09   67.34   90.36    0.70   -3.57    3.63  281.11
A20    1.39    1.08    0.60    9.64   11.27    5.34   12.47   25.26
A21    4.94    2.95    0.66   19.87   31.03   21.86   37.96   35.15
A22    9.09    4.96    0.68   26.62   43.82   33.04   54.88   37.01
B1     3.30    2.90    1.64   19.67    8.53    7.24   11.19   40.31
B2     3.85    2.91    0.81   19.69   17.05   18.61   25.24   47.52
B3     4.63    3.10    0.72   20.42   24.76   21.72   32.94   41.25
B4     5.20    3.36    0.72   21.43   27.58   23.32   36.12   40.21
B5    12.26   10.73    5.99   39.12   13.87   11.57   18.06   39.83
B6    14.16   10.89    4.14   39.39   25.04   21.76   33.17   40.99
B7    16.16   10.68    2.40   39.03   38.55   33.35   50.97   40.87
B8    17.67   10.69    1.57   39.06   46.72   41.53   62.51   41.63
B9    41.71   41.40   30.85   70.46    5.51    4.95    7.41   41.96
B10   43.96   41.76   27.74   70.70   11.17   10.38   15.25   42.90
B11   47.21   42.75   25.45   71.38   17.47   15.49   23.34   41.58
B12   48.01   42.33   22.76   71.10   20.95   19.93   28.92   43.58
B13   67.35   72.38   65.96   88.15   -5.22   -6.10    8.03  229.40
B14   70.92   69.99   64.50   86.99    7.47   -6.72   10.05  318.06
B15   72.82   75.81   53.27   89.77   -0.52    9.46    9.48   93.15
B16   59.94   61.78   51.44   82.79    0.97   -0.56    1.12  329.85
B17   68.23   67.99   51.78   86.01    5.97    4.59    7.53   37.57
B18   64.54   69.96   52.99   86.97   -6.41    4.96    8.10  142.32
B19   62.76   64.33   62.64   84.14    1.73   -9.84    9.99  279.95
B20    3.12    2.13    0.66   16.17   20.61   15.38   25.72   36.72
B21    8.19    4.59    0.68   25.53   40.83   31.17   51.38   37.35
B22   29.62   25.69   14.17   57.74   19.56   15.94   25.24   39.19
C1     4.36    4.18    2.31   24.25    4.68    8.67    9.85   61.56
C2     4.72    4.26    1.25   24.52    8.28   20.33   21.96   67.85
C3     5.49    4.57    0.92   25.48   13.61   26.88   30.14   63.14
C4     5.49    4.59    0.93   25.51   13.50   26.82   30.02   63.28
C5    23.75   22.99   10.90   55.06    7.22   20.64   21.86   70.72
C6    25.62   22.89    5.82   54.96   15.64   39.67   42.64   68.50
C7    26.77   22.37    2.47   54.42   22.71   59.25   63.46   69.03
C8    28.73   22.95    1.72   55.03   27.85   67.43   72.96   67.56
C9    48.17   48.96   33.63   75.43    2.70    9.31    9.69   73.82
C10   50.51   49.85   27.89   75.98    6.64   19.22   20.34   70.92
C11   53.24   51.15   23.31   76.77   10.38   28.69   30.51   70.12
C12   52.83   49.55   18.91   75.79   13.55   35.85   38.33   69.30
C13   57.71   65.04   63.46   84.50  -11.77  -10.00   15.44  220.36
C14   64.76   60.28   60.13   81.99   15.56  -11.07   19.10  324.57
C15   70.57   73.62   43.97   88.75   -0.82   18.42   18.43   92.56
C16   45.72   47.35   39.04   74.42    0.24    0.01    0.24  180.64
C17   59.94   56.62   40.49   79.97   13.13    7.68   15.21   30.33
C18   53.34   60.99   42.61   82.38  -13.51    9.11   16.30  146.01
C19   49.23   49.97   56.13   76.05    2.91  -17.24   17.48  279.58
C20    1.96    1.60    0.66   13.20   10.58   10.23   14.71   44.01
C21   23.09   17.84    5.84   49.29   29.09   29.80   41.64   45.69
C22   36.47   34.21   21.30   65.12   11.98   12.51   17.32   46.23
D1     4.09    4.23    2.36   24.42    0.14    8.50    8.50   88.99
D2     4.19    4.40    1.29   24.97   -0.75   20.59   20.60   92.10
D3     4.53    4.57    1.01   25.49    1.52   25.43   25.48   86.58
D4     4.53    4.62    1.02   25.62    0.99   25.42   25.44   87.77
D5    26.56   28.08   13.86   59.97   -2.07   20.60   20.71   95.74
D6    25.78   27.54    8.05   59.47   -3.15   38.03   38.16   94.74
D7    26.61   28.36    4.00   60.21   -2.92   58.46   58.53   92.87
D8    25.15   26.05    2.03   58.08    0.20   69.53   69.53   89.83
D9    54.20   57.21   37.87   80.30   -2.36   11.73   11.97  101.40
D10   56.29   58.97   31.67   81.28   -1.35   22.33   22.37   93.46
D11   55.92   59.14   25.81   81.37   -2.65   32.08   32.18   94.72
D12   56.49   59.97   21.66   81.82   -3.19   40.56   40.69   94.50
D13   48.91   57.81   60.49   80.63  -17.70  -13.78   22.44  217.92
D14   58.03   50.76   54.86   76.54   23.38  -15.06   27.81  327.21
D15   68.32   71.20   35.51   87.58   -0.65   27.56   27.56   91.36
D16   33.61   34.85   28.76   65.63    0.03   -0.04    0.17  169.51
D17   52.14   46.68   30.54   73.99   19.55   11.51   22.68   30.50
D18   42.67   51.82   33.18   77.17  -20.54   12.98   24.30  147.73
D19   37.85   37.93   49.40   67.96    4.20  -23.84   24.20  279.98
D20   14.76   11.30    3.51   40.07   25.78   26.87   37.24   46.19
D21   24.04   23.39   14.76   55.47    6.70   10.51   12.48   57.46
D22   40.27   39.45   24.45   69.08    7.10   13.30   15.08   61.93
E1     3.70    4.22    2.40   24.38   -5.47    8.12    9.80  123.96
E2     3.33    4.12    1.36   24.06   -9.88   18.19   20.70  118.51
E3     3.54    4.58    1.10   25.49  -12.70   24.19   27.33  117.71
E4     3.57    4.65    1.11   25.72  -13.24   24.43   27.79  118.47
E5    12.36   14.17    7.68   44.47   -8.49   13.61   16.05  121.96
E6    11.48   14.43    5.14   44.83  -16.22   25.63   30.33  122.33
E7    10.62   14.52    2.81   44.96  -23.03   40.32   46.43  119.74
E8    10.33   14.69    1.87   45.21  -26.34   48.92   55.57  118.30
E9    37.08   40.49   27.04   69.81   -6.24   10.02   11.81  121.92
E10   36.50   41.15   23.83   70.28  -10.15   16.52   19.39  121.55
E11   36.39   42.24   20.51   71.04  -13.78   24.30   27.93  119.57
E12   35.26   42.31   17.06   71.08  -17.75   31.86   36.47  119.12
E13   42.00   51.78   57.58   77.15  -22.41  -16.85   28.03  216.94
E14   52.77   43.74   50.50   72.06   29.51  -18.04   34.58  328.56
E15   65.54   67.96   26.55   85.99    0.11   38.75   38.75   89.84
E16   25.24   26.12   21.01   58.15    0.28    1.06    1.10   75.39
E17   45.52   38.85   22.12   68.64   24.56   16.93   29.83   34.58
E18   33.85   43.57   24.83   71.94  -26.29   17.58   31.62  146.23
E19   29.82   29.42   43.61   61.15    5.60  -28.72   29.27  281.03
E20   22.65   15.78    1.28   46.69   38.33   58.14   69.65   56.60
E21   17.99   15.07    3.35   45.74   19.62   37.67   42.47   62.49
E22   30.02   26.74    9.80   58.73   16.83   30.53   34.86   61.15
F1     1.45    1.85    1.23   14.65   -8.48    3.64    9.24  156.75
F2     1.25    1.96    1.02   15.28  -17.56    7.63   19.14  156.51
F3     1.18    2.17    0.98   16.36  -24.23   10.24   26.30  157.10
F4     1.34    2.59    1.13   18.30  -27.78   11.17   29.94  158.08
F5     6.82    8.49    5.99   35.00  -12.99    4.47   13.74  160.99
F6     5.72    8.65    5.23   35.30  -26.07    8.70   27.49  161.53
F7     4.59    8.56    4.47   35.14  -39.15   12.51   41.10  162.28
F8     3.15    7.60    3.72   33.12  -51.90   13.46   53.61  165.46
F9    36.47   40.12   30.86   69.56   -7.12    3.38    7.89  154.61
F10   36.15   41.44   30.66   70.48  -12.18    5.29   13.28  156.52
F11   35.01   42.17   29.81   70.99  -18.18    7.52   19.67  157.55
F12   33.50   42.28   28.51   71.07  -23.72    9.73   25.63  157.69
F13   35.63   45.90   54.45   73.48  -26.85  -19.89   33.42  216.52
F14   48.12   37.92   46.43   67.96   34.77  -20.41   40.32  329.59
F15   63.84   65.80   21.42   84.90    0.96   46.34   46.35   88.81
F16   18.81   19.53   15.56   51.29   -0.11    1.33    1.34   94.70
F17   40.36   32.90   16.71   64.07   28.92   20.59   35.50   35.45
F18   27.91   37.71   19.31   67.81  -30.45   21.22   37.11  145.14
F19   23.42   22.59   38.49   54.64    7.47  -33.35   34.18  282.62
F20   28.08   27.42   14.60   59.36    6.61   17.63   18.83   69.44
F21   34.76   32.74   12.95   63.94   11.31   29.93   32.00   69.29
F22   38.96   37.74   18.75   67.82    8.38   22.45   23.97   69.55
G1     2.31    2.87    2.73   19.51   -8.85   -2.95    9.34  198.47
G2     2.00    3.01    3.06   20.10  -18.22   -4.44   18.75  193.71
G3     1.80    3.24    3.55   20.95  -26.74   -6.37   27.49  193.39
G4     1.97    3.65    3.95   22.49  -29.27   -6.30   29.94  192.14
G5     9.09   11.11    9.45   39.78  -12.83   -0.99   12.87  184.38
G6     7.92   11.28   10.20   40.04  -24.18   -3.04   24.37  187.16
G7     6.50   11.08   10.45   39.71  -36.64   -4.42   36.90  186.88
G8     5.32   10.98   11.39   39.55  -49.06   -7.60   49.64  188.80
G9    36.16   39.91   32.29   69.40   -7.51    0.92    7.57  172.99
G10   35.04   40.62   34.42   69.91  -13.44   -1.35   13.51  185.71
G11   34.17   41.61   35.22   70.60  -19.43   -1.31   19.47  183.84
G12   33.07   42.44   36.93   71.18  -25.74   -2.72   25.88  186.05
G13   29.28   39.71   50.76   69.26  -31.36  -23.15   38.97  216.42
G14   41.56   30.26   40.46   61.88   42.07  -23.49   48.18  330.83
G15   61.44   62.65   15.43   83.26    2.48   56.73   56.78   87.50
G16   12.22   12.67   10.16   42.24    0.05    0.89    0.89   86.99
G17   34.02   25.81   11.57   57.85   35.05   23.41   42.15   33.74
G18   21.38   31.01   14.27   62.51  -35.77   23.92   43.03  146.23
G19   16.17   15.06   31.78   45.71    9.80  -39.15   40.36  284.05
G20   37.51   37.27   17.42   67.48    5.25   24.81   25.36   78.05
G21   35.60   35.23   11.21   65.93    5.62   38.42   38.83   81.67
G22   43.23   40.65    2.99   69.93   12.35   81.93   82.85   81.43
H1     2.49    2.84    3.29   19.39   -4.77   -7.34    8.75  236.99
H2     2.24    2.93    4.36   19.76  -11.39  -13.41   17.58  229.63
H3     1.93    2.79    5.44   19.19  -15.81  -20.14   25.61  231.87
H4     2.24    3.30    6.86   21.23  -17.61  -23.14   29.08  232.72
H5     9.71   11.16   11.42   39.84   -8.08   -7.22   10.84  221.77
H6     9.03   11.48   14.53   40.38  -15.93  -14.93   21.84  223.14
H7     7.98   11.24   18.38   39.98  -23.35  -24.76   34.03  226.67
H8     7.41   11.26   22.12   40.03  -28.96  -32.40   43.46  228.21
H9    36.60   40.02   35.61   69.49   -6.41   -3.80    7.45  210.64
H10   36.13   40.58   39.38   69.88   -9.65   -8.26   12.70  220.57
H11   36.39   42.10   46.78   70.94  -13.39  -15.67   20.61  229.51
H12   35.53   42.09   50.85   70.93  -16.21  -20.35   26.02  231.46
H13   24.02   34.26   47.08   65.16  -35.20  -25.99   43.76  216.45
H14   35.15   23.41   34.35   55.49   49.09  -26.11   55.60  331.99
H15   59.14   59.60   11.16   81.62    4.11   65.63   65.77   86.42
H16    7.69    7.91    6.40   33.78    0.66    0.52    0.87   35.91
H17   28.31   19.89    7.32   51.71   40.48   27.51   48.94   34.20
H18   15.93   24.97    9.94   57.03  -40.46   27.13   48.72  146.15
H19   11.39    9.93   26.26   37.71   13.78  -43.96   46.07  287.40
H20   41.54   43.02   17.43   71.57    0.22   31.83   31.83   89.60
H21   33.57   35.18   23.90   65.88   -1.16    8.82    8.90   97.47
H22   35.70   39.34   12.74   68.99   -7.27   39.22   39.90  100.51
I1     3.99    4.03    5.32   23.76    1.52  -11.62   11.73  277.43
I2     4.03    3.99    8.14   23.65    2.62  -24.07   24.20  276.22
I3     4.26    4.18   11.59   24.26    3.28  -34.56   34.72  275.42
I4     4.41    4.22   15.41   24.39    4.78  -44.71   44.97  276.09
I5    13.83   14.38   14.41   44.75   -0.15   -7.03    7.03  268.77
I6    14.01   14.41   18.76   44.79    0.81  -17.26   17.28  272.68
I7    13.88   14.14   23.24   44.42    1.59  -26.95   27.00  273.35
I8    14.54   14.64   28.08   45.13    2.65  -34.28   34.39  274.43
I9    38.22   39.84   35.89   69.35   -0.58   -4.41    4.45  262.44
I10   39.18   40.82   40.33   70.04   -0.48   -9.23    9.24  267.02
I11   39.67   41.04   45.79   70.21    0.32  -15.77   15.77  271.19
I12   40.26   41.47   50.60   70.50    0.92  -20.82   20.83  272.53
I13   19.91   29.73   43.77   61.42  -38.14  -28.46   47.59  216.73
I14   31.42   19.73   30.64   51.53   53.04  -27.35   59.68  332.72
I15   57.42   57.29    8.66   80.34    5.48   71.74   71.94   85.63
I16    5.38    5.47    4.50   28.03    1.16    0.07    1.19  183.12
I17   24.73   16.45    4.97   47.56   43.79   31.17   53.76   35.46
I18   12.74   21.15    7.40   53.12  -43.20   29.64   52.39  145.55
I19    8.55    6.94   22.33   31.67   17.52  -47.21   50.35  290.36
I20   42.44   46.92   18.45   74.13   -8.15   33.99   34.96  103.48
I21   12.31   16.47    4.31   47.58  -22.27   34.82   41.33  122.60
I22   29.87   37.93   19.75   67.96  -23.58   20.56   31.28  138.89
J1     2.03    1.84    2.97   14.59    6.26  -13.28   14.68  295.23
J2     2.32    1.82    4.78   14.52   12.66  -24.81   27.85  297.04
J3     2.83    1.90    7.93   14.98   20.65  -38.21   43.43  298.40
J4     3.09    1.87   10.60   14.74   26.31  -47.92   54.66  298.77
J5    11.35   11.09   11.97   39.73    4.86   -9.01   10.24  298.36
J6    12.06   11.05   15.55   39.65   10.13  -18.74   21.30  298.39
J7    12.63   10.82   19.74   39.28   15.69  -28.89   32.88  298.51
J8    13.58   11.18   23.04   39.88   19.26  -34.41   39.43  299.23
J9    39.75   40.72   36.81   69.97    1.58   -4.62    4.88  288.87
J10   40.68   40.89   40.67   70.09    3.94   -9.59   10.37  292.34
J11   42.44   41.31   45.98   70.39    7.99  -15.68   17.59  297.04
J12   43.07   41.07   50.24   70.22   10.60  -20.89   23.43  296.89
J13   14.70   23.53   38.69   55.61  -41.51  -31.95   52.38  217.58
J14   26.82   15.53   26.05   46.35   57.66  -28.69   64.40  333.54
J15   55.57   54.83    6.60   78.94    6.91   77.55   77.86   84.90
J16    2.85    2.91    2.46   19.67    0.74   -0.56    0.93  324.07
J17   20.43   12.56    2.99   42.09   47.74   33.90   58.55   35.38
J18    8.09   15.25    4.65   45.97  -48.21   30.15   56.85  147.97
J19    5.46    3.99   17.65   23.63   21.23  -51.31   55.53  292.48
J20   32.26   40.78   26.58   70.01  -23.62   11.17   26.12  154.68
J21    4.20    7.80    1.47   33.57  -37.69   33.26   50.26  138.58
J22    1.07    1.77    0.80   14.20  -18.76    9.41   20.99  153.37
K1     4.97    4.20    4.94   24.33   12.29   -8.70   15.06  324.69
K2     6.13    4.26    7.24   24.50   24.99  -19.06   31.43  322.67
K3     7.49    4.36    9.97   24.82   37.42  -28.51   47.04  322.70
K4     8.62    4.44   12.54   25.10   46.50  -35.90   58.74  322.33
K5    15.64   14.48   14.57   44.90   10.17   -7.20   12.47  324.67
K6    17.34   14.15   17.88   44.44   21.74  -15.93   26.95  323.75
K7    19.61   14.39   22.33   44.78   32.08  -24.60   40.43  322.52
K8    22.01   14.52   26.96   44.97   42.83  -32.65   53.86  322.67
K9    41.82   41.56   37.03   70.56    5.39   -3.90    6.65  324.08
K10   44.01   41.44   40.26   70.49   12.23   -8.38   14.82  325.56
K11   47.67   42.97   46.50   71.54   18.12  -14.31   23.09  321.69
K12   49.86   43.01   49.52   71.57   23.96  -17.78   29.83  323.43
K13   12.28   20.34   35.72   52.22  -42.46  -33.71   54.22  218.44
K14   21.81   11.51   20.88   40.43   61.44  -29.24   68.05  334.55
K15   47.71   44.93    2.84   72.84   12.58   88.14   89.03   81.88
K16    1.38    1.42    1.06   12.11    0.13    1.59    1.60   85.06
K17   16.89    9.76    1.38   37.40   49.62   40.85   64.27   39.46
K18    4.76    9.93    2.16   37.72  -48.09   33.29   58.49  145.30
K19    3.55    2.20   13.61   16.52   26.28  -53.65   59.74  296.10
K20    2.63    3.44    2.25   21.74  -12.08    4.86   13.02  158.11
K21    1.33    1.84    1.64   14.59  -11.93   -1.40   12.01  186.71
K22    1.77    2.26    3.50   16.80   -9.51  -13.17   16.24  234.18
L1     3.64    2.99    2.81   20.01   12.51   -2.75   12.81  347.60
L2     4.39    2.97    3.07   19.93   23.55   -4.78   24.03  348.53
L3     5.82    3.41    3.94   21.61   34.10   -7.70   34.96  347.28
L4     6.51    3.69    4.70   22.62   37.06  -10.41   38.50  344.30
L5    12.66   10.97    9.96   39.53   14.83   -3.11   15.15  348.14
L6    15.21   11.25   11.20   39.99   28.85   -6.28   29.53  347.72
L7    17.76   11.06   11.93   39.68   44.53   -9.02   45.43  348.55
L8    19.69   11.52   12.85   40.44   51.20  -10.32   52.23  348.60
L9    42.40   41.66   35.54   70.63    6.85   -1.71    7.06  345.96
L10   44.70   41.85   36.61   70.76   13.03   -2.98   13.37  347.11
L11   47.86   42.35   37.17   71.10   20.49   -3.16   20.74  351.22
L12   49.33   41.77   38.29   70.71   26.22   -5.39   26.77  348.40
L13    7.89   13.69   28.51   43.79  -40.65  -37.29   55.17  222.52
L14   17.03    8.22   16.04   34.44   63.12  -28.92   69.43  335.38
L15   43.76   40.32    2.29   69.69   14.91   87.16   88.43   80.29
L16    0.45    0.46    0.52    4.17    0.45   -2.69    2.73  279.57
L17   12.66    6.74    0.74   31.22   50.60   39.96   64.46   38.30
L18    2.77    6.46    1.47   30.55  -47.52   28.04   55.17  149.46
L19    1.98    0.94    8.99    8.48   31.45  -53.32   61.90  300.54
L20    0.67    0.78    0.75    7.11   -3.47   -1.90    3.95  208.79
L21    0.90    0.80    0.87    7.22    5.12   -3.75    6.35  323.79
L22    2.27    1.75    1.56   14.07   13.65   -1.40   13.72  354.14
GS0    76.13   78.65   67.99   91.07    0.66   -2.94    3.01  282.66
GS1    71.76   74.09   62.68   88.96    0.74   -1.57    1.73  295.27
GS2    61.41   63.39   53.47   83.65    0.74   -1.32    1.51  299.18
GS3    53.14   54.97   45.93   79.02    0.42   -0.74    0.85  299.65
GS4    47.34   49.21   40.49   75.58   -0.25    0.11    0.27  157.68
GS5    41.01   42.69   34.89   71.35   -0.44    0.44    0.63  135.88
GS6    35.53   36.97   29.72   67.25   -0.31    1.20    1.25  104.50
GS7    31.35   32.65   26.16   63.88   -0.45    1.31    1.38  109.00
GS8    27.00   28.08   22.75   59.97   -0.29    0.76    0.82  111.86
GS9    23.58   24.59   19.69   56.67   -0.52    1.20    1.31  113.73
GS10   20.43   21.46   17.22   53.45   -1.25    1.10    1.65  138.68
GS11   16.28   17.06   13.84   48.34   -0.94    0.60    1.12  147.81
GS12   13.36   14.02   11.38   44.27   -1.01    0.56    1.16  150.69
GS13   10.53   10.93    9.01   39.47   -0.02    0.00    0.09  242.62
GS14    8.60    8.97    7.16   35.92   -0.37    0.97    1.04  110.76
GS15    7.01    7.23    5.76   32.32    0.37    0.97    1.04   68.73
GS16    5.47    5.62    4.47   28.43    0.58    0.87    1.09   53.24
GS17    4.01    4.12    3.38   24.07    0.48    0.14    0.57  198.06
GS18    2.82    2.92    2.38   19.73    0.11    0.20    0.25   54.99
GS19    1.96    2.04    1.56   15.71   -0.03    1.49    1.49   90.73
GS20    1.34    1.38    0.94   11.81    0.26    2.86    2.87   84.68
GS21    1.08    1.11    0.71    9.83    0.35    3.47    3.49   84.21
GS22    0.84    0.84    0.61    7.56    1.14    1.62    1.98   54.79
GS23    0.43    0.44    0.51    3.93    0.41   -2.86    2.88  278.13
END_DATA
