lprof/data/targets/Agfa/Reflective/C81214XX.it8
IT8.7/2
ORIGINATOR "FotoTune"
DESCRIPTOR "Agfa IT8"
MATERIAL "Agfacolor"
MANUFACTURER "Agfa"
CREATED "Tue Mar  9 15:07:39 1999"
PROD_DATE "1999:03"
SERIAL "5x7 c81214xx"
NUMBER_OF_FIELDS 9
BEGIN_DATA_FORMAT
SAMPLE_ID XYZ_X XYZ_Y XYZ_Z LAB_L LAB_A LAB_B LAB_C LAB_H
END_DATA_FORMAT
NUMBER_OF_SETS 288
BEGIN_DATA
A1     3.36    2.79    2.01   19.19   11.53    2.65   11.84   12.95
A2     3.89    2.69    1.57   18.75   21.84    6.54   22.80   16.67
A3     5.11    3.05    1.59   20.26   31.65    8.90   32.88   15.70
A4     5.38    3.18    1.71   20.72   32.76    8.42   33.83   14.41
A5    11.38    9.88    7.35   37.61   14.18    3.11   14.52   12.38
A6    13.65   10.17    6.36   38.15   27.20    8.20   28.41   16.79
A7    16.05   10.31    5.47   38.40   40.57   12.79   42.54   17.49
A8    18.24   10.51    5.08   38.74   51.14   15.37   53.40   16.73
A9    41.41   40.47   32.49   69.80    7.43    1.32    7.56   10.06
A10   43.90   40.96   31.72   70.15   13.41    3.06   13.76   12.87
A11   47.07   41.54   30.40   70.55   20.67    5.82   21.47   15.71
A12   47.14   39.89   28.04   69.39   25.89    7.61   26.99   16.39
A13   75.24   77.94   67.65   90.75    0.24   -3.17    3.18  274.32
A14   75.43   77.68   67.52   90.63    1.14   -3.27    3.46  289.21
A15   75.29   77.93   65.23   90.74    0.39   -0.94    1.01  292.84
A16   74.31   76.82   64.96   90.24    0.58   -1.56    1.65  290.24
A17   74.90   77.22   65.17   90.43    0.97   -1.42    1.72  304.45
A18   74.82   77.57   65.47   90.58    0.13   -1.45    1.46  274.90
A19   74.67   77.02   67.32   90.33    0.89   -3.60    3.70  283.92
A20    1.34    1.03    0.59    9.26   11.31    4.86   12.31   23.26
A21    4.80    2.88    0.67   19.54   30.72   21.20   37.33   34.61
A22    9.09    4.93    0.68   26.53   44.25   32.97   55.18   36.69
B1     3.15    2.76    1.51   19.08    8.69    7.66   11.59   41.39
B2     3.74    2.82    0.81   19.31   17.11   18.20   24.99   46.76
B3     4.42    2.95    0.71   19.86   24.44   20.80   32.10   40.40
B4     5.05    3.27    0.72   21.10   27.25   22.78   35.51   39.89
B5    11.77   10.25    5.53   38.28   14.10   12.34   18.74   41.15
B6    13.85   10.52    3.80   38.77   25.81   22.76   34.41   41.41
B7    15.94   10.44    2.24   38.62   39.03   34.04   51.79   41.09
B8    17.42   10.44    1.46   38.62   47.24   42.07   63.25   41.69
B9    41.36   40.81   30.12   70.04    6.27    5.38    8.26   40.60
B10   43.44   40.96   27.10   70.15   12.05   10.51   15.99   41.10
B11   46.67   41.97   24.77   70.85   18.27   15.79   24.16   40.82
B12   47.23   41.21   21.88   70.32   22.14   20.31   30.05   42.52
B13   67.01   72.14   65.99   88.03   -5.47   -6.32    8.36  229.15
B14   70.39   69.10   64.25   86.55    8.23   -7.23   10.96  318.71
B15   72.62   75.62   52.91   89.68   -0.52    9.70    9.72   93.11
B16   59.22   60.81   50.96   82.27    1.48   -0.91    1.76  329.11
B17   67.39   66.76   51.12   85.39    6.77    4.26    8.01   32.10
B18   64.15   69.64   52.51   86.82   -6.64    5.21    8.43  141.88
B19   62.03   63.42   62.33   83.66    2.12  -10.36   10.58  281.58
B20    3.01    2.06    0.65   15.81   20.47   14.81   25.26   35.90
B21    8.03    4.48    0.69   25.23   40.74   30.49   50.89   36.81
B22   29.41   25.18   13.82   57.25   20.87   16.02   26.31   37.52
C1     4.25    4.02    2.13   23.72    5.47    9.36   10.85   59.72
C2     4.57    4.09    1.20   23.95    8.75   20.10   21.92   66.47
C3     5.28    4.37    0.91   24.85   13.74   25.91   29.33   62.07
C4     5.26    4.36    0.92   24.84   13.64   25.77   29.16   62.12
C5    23.02   22.19   10.37   54.23    7.50   20.89   22.19   70.25
C6    25.26   22.23    5.43   54.27   17.10   40.40   43.88   67.06
C7    26.37   21.71    2.36   53.72   24.08   59.06   63.79   67.82
C8    28.24   22.24    1.67   54.28   29.17   66.62   72.72   66.35
C9    47.72   48.33   33.15   75.03    3.21    9.35    9.88   71.04
C10   50.29   49.39   27.30   75.69    7.33   19.73   21.04   69.61
C11   52.62   50.25   22.70   76.23   11.15   28.89   30.97   68.89
C12   52.15   48.62   18.19   75.21   14.25   36.42   39.11   68.62
C13   57.40   64.79   63.39   84.38  -11.98  -10.16   15.72  220.32
C14   64.08   59.27   59.72   81.43   16.41  -11.62   20.10  324.70
C15   70.28   73.28   43.28   88.57   -0.74   18.98   18.99   92.24
C16   44.90   46.36   38.28   73.79    0.63   -0.08    0.73  177.62
C17   59.40   55.82   39.94   79.51   13.82    7.59   15.76   28.78
C18   53.03   60.75   42.06   82.25  -13.76    9.59   16.77  145.15
C19   48.76   49.30   55.83   75.63    3.43  -17.64   17.97  281.03
C20    1.92    1.57    0.68   13.02   10.57    9.71   14.35   42.59
C21   22.71   17.29    5.39   48.62   30.28   30.86   43.24   45.54
C22   36.25   33.64   20.79   64.68   13.17   12.74   18.33   44.06
D1     3.88    3.98    2.13   23.60    0.57    9.09    9.11   86.40
D2     3.99    4.13    1.24   24.10    0.08   19.85   19.85   89.79
D3     4.31    4.31    0.99   24.69    2.06   24.41   24.50   85.17
D4     4.40    4.43    0.99   25.06    1.77   25.02   25.09   85.94
D5    25.94   27.30   13.11   59.25   -1.55   21.40   21.46   94.13
D6    25.30   26.83    7.46   58.82   -2.36   39.22   39.29   93.44
D7    26.17   27.72    3.74   59.64   -2.24   59.03   59.08   92.18
D8    24.72   25.56    2.00   57.61    0.38   69.07   69.07   89.68
D9    54.10   56.85   37.47   80.10   -1.77   11.91   12.05   98.46
D10   56.10   58.56   31.10   81.04   -0.81   22.83   22.84   92.04
D11   55.94   59.03   25.33   81.31   -2.36   32.82   32.90   94.10
D12   56.30   59.51   21.08   81.57   -2.59   41.30   41.38   93.60
D13   48.39   57.35   60.25   80.38  -17.99  -13.99   22.80  217.85
D14   57.70   50.16   54.70   76.17   24.15  -15.52   28.70  327.26
D15   68.10   70.93   34.82   87.45   -0.56   28.31   28.32   91.14
D16   33.07   34.11   28.15   65.06    0.69   -0.05    0.72  178.08
D17   51.47   45.72   29.84   73.36   20.47   11.53   23.49   29.40
D18   42.26   51.42   32.48   76.93  -20.74   13.63   24.81  146.69
D19   37.33   37.10   48.94   67.36    5.16  -24.37   24.91  281.96
D20   14.30   10.83    3.19   39.29   26.38   27.67   38.22   46.37
D21   23.30   22.53   13.99   54.58    7.24   10.98   13.16   56.58
D22   40.10   38.97   23.90   68.73    8.04   13.73   15.91   59.64
E1     3.52    3.98    2.18   23.58   -4.73    8.65    9.86  118.70
E2     3.21    3.91    1.27   23.40   -8.95   18.15   20.23  116.25
E3     3.40    4.34    1.07   24.76  -11.76   23.39   26.19  116.71
E4     3.41    4.38    1.07   24.89  -12.16   23.53   26.49  117.32
E5    11.79   13.45    7.09   43.44   -8.00   14.24   16.34  119.32
E6    11.03   13.76    4.66   43.88  -15.34   26.47   30.58  120.10
E7    10.34   14.07    2.64   44.33  -22.46   40.55   46.36  118.98
E8    10.07   14.33    1.82   44.71  -26.19   48.53   55.13  118.35
E9    36.66   39.96   26.43   69.44   -6.01   10.43   12.05  119.97
E10   35.93   40.50   23.23   69.82  -10.07   16.87   19.64  120.82
E11   35.65   41.35   19.82   70.41  -13.58   24.64   28.12  118.87
E12   34.42   41.48   16.32   70.51  -18.16   32.59   37.31  119.13
E13   41.60   51.44   57.40   76.94  -22.74  -17.01   28.40  216.81
E14   52.13   42.78   50.05   71.40   30.65  -18.65   35.87  328.68
E15   65.51   67.85   25.94   85.93    0.26   39.72   39.72   89.62
E16   24.60   25.38   20.33   57.44    0.58    1.20    1.34   63.85
E17   44.85   37.89   21.37   67.93   25.65   17.19   30.89   33.83
E18   33.36   43.12   24.27   71.64  -26.72   18.07   32.25  145.94
E19   29.08   28.52   43.08   60.36    6.18  -29.43   30.08  281.86
E20   22.48   15.44    1.25   46.24   39.49   57.85   70.04   55.69
E21   17.59   14.57    3.11   45.03   20.56   38.17   43.35   61.69
E22   29.83   26.22    9.26   58.25   18.17   31.53   36.39   60.04
F1     1.43    1.78    1.14   14.28   -7.60    4.09    8.63  151.75
F2     1.24    1.89    0.98   14.94  -16.19    7.70   17.92  154.54
F3     1.17    2.10    0.95   15.99  -22.76   10.03   24.88  156.21
F4     1.34    2.51    1.08   17.97  -26.34   11.40   28.70  156.61
F5     6.59    8.14    5.48   34.28  -12.24    5.68   13.49  155.12
F6     5.60    8.38    4.79   34.75  -25.15   10.03   27.08  158.25
F7     4.57    8.43    4.12   34.87  -38.26   14.01   40.75  159.90
F8     3.20    7.61    3.49   33.16  -51.27   15.09   53.44  163.60
F9    36.05   39.62   30.25   69.20   -6.98    3.72    7.92  152.02
F10   35.33   40.59   30.02   69.89  -12.36    5.26   13.43  156.97
F11   34.22   41.20   29.25   70.32  -18.02    7.22   19.42  158.15
F12   32.86   41.61   28.01   70.61  -24.00    9.76   25.90  157.86
F13   35.14   45.48   54.19   73.21  -27.30  -20.09   33.90  216.35
F14   47.49   37.03   45.92   67.29   35.89  -20.94   41.56  329.74
F15   63.87   65.75   20.95   84.87    1.15   47.23   47.24   88.60
F16   18.32   18.94   15.11   50.62    0.31    1.28    1.32   76.56
F17   39.91   32.22   16.33   63.52   29.92   20.55   36.30   34.47
F18   27.42   37.26   18.79   67.48  -30.94   21.76   37.83  144.89
F19   22.90   21.99   38.10   54.01    7.88  -33.89   34.79  283.09
F20   27.62   26.78   14.01   58.78    7.33   18.15   19.58   68.00
F21   34.64   32.31   12.43   63.60   12.40   30.82   33.22   68.08
F22   38.85   37.41   18.33   67.58    9.10   22.92   24.67   68.37
G1     2.24    2.74    2.47   18.96   -8.16   -1.91    8.39  193.20
G2     1.94    2.88    2.78   19.58  -17.19   -3.23   17.50  190.65
G3     1.74    3.08    3.24   20.36  -25.74   -5.25   26.26  191.53
G4     1.93    3.53    3.65   22.05  -28.27   -5.12   28.73  190.28
G5     8.85   10.76    9.06   39.18  -12.24   -0.62   12.25  182.92
G6     7.77   10.99    9.68   39.57  -23.58   -2.14   23.68  185.20
G7     6.42   10.90   10.17   39.41  -36.15   -4.03   36.38  186.37
G8     5.34   10.99   11.01   39.56  -48.92   -6.43   49.34  187.49
G9    35.74   39.40   31.85   69.04   -7.36    0.98    7.42  172.46
G10   34.47   39.99   33.83   69.47  -13.49   -1.26   13.55  185.32
G11   33.42   40.73   34.56   69.99  -19.37   -1.42   19.42  184.20
G12   32.15   41.47   36.08   70.49  -26.07   -2.71   26.20  185.94
G13   28.80   39.27   50.47   68.95  -31.88  -23.36   39.53  216.23
G14   40.78   29.24   39.79   61.00   43.47  -24.12   49.71  330.97
G15   61.32   62.39   14.78   83.12    2.80   58.10   58.17   87.25
G16   11.68   12.02    9.71   41.25    0.65    0.67    0.94   45.38
G17   33.41   24.99   11.07   57.07   36.31   23.56   43.28   32.98
G18   20.94   30.56   13.80   62.14  -36.19   24.49   43.70  145.92
G19   15.71   14.47   31.26   44.89   10.65  -39.77   41.17  284.99
G20   37.28   36.73   16.86   67.07    6.24   25.40   26.16   76.20
G21   35.40   34.73   10.69   65.54    6.62   39.35   39.90   80.43
G22   43.11   40.19    2.81   69.61   13.37   82.74   83.82   80.82
H1     2.41    2.73    3.04   18.92   -4.26   -6.35    7.66  236.12
H2     2.21    2.86    4.03   19.45  -10.78  -12.03   16.16  228.12
H3     1.89    2.71    5.11   18.85  -15.26  -19.06   24.41  231.30
H4     2.25    3.27    6.61   21.09  -17.05  -22.32   28.08  232.64
H5     9.41   10.77   11.07   39.19   -7.62   -7.24   10.53  223.49
H6     8.84   11.19   14.28   39.90  -15.46  -15.10   21.61  224.32
H7     7.89   11.02   18.11   39.62  -22.58  -24.76   33.52  227.64
H8     7.45   11.24   22.07   39.99  -28.33  -32.35   43.00  228.79
H9    36.18   39.51   35.17   69.12   -6.20   -3.80    7.27  211.49
H10   35.59   39.90   39.03   69.40   -9.39   -8.62   12.74  222.58
H11   35.58   41.24   46.27   70.35  -13.51  -16.10   21.01  230.01
H12   34.82   41.26   50.35   70.36  -16.15  -20.78   26.32  232.15
H13   23.71   33.97   46.89   64.93  -35.60  -26.15   44.17  216.29
H14   34.77   22.89   34.00   54.95   50.11  -26.54   56.72  332.10
H15   59.10   59.38   10.62   81.50    4.56   67.09   67.24   86.12
H16    7.47    7.61    6.02   33.15    1.28    1.12    1.70   41.03
H17   27.97   19.44    6.99   51.21   41.39   27.98   49.96   34.06
H18   15.74   24.73    9.55   56.81  -40.53   28.06   49.29  145.31
H19   11.20    9.66   25.97   37.24   14.53  -44.28   46.61  288.17
H20   41.57   42.79   17.10   71.42    1.00   32.32   32.33   88.24
H21   33.29   34.78   23.74   65.58   -0.82    8.59    8.63   95.43
H22   35.16   38.53   12.08   68.42   -6.60   40.10   40.64   99.33
I1     3.84    3.86    4.95   23.19    1.79  -10.76   10.90  279.47
I2     3.95    3.91    7.79   23.37    2.82  -23.22   23.39  276.91
I3     4.19    4.08   11.28   23.92    3.68  -34.21   34.42  276.14
I4     4.35    4.09   15.16   23.97    5.68  -44.81   45.17  277.22
I5    13.32   13.79   14.00   43.93    0.22   -7.42    7.43  271.62
I6    13.51   13.82   18.31   43.96    1.32  -17.73   17.78  274.24
I7    13.55   13.74   22.92   43.85    1.93  -27.34   27.41  274.04
I8    14.12   14.11   27.62   44.40    3.26  -34.76   34.92  275.36
I9    37.53   39.01   35.40   68.76   -0.23   -4.73    4.74  267.06
I10   38.44   39.77   39.61   69.31    0.34   -9.57    9.57  272.04
I11   39.24   40.40   45.56   69.75    0.96  -16.26   16.29  273.38
I12   39.50   40.49   50.18   69.82    1.46  -21.52   21.58  273.86
I13   19.81   29.69   43.67   61.38  -38.43  -28.40   47.79  216.46
I14   31.01   19.20   30.24   50.92   54.13  -27.76   60.83  332.85
I15   57.26   56.89    8.12   80.12    6.03   73.35   73.59   85.31
I16    5.18    5.22    4.15   27.34    1.84    0.88    2.06   25.71
I17   24.38   16.00    4.66   46.97   44.80   31.78   54.93   35.35
I18   12.52   20.85    6.91   52.78  -43.24   31.05   53.23  144.32
I19    8.31    6.65   21.96   30.99   18.30  -47.65   51.04  291.01
I20   42.01   46.28   17.83   73.72   -7.64   34.67   35.49  102.43
I21   11.97   15.99    4.01   46.96  -21.94   35.58   41.80  121.65
I22   29.27   37.36   19.17   67.55  -24.00   21.06   31.93  138.73
J1     2.01    1.81    2.78   14.45    6.28  -12.09   13.62  297.46
J2     2.30    1.83    4.59   14.56   12.32  -23.66   26.68  297.50
J3     2.84    1.91    7.89   15.03   20.72  -37.99   43.28  298.62
J4     3.11    1.88   10.59   14.84   26.34  -47.75   54.53  298.89
J5    10.96   10.60   11.47   38.90    5.55   -8.97   10.55  301.76
J6    11.73   10.65   15.18   38.99   10.74  -18.97   21.80  299.51
J7    12.22   10.36   19.26   38.49   16.29  -29.22   33.46  299.14
J8    13.00   10.66   22.59   39.00   19.40  -35.07   40.07  298.94
J9    39.70   40.39   36.69   69.75    2.42   -4.85    5.42  296.55
J10   40.75   40.67   40.56   69.95    4.81   -9.69   10.81  296.39
J11   41.94   40.58   45.76   69.88    8.73  -16.29   18.48  298.19
J12   42.53   40.32   49.88   69.69   11.31  -21.42   24.22  297.84
J13   14.60   23.46   38.50   55.54  -41.82  -31.83   52.54  217.27
J14   26.62   15.26   25.80   45.97   58.46  -28.92   65.21  333.68
J15   55.33   54.35    6.17   78.67    7.53   78.93   79.29   84.56
J16    2.73    2.77    2.24   19.10    1.14    0.36    1.23   17.57
J17   20.29   12.35    2.78   41.76   48.46   34.97   59.77   35.82
J18    8.01   15.08    4.34   45.74  -47.89   31.48   57.31  146.68
J19    5.37    3.88   17.44   23.26   21.67  -51.47   55.85  292.83
J20   31.47   39.99   25.81   69.46  -24.02   11.55   26.65  154.33
J21    4.15    7.64    1.43   33.23  -36.92   33.03   49.54  138.17
J22    1.08    1.74    0.81   14.05  -17.75    9.10   19.94  152.85
K1     4.89    4.11    4.72   24.05   12.40   -8.05   14.78  327.02
K2     5.97    4.15    6.97   24.16   24.69  -18.53   30.88  323.11
K3     7.36    4.28    9.82   24.58   37.25  -28.41   46.85  322.67
K4     8.49    4.37   12.45   24.85   46.40  -36.07   58.77  322.15
K5    15.15   13.96   14.24   44.17   10.49   -7.64   12.98  323.96
K6    17.09   13.89   17.73   44.08   21.94  -16.24   27.30  323.51
K7    19.17   13.97   21.98   44.18   32.51  -24.96   40.99  322.49
K8    21.84   14.27   26.82   44.62   43.52  -33.03   54.64  322.80
K9    41.31   40.83   36.54   70.06    6.05   -4.11    7.31  325.85
K10   43.90   41.10   39.99   70.24   12.98   -8.44   15.48  326.96
K11   47.28   42.26   46.23   71.05   19.12  -14.82   24.19  322.21
K12   49.21   42.12   49.07   70.95   24.83  -18.31   30.85  323.59
K13   12.38   20.53   35.78   52.43  -42.72  -33.44   54.25  218.05
K14   21.87   11.48   20.88   40.37   61.99  -29.35   68.58  334.67
K15   47.59   44.58    2.73   72.61   13.23   88.57   89.55   81.51
K16    1.37    1.40    1.01   11.95    0.51    2.09    2.14   76.00
K17   16.81    9.62    1.31   37.16   50.24   41.43   65.12   39.51
K18    4.82    9.95    2.07   37.75  -47.52   34.14   58.51  144.31
K19    3.55    2.18   13.54   16.42   26.57  -53.64   59.86  296.35
K20    2.55    3.30    2.07   21.20  -11.40    5.52   12.66  154.15
K21    1.31    1.78    1.54   14.28  -11.25   -0.79   11.28  184.04
K22    1.72    2.20    3.22   16.48   -9.27  -11.86   15.06  231.97
L1     3.53    2.88    2.59   19.58   12.56   -1.71   12.68  352.25
L2     4.26    2.90    2.82   19.63   23.15   -3.41   23.40  351.62
L3     5.63    3.30    3.66   21.19   33.68   -6.68   34.34  348.79
L4     6.28    3.57    4.48   22.17   36.60   -9.89   37.92  344.88
L5    12.39   10.65    9.78   38.99   15.30   -3.48   15.69  347.20
L6    14.97   10.97   10.92   39.53   29.40   -6.20   30.06  348.09
L7    17.83   11.02   11.86   39.62   45.18   -8.92   46.05  348.83
L8    19.55   11.36   12.66   40.18   51.60  -10.23   52.60  348.79
L9    42.29   41.29   35.22   70.38    7.61   -1.68    7.80  347.53
L10   44.17   41.08   36.19   70.24   13.78   -3.32   14.18  346.48
L11   47.53   41.83   36.99   70.75   21.08   -3.53   21.38  350.48
L12   48.92   41.07   37.96   70.22   27.22   -5.78   27.82  348.02
L13    8.05   13.99   28.76   44.22  -41.01  -36.97   55.22  222.03
L14   16.99    8.16   15.93   34.32   63.47  -28.89   69.74  335.53
L15   44.03   40.45    2.24   69.79   15.30   87.77   89.10   80.11
L16    0.47    0.47    0.53    4.27    0.70   -2.68    2.77  284.66
L17   12.68    6.72    0.73   31.17   50.99   39.94   64.78   38.08
L18    2.83    6.54    1.46   30.72  -47.15   28.46   55.07  148.88
L19    1.98    0.94    8.91    8.46   31.53  -53.11   61.76  300.71
L20    0.68    0.78    0.73    7.11   -3.11   -1.52    3.46  206.08
L21    0.90    0.80    0.82    7.24    5.22   -3.05    6.05  329.64
L22    2.19    1.68    1.46   13.74   13.47   -0.84   13.49  356.45
GS0    76.45   78.98   68.35   91.22    0.67   -3.01    3.08  282.54
GS1    71.79   73.96   62.91   88.90    1.09   -1.89    2.18  299.99
GS2    61.51   63.15   53.56   83.52    1.53   -1.61    2.22  313.60
GS3    53.16   54.73   45.99   78.88    1.07   -1.04    1.50  316.71
GS4    47.72   49.40   40.78   75.70    0.28   -0.06    0.36  179.72
GS5    41.33   42.76   35.26   71.39    0.36   -0.00    0.52  187.93
GS6    35.28   36.64   29.88   67.00   -0.10    0.53    0.54   98.76
GS7    31.12   32.35   26.12   63.63   -0.22    0.96    0.99  102.58
GS8    26.76   27.72   22.57   59.63    0.22    0.54    0.63   64.15
GS9    23.19   24.11   19.53   56.20   -0.21    0.74    0.80  111.14
GS10   20.09   21.01   17.07   52.96   -0.77    0.59    1.00  144.87
GS11   15.96   16.65   13.56   47.83   -0.50    0.48    0.72  143.05
GS12   13.04   13.61   11.13   43.67   -0.50    0.28    0.58  153.33
GS13   10.23   10.60    8.66   38.90    0.08    0.28    0.33   59.23
GS14    8.40    8.70    6.82   35.40    0.20    1.48    1.50   81.91
GS15    6.76    6.94    5.39   31.66    0.77    1.57    1.75   63.49
GS16    5.36    5.47    4.22   28.04    0.98    1.68    1.94   59.72
GS17    3.95    4.04    3.18   23.80    0.88    1.05    1.38   49.85
GS18    2.76    2.84    2.24   19.40    0.35    0.96    1.04   68.85
GS19    1.96    2.03    1.49   15.61    0.24    2.07    2.08   83.39
GS20    1.35    1.37    0.91   11.76    0.67    3.28    3.35   78.40
GS21    1.11    1.12    0.72    9.99    0.71    3.74    3.81   79.31
GS22    0.86    0.86    0.61    7.71    1.50    1.79    2.34   49.75
GS23    0.44    0.44    0.51    4.01    0.70   -2.67    2.76  284.69
END_DATA
