lprof/data/targets/Agfa/Reflective/C81245XX.it8
IT8.7/2
ORIGINATOR "FotoTune"
DESCRIPTOR "Agfa IT8"
MATERIAL "Agfacolor"
MANUFACTURER "Agfa"
CREATED "Mon Apr 12 13:21:56 1999"
PROD_DATE "1999:04"
SERIAL "5x7 c81245xx"
NUMBER_OF_FIELDS 9
BEGIN_DATA_FORMAT
SAMPLE_ID XYZ_X XYZ_Y XYZ_Z LAB_L LAB_A LAB_B LAB_C LAB_H
END_DATA_FORMAT
NUMBER_OF_SETS 288
BEGIN_DATA
A1     3.09    2.62    2.04   18.43   10.39    1.10   10.44    6.03
A2     3.70    2.60    1.63   18.35   20.61    5.12   21.24   13.95
A3     4.93    2.97    1.65   19.93   30.62    7.55   31.54   13.85
A4     5.22    3.12    1.80   20.53   31.77    7.15   32.57   12.68
A5    10.86    9.51    7.38   36.96   13.27    1.85   13.40    7.90
A6    13.15    9.88    6.38   37.61   26.29    7.19   27.26   15.31
A7    15.98   10.30    5.56   38.37   40.30   12.36   42.15   17.06
A8    18.49   10.65    5.08   38.97   51.40   15.81   53.78   17.08
A9    39.67   38.57   31.83   68.44    7.94   -0.03    7.94  179.77
A10   42.47   39.10   30.56   68.82   14.86    2.59   15.09    9.89
A11   45.71   39.89   29.31   69.40   21.86    5.57   22.56   14.28
A12   46.08   38.39   27.08   68.31   27.58    7.36   28.54   14.93
A13   75.04   77.82   67.24   90.69    0.10   -2.90    2.90  271.93
A14   75.31   77.51   67.05   90.56    1.24   -2.97    3.21  292.73
A15   75.26   77.88   64.92   90.72    0.42   -0.68    0.79  301.85
A16   74.27   76.74   64.81   90.21    0.64   -1.46    1.61  293.57
A17   74.96   77.26   64.96   90.44    1.03   -1.20    1.59  310.55
A18   74.79   77.57   65.14   90.58    0.06   -1.12    1.12  273.04
A19   74.47   76.81   66.86   90.24    0.93   -3.35    3.47  285.53
A20    1.26    1.00    0.65    9.06    9.97    3.23   10.48   17.97
A21    4.65    2.82    0.73   19.30   29.90   19.51   35.69   33.12
A22    9.04    4.95    0.76   26.59   43.57   31.44   53.74   35.81
B1     2.92    2.62    1.60   18.42    7.57    5.65    9.45   36.69
B2     3.57    2.72    0.88   18.90   16.18   16.22   22.91   45.06
B3     4.36    2.95    0.81   19.85   23.62   19.14   30.40   39.01
B4     4.82    3.16    0.80   20.65   26.22   20.60   33.34   38.15
B5    11.22    9.82    5.51   37.51   13.52   11.12   17.51   39.42
B6    13.27   10.16    3.88   38.13   24.85   21.14   32.62   40.39
B7    15.58   10.24    2.32   38.28   38.44   32.82   50.55   40.49
B8    17.55   10.50    1.56   38.72   47.52   41.03   62.78   40.80
B9    39.60   38.94   29.07   68.71    6.59    4.76    8.13   35.83
B10   42.25   39.53   26.11   69.13   12.91   10.44   16.60   38.97
B11   45.42   40.44   23.67   69.79   19.31   15.97   25.06   39.58
B12   46.55   40.20   21.21   69.62   23.27   20.41   30.95   41.25
B13   66.08   71.43   65.48   87.69   -6.06   -6.43    8.84  226.71
B14   70.12   68.64   63.86   86.32    8.64   -7.25   11.28  319.99
B15   72.48   75.46   51.97   89.60   -0.51   10.60   10.60   92.80
B16   58.44   59.99   50.53   81.83    1.53   -1.21    1.95  321.41
B17   67.13   66.37   50.18   85.18    7.09    4.96    8.65   35.00
B18   63.56   69.18   51.58   86.60   -6.99    5.82    9.10  140.19
B19   61.30   62.64   61.75   83.25    2.18  -10.50   10.73  281.74
B20    2.87    2.00    0.74   15.48   19.26   12.84   23.15   33.69
B21    7.87    4.45    0.76   25.10   39.79   28.81   49.13   35.91
B22   28.28   24.08   13.35   56.17   21.17   15.44   26.21   36.11
C1     3.93    3.79    2.20   22.95    4.16    7.44    8.52   60.74
C2     4.27    3.87    1.26   23.22    7.80   18.01   19.62   66.57
C3     5.01    4.18    0.99   24.26   12.97   23.70   27.02   61.32
C4     5.05    4.22    0.99   24.37   13.13   23.91   27.27   61.22
C5    21.75   20.93   10.07   52.88    7.53   19.54   20.94   68.92
C6    24.31   21.33    5.40   53.32   17.11   38.89   42.49   66.24
C7    25.54   20.94    2.39   52.88   24.25   57.33   62.25   67.07
C8    27.80   21.70    1.75   53.71   29.90   64.76   71.33   65.21
C9    46.47   46.84   32.06   74.08    3.78    9.34   10.08   67.99
C10   48.97   47.94   26.51   74.79    7.65   19.52   20.97   68.60
C11   51.97   49.22   22.17   75.58   12.19   28.81   31.28   67.07
C12   51.69   47.85   17.72   74.73   15.17   36.63   39.65   67.49
C13   55.82   63.49   62.57   83.70  -12.97  -10.53   16.70  219.11
C14   63.27   58.01   58.86   80.74   17.53  -11.94   21.22  325.74
C15   70.32   73.30   42.67   88.59   -0.69   19.76   19.76   92.02
C16   43.43   44.81   37.34   72.77    0.70   -0.54    0.88  322.01
C17   58.57   54.57   38.93   78.79   14.91    7.70   16.80   27.32
C18   51.68   59.63   41.13   81.63  -14.64    9.72   17.57  146.40
C19   47.26   47.66   54.92   74.61    3.71  -18.44   18.82  281.38
C20    1.78    1.48    0.74   12.51    9.32    7.65   12.06   39.37
C21   22.27   16.93    5.52   48.18   30.16   29.45   42.16   44.32
C22   34.97   32.29   20.03   63.58   13.61   12.41   18.42   42.35
D1     3.66    3.81    2.23   23.04   -0.36    7.32    7.33   92.86
D2     3.68    3.88    1.32   23.30   -1.00   17.35   17.38   93.31
D3     4.07    4.12    1.07   24.07    1.36   22.11   22.15   86.48
D4     4.06    4.15    1.08   24.17    0.85   22.10   22.11   87.79
D5    24.49   25.92   12.88   57.96   -2.09   19.83   19.93   96.02
D6    23.67   25.30    7.43   57.36   -3.07   36.83   36.96   94.76
D7    24.68   26.35    3.78   58.36   -3.03   56.64   56.72   93.06
D8    23.60   24.64    2.11   56.72   -0.64   66.43   66.43   90.55
D9    52.94   55.64   36.17   79.41   -1.75   12.53   12.65   97.94
D10   55.13   57.61   30.32   80.52   -1.00   23.12   23.15   92.46
D11   54.92   57.98   24.67   80.73   -2.41   33.00   33.10   94.18
D12   55.99   59.22   20.45   81.42   -2.68   42.30   42.39   93.63
D13   46.83   56.03   59.48   79.64  -19.11  -14.48   23.99  217.16
D14   56.54   48.48   53.66   75.12   25.79  -16.20   30.46  327.86
D15   67.97   70.73   33.96   87.35   -0.42   29.38   29.38   90.82
D16   31.42   32.42   27.17   63.68    0.67   -0.76    1.01  311.28
D17   50.64   44.46   28.91   72.53   21.85   11.61   24.74   27.98
D18   40.64   50.02   31.56   76.08  -21.96   13.56   25.81  148.32
D19   35.51   35.22   47.76   65.92    5.32  -25.47   26.02  281.80
D20   13.72   10.47    3.30   38.68   25.41   25.82   36.22   45.46
D21   22.09   21.32   13.66   53.29    7.31    9.65   12.10   52.82
D22   38.72   37.49   23.17   67.64    8.39   13.20   15.64   57.57
E1     3.30    3.80    2.28   23.03   -5.79    6.76    8.91  130.64
E2     2.93    3.68    1.35   22.58  -10.12   15.77   18.74  122.70
E3     3.12    4.07    1.13   23.91  -12.66   20.83   24.38  121.27
E4     3.11    4.07    1.14   23.90  -12.91   20.81   24.49  121.82
E5    11.09   12.74    7.00   42.38   -8.42   12.75   15.28  123.46
E6    10.36   13.02    4.76   42.78  -15.59   24.08   28.68  122.92
E7     9.61   13.26    2.68   43.15  -23.07   38.14   44.57  121.17
E8     9.56   13.85    1.93   44.03  -27.30   46.23   53.69  120.57
E9    34.93   38.09   25.42   68.09   -5.96    9.86   11.52  121.14
E10   34.33   38.85   22.55   68.65  -10.42   16.12   19.20  122.86
E11   34.31   40.11   19.40   69.55  -14.42   24.01   28.01  120.97
E12   33.15   40.29   16.24   69.68  -18.96   31.38   36.67  121.14
E13   39.86   49.82   56.51   75.96  -23.85  -17.79   29.75  216.72
E14   51.11   41.39   49.03   70.44   32.09  -19.14   37.36  329.19
E15   65.44   67.71   25.44   85.85    0.44   40.45   40.46   89.38
E16   23.20   23.97   19.52   56.06    0.45    0.50    0.71   48.08
E17   44.31   37.00   21.10   67.27   26.95   16.59   31.65   31.61
E18   31.86   41.78   23.88   70.72  -28.06   17.19   32.92  148.50
E19   27.53   26.92   41.95   58.90    6.43  -30.53   31.20  281.91
E20   22.29   15.23    1.38   45.95   39.87   55.72   68.52   54.42
E21   16.97   14.12    3.21   44.42   19.85   36.40   41.46   61.40
E22   28.79   25.14    9.16   57.21   18.69   30.08   35.42   58.14
F1     1.35    1.71    1.23   13.84   -7.99    2.26    8.31  164.21
F2     1.18    1.83    1.05   14.56  -16.35    5.99   17.42  159.85
F3     1.14    2.05    1.01   15.72  -22.59    8.55   24.15  159.27
F4     1.29    2.43    1.16   17.58  -26.03    9.64   27.76  159.68
F5     6.19    7.76    5.58   33.47  -12.97    3.80   13.52  163.70
F6     5.11    7.74    4.82   33.46  -25.39    7.68   26.52  163.18
F7     4.11    7.73    4.13   33.42  -38.39   11.48   40.06  163.35
F8     3.11    7.47    3.55   32.84  -51.43   14.15   53.35  164.61
F9    34.39   37.89   29.70   67.93   -7.15    2.42    7.56  161.33
F10   33.76   38.97   29.19   68.73  -12.72    4.60   13.52  160.15
F11   32.83   39.86   28.80   69.38  -18.80    6.35   19.84  161.34
F12   31.21   39.93   27.19   69.42  -24.85    9.09   26.46  159.90
F13   33.72   44.08   53.32   72.28  -28.20  -20.74   35.01  216.33
F14   46.60   35.80   45.00   66.36   37.40  -21.43   43.10  330.18
F15   63.85   65.68   20.65   84.83    1.28   47.79   47.81   88.46
F16   17.40   17.99   14.66   49.48    0.37    0.44    0.61   47.06
F17   39.35   31.35   15.83   62.80   31.30   20.47   37.40   33.18
F18   26.33   36.21   18.38   66.68  -31.97   21.30   38.42  146.32
F19   21.72   20.74   37.07   52.67    8.30  -34.82   35.79  283.40
F20   26.25   25.40   13.67   57.47    7.44   16.79   18.36   66.08
F21   33.42   31.02   12.31   62.53   12.81   29.31   31.99   66.40
F22   37.74   36.08   17.84   66.58    9.82   22.33   24.39   66.26
G1     2.06    2.56    2.53   18.20   -8.76   -3.61    9.48  202.43
G2     1.84    2.76    2.88   19.06  -17.37   -4.93   18.06  195.82
G3     1.70    2.99    3.32   20.02  -25.06   -6.43   25.86  194.39
G4     1.88    3.41    3.68   21.63  -27.70   -6.07   28.36  192.36
G5     8.29   10.12    8.85   38.07  -12.35   -1.85   12.48  188.51
G6     7.20   10.24    9.41   38.27  -23.42   -3.43   23.67  188.36
G7     5.88   10.10    9.74   38.02  -36.04   -5.01   36.40  187.90
G8     5.07   10.55   10.78   38.81  -48.90   -7.01   49.40  188.15
G9    33.86   37.53   30.82   67.68   -7.88    0.20    7.89  178.54
G10   32.66   38.10   32.49   68.09  -13.86   -1.65   13.96  186.78
G11   31.67   38.99   33.27   68.74  -20.20   -1.68   20.28  184.77
G12   30.73   40.11   35.22   69.56  -27.19   -3.12   27.37  186.53
G13   27.60   38.03   49.58   68.04  -32.67  -23.92   40.49  216.21
G14   40.56   28.85   39.38   60.64   44.33  -24.19   50.50  331.39
G15   61.53   62.55   14.66   83.21    2.93   58.58   58.66   87.14
G16   11.07   11.42    9.41   40.28    0.40    0.05    0.51  192.57
G17   33.35   24.74   10.85   56.82   37.13   23.82   44.11   32.68
G18   20.12   29.75   13.63   61.44  -37.15   23.75   44.10  147.42
G19   15.14   13.89   30.74   44.08   10.84  -40.38   41.81  285.02
G20   35.97   35.33   16.49   66.01    6.51   24.42   25.27   75.07
G21   34.11   33.42   10.48   64.50    6.71   38.22   38.81   80.04
G22   42.80   39.93    2.97   69.42   13.28   81.26   82.35   80.71
H1     2.24    2.57    3.07   18.26   -5.14   -7.69    9.26  236.24
H2     2.05    2.68    3.96   18.73  -11.27  -12.78   17.05  228.61
H3     1.85    2.65    5.11   18.58  -15.14  -19.52   24.70  232.21
H4     2.19    3.18    6.52   20.76  -16.89  -22.47   28.12  233.07
H5     8.88   10.19   10.72   38.18   -7.70   -7.88   11.02  225.65
H6     8.26   10.49   13.73   38.71  -15.40  -15.72   22.00  225.58
H7     7.22   10.16   17.31   38.12  -22.53  -25.56   34.07  228.60
H8     6.85   10.36   21.02   38.49  -27.75  -32.87   43.02  229.83
H9    34.35   37.60   33.89   67.72   -6.38   -4.36    7.72  214.36
H10   33.53   37.79   37.85   67.87   -9.85   -9.70   13.82  224.58
H11   33.85   39.44   44.90   69.07  -13.91  -16.66   21.70  230.15
H12   33.32   39.85   49.51   69.37  -17.03  -21.55   27.47  231.67
H13   22.62   32.78   45.91   63.97  -36.32  -26.65   45.04  216.27
H14   34.94   22.91   33.96   54.97   50.60  -26.44   57.10  332.41
H15   59.26   59.47   10.45   81.54    4.72   67.73   67.89   86.01
H16    7.22    7.44    6.11   32.79    0.45    0.15    0.48   17.98
H17   28.15   19.47    6.91   51.22   42.01   28.37   50.69   34.03
H18   15.16   24.15    9.49   56.24  -41.47   27.25   49.62  146.70
H19   10.84    9.36   25.69   36.68   14.26  -44.75   46.97  287.66
H20   40.36   41.57   16.67   70.57    0.89   31.88   31.90   88.40
H21   31.65   33.08   22.80   64.22   -0.83    8.02    8.08   95.93
H22   33.87   37.40   11.98   67.57   -7.39   38.97   39.66  100.74
I1     3.67    3.75    4.98   22.83    0.84  -11.57   11.60  274.15
I2     3.78    3.78    7.68   22.94    2.06  -23.56   23.65  274.99
I3     3.93    3.88   10.85   23.26    2.84  -34.06   34.17  274.77
I4     4.19    4.00   14.90   23.67    4.86  -44.66   44.92  276.21
I5    12.85   13.30   13.76   43.21    0.23   -8.01    8.01  271.66
I6    12.83   13.11   17.83   42.94    1.25  -18.42   18.47  273.88
I7    12.83   12.99   22.08   42.75    2.08  -27.62   27.70  274.31
I8    13.60   13.56   27.09   43.58    3.42  -35.28   35.44  275.54
I9    36.12   37.58   34.41   67.71   -0.31   -5.12    5.14  266.49
I10   37.33   38.61   39.24   68.47    0.37  -10.52   10.52  271.98
I11   37.77   38.86   44.36   68.65    1.04  -16.72   16.76  273.55
I12   37.97   38.96   49.08   68.72    1.35  -22.17   22.21  273.47
I13   19.12   28.88   42.99   60.67  -38.85  -28.80   48.35  216.55
I14   31.31   19.35   30.35   51.09   54.51  -27.67   61.13  333.10
I15   57.74   57.39    8.27   80.40    6.02   73.25   73.50   85.31
I16    5.03    5.12    4.31   27.08    1.06   -0.46    1.14  336.40
I17   24.83   16.28    4.89   47.35   45.08   31.22   54.83   34.70
I18   12.29   20.67    7.20   52.60  -44.01   29.54   53.00  146.13
I19    8.14    6.56   21.92   30.78   17.76  -47.93   51.11  290.32
I20   41.06   45.48   17.78   73.21   -8.29   33.88   34.88  103.75
I21   11.50   15.40    4.09   46.18  -21.83   33.73   40.18  122.91
I22   28.05   36.08   18.74   66.58  -24.59   20.33   31.91  140.41
J1     1.89    1.74    2.85   14.07    5.43  -13.32   14.38  292.18
J2     2.15    1.74    4.53   14.03   11.34  -24.27   26.79  295.05
J3     2.68    1.84    7.65   14.62   19.32  -37.77   42.42  297.09
J4     2.95    1.81   10.34   14.44   25.25  -47.64   53.92  297.92
J5    10.28   10.04   11.22   37.90    4.80   -9.92   11.02  295.82
J6    11.01   10.05   14.42   37.92   10.19  -18.88   21.45  298.36
J7    11.76   10.07   19.06   37.98   15.33  -29.68   33.40  297.32
J8    12.50   10.26   22.17   38.30   19.04  -35.47   40.27  298.23
J9    37.82   38.46   35.35   68.35    2.45   -5.38    5.90  294.53
J10   38.94   38.75   39.68   68.57    5.14  -10.93   12.08  295.15
J11   40.54   39.01   44.46   68.76    9.29  -16.64   19.06  299.17
J12   41.01   38.61   48.88   68.47   11.97  -22.37   25.37  298.15
J13   13.76   22.38   37.46   54.42  -42.18  -32.34   53.15  217.48
J14   26.92   15.40   25.92   46.18   58.79  -28.78   65.46  333.91
J15   55.92   54.98    6.38   79.03    7.42   78.63   78.98   84.60
J16    2.55    2.64    2.34   18.55    0.05   -1.42    1.43  272.10
J17   20.48   12.44    2.89   41.90   48.81   34.38   59.70   35.15
J18    7.51   14.51    4.42   44.97  -49.17   29.70   57.44  148.86
J19    5.10    3.69   17.12   22.61   21.22  -51.85   56.03  292.26
J20   30.04   38.55   25.24   68.43  -24.90   10.76   27.12  156.63
J21    3.87    7.28    1.54   32.44  -37.65   30.45   48.43  141.04
J22    1.03    1.66    0.86   13.60  -17.43    7.36   18.93  157.11
K1     4.60    3.91    4.66   23.37   11.69   -8.93   14.70  322.64
K2     5.69    3.97    6.81   23.58   24.09  -18.86   30.59  321.93
K3     7.11    4.19    9.41   24.30   36.03  -27.56   45.36  322.59
K4     8.25    4.28   12.43   24.60   45.40  -36.46   58.24  321.23
K5    14.22   13.15   13.61   42.99    9.94   -8.02   12.78  321.12
K6    16.16   13.16   17.01   43.01   21.29  -16.44   26.90  322.33
K7    18.24   13.27   21.14   43.17   32.05  -25.03   40.67  322.02
K8    21.11   13.80   26.42   43.94   43.01  -33.50   54.53  322.09
K9    39.38   38.72   35.22   68.54    6.61   -4.85    8.20  323.69
K10   42.26   39.32   39.06   68.98   13.58   -9.40   16.51  325.33
K11   45.78   40.47   44.69   69.80   20.30  -15.14   25.33  323.29
K12   48.06   40.61   48.19   69.90   26.21  -19.11   32.44  323.90
K13   11.57   19.41   34.61   51.17  -42.88  -33.94   54.69  218.37
K14   22.24   11.68   21.05   40.70   62.25  -29.11   68.72  334.93
K15   48.21   45.25    2.88   73.06   13.03   88.11   89.07   81.58
K16    1.25    1.31    1.09   11.34   -0.25   -0.04    0.27  190.46
K17   16.93    9.68    1.42   37.26   50.43   40.17   64.47   38.53
K18    4.58    9.70    2.21   37.29  -48.60   32.06   58.22  146.58
K19    3.39    2.09   13.32   15.97   26.17  -53.81   59.83  295.93
K20    2.35    3.09    2.16   20.38  -11.79    3.37   12.27  164.09
K21    1.23    1.67    1.57   13.66  -11.04   -2.32   11.28  191.84
K22    1.61    2.05    3.24   15.73   -8.97  -13.30   16.03  235.99
L1     3.30    2.74    2.64   18.97   11.76   -3.19   12.18  344.82
L2     4.01    2.76    2.84   19.08   22.05   -4.56   22.52  348.33
L3     5.36    3.18    3.67   20.74   32.57   -7.51   33.42  347.02
L4     6.02    3.47    4.39   21.81   35.40  -10.07   36.80  344.11
L5    11.69   10.11    9.42   38.04   14.56   -3.86   15.06  345.15
L6    14.51   10.70   10.65   39.08   28.58   -6.14   29.23  347.88
L7    17.38   10.76   11.48   39.17   44.65   -8.51   45.46  349.21
L8    19.43   11.30   12.24   40.08   51.47   -9.21   52.28  349.85
L9    40.33   39.16   33.82   68.86    8.19   -2.28    8.51  344.49
L10   42.72   39.38   34.76   69.03   14.77   -3.38   15.15  347.09
L11   46.20   40.16   35.51   69.58   22.42   -3.49   22.69  351.16
L12   47.62   39.31   36.64   68.97   29.01   -6.11   29.65  348.11
L13    7.93   13.80   28.51   43.93  -40.93  -37.03   55.19  222.14
L14   17.41    8.39   16.28   34.78   63.73  -28.90   69.98  335.60
L15   44.34   40.71    2.41   69.97   15.43   86.65   88.01   79.90
L16    0.48    0.48    0.57    4.35    0.64   -3.43    3.49  280.58
L17   13.03    6.93    0.83   31.65   51.19   38.97   64.35   37.28
L18    2.80    6.53    1.54   30.73  -47.60   27.51   54.97  149.97
L19    2.01    0.97    9.05    8.68   31.25  -53.18   61.68  300.44
L20    0.69    0.79    0.80    7.19   -3.26   -2.62    4.18  218.83
L21    0.88    0.80    0.90    7.22    4.47   -4.35    6.23  315.77
L22    2.08    1.64    1.51   13.45   12.26   -1.95   12.41  350.96
GS0    76.05   78.57   67.71   91.04    0.66   -2.74    2.82  283.53
GS1    71.49   73.68   62.42   88.77    1.00   -1.63    1.92  301.68
GS2    60.37   62.09   52.89   82.96    1.25   -1.87    2.24  303.83
GS3    51.72   53.24   44.89   78.02    1.05   -1.21    1.61  310.69
GS4    45.64   47.22   39.14   74.33    0.34   -0.28    0.44  321.04
GS5    39.34   40.67   33.79   69.95    0.44   -0.38    0.59  320.13
GS6    33.24   34.49   28.31   65.35    0.01    0.20    0.21   81.41
GS7    29.22   30.32   24.99   61.93   -0.01    0.02    0.23  183.51
GS8    25.04   25.90   21.42   57.94    0.31   -0.12    0.39  168.58
GS9    21.43   22.24   18.47   54.28   -0.03   -0.28    0.30  252.36
GS10   18.80   19.63   16.28   51.41   -0.59   -0.23    0.72  199.18
GS11   15.07   15.68   13.14   46.54   -0.23   -0.60    0.64  247.96
GS12   12.08   12.59   10.57   42.14   -0.42   -0.60    0.74  232.61
GS13    9.56    9.93    8.45   37.72   -0.13   -0.99    1.01  262.43
GS14    7.99    8.30    6.82   34.60   -0.16    0.09    0.30  169.01
GS15    6.43    6.62    5.39   30.93    0.42    0.36    0.57   37.25
GS16    4.98    5.12    4.21   27.09    0.49    0.12    0.52  192.04
GS17    3.68    3.82    3.26   23.06    0.04   -0.81    0.81  272.59
GS18    2.57    2.70    2.31   18.81   -0.68   -0.72    1.00  226.05
GS19    1.80    1.90    1.54   14.94   -0.63    0.25    0.68  160.08
GS20    1.23    1.28    0.97   11.17   -0.38    1.39    1.44  104.85
GS21    1.02    1.07    0.77    9.52   -0.25    1.92    1.93   97.25
GS22    0.79    0.81    0.65    7.30    0.59    0.31    0.67   27.85
GS23    0.44    0.44    0.54    3.98    0.57   -3.39    3.45  279.54
END_DATA
