lprof/data/targets/Agfa/Reflective/C81208XX.it8
IT8.7/2
ORIGINATOR "FotoTune"
DESCRIPTOR "Agfa IT8"
MATERIAL "Agfacolor"
MANUFACTURER "Agfa"
CREATED "Thu Mar  4 15:27:49 1999"
PROD_DATE "1999:03"
SERIAL "5x7 c81208xx"
NUMBER_OF_FIELDS 9
BEGIN_DATA_FORMAT
SAMPLE_ID XYZ_X XYZ_Y XYZ_Z LAB_L LAB_A LAB_B LAB_C LAB_H
END_DATA_FORMAT
NUMBER_OF_SETS 288
BEGIN_DATA
A1     3.21    2.67    2.10   18.67   11.48    0.99   11.52    4.89
A2     3.79    2.61    1.67   18.40   21.75    4.78   22.27   12.41
A3     5.03    2.98    1.67   19.95   31.96    7.40   32.81   13.06
A4     5.28    3.11    1.80   20.47   32.66    7.02   33.40   12.14
A5    11.11    9.66    7.59   37.22   13.91    1.49   13.99    6.11
A6    13.48   10.03    6.55   37.90   27.19    6.97   28.06   14.36
A7    16.08   10.27    5.66   38.33   41.07   11.82   42.74   16.05
A8    18.11   10.39    5.22   38.52   51.36   14.29   53.31   15.55
A9    41.75   40.85   32.51   70.06    7.34    1.75    7.55   13.41
A10   44.34   41.25   31.33   70.35   13.80    4.03   14.37   16.28
A11   47.25   41.69   30.38   70.65   20.74    6.03   21.60   16.20
A12   47.15   39.99   28.11   69.46   25.64    7.62   26.75   16.55
A13   75.21   77.94   67.47   90.75    0.17   -3.01    3.02  273.30
A14   75.51   77.83   67.46   90.71    1.00   -3.09    3.24  287.99
A15   75.32   77.96   65.26   90.76    0.37   -0.92    1.00  291.77
A16   74.49   77.08   64.92   90.36    0.41   -1.30    1.37  287.52
A17   75.05   77.44   65.21   90.53    0.84   -1.28    1.53  303.11
A18   74.90   77.68   65.36   90.63    0.07   -1.26    1.26  272.98
A19   74.69   77.15   67.29   90.39    0.68   -3.47    3.53  281.05
A20    1.31    1.02    0.57    9.13   10.93    4.86   11.96   23.98
A21    4.76    2.84    0.63   19.39   30.82   21.45   37.54   34.84
A22    9.05    4.92    0.66   26.50   44.10   33.25   55.23   37.01
B1     3.04    2.66    1.57   18.63    8.66    6.37   10.75   36.30
B2     3.67    2.78    0.78   19.11   16.94   18.21   24.87   47.05
B3     4.42    2.93    0.69   19.80   24.70   21.15   32.51   40.56
B4     4.93    3.17    0.69   20.70   27.40   22.74   35.60   39.67
B5    11.55   10.03    5.69   37.90   14.09   10.88   17.80   37.69
B6    13.58   10.35    3.97   38.44   25.44   21.08   33.03   39.65
B7    15.84   10.32    2.36   38.40   39.32   32.67   51.12   39.72
B8    17.31   10.34    1.50   38.43   47.45   41.15   62.82   40.93
B9    41.74   41.21   29.98   70.31    6.22    6.09    8.70   44.33
B10   44.01   41.52   26.98   70.54   12.01   11.40   16.56   43.50
B11   46.69   41.93   24.62   70.82   18.47   16.02   24.45   40.93
B12   47.24   41.30   22.10   70.38   21.89   20.01   29.66   42.43
B13   67.59   72.56   65.97   88.24   -5.07   -5.95    7.82  229.59
B14   71.45   70.90   64.79   87.43    6.68   -6.22    9.14  317.03
B15   72.51   75.51   52.27   89.63   -0.56   10.32   10.33   93.13
B16   60.77   62.88   51.10   83.38    0.39    0.82    0.92   61.81
B17   68.38   68.43   51.12   86.22    5.33    5.71    7.81   46.91
B18   64.75   70.02   51.99   87.01   -6.09    6.10    8.62  135.01
B19   63.46   65.28   62.94   84.63    1.22   -9.29    9.38  277.52
B20    2.94    2.02    0.65   15.58   20.18   14.49   24.84   35.68
B21    7.91    4.41    0.67   25.00   40.51   30.47   50.69   36.94
B22   29.58   25.35   14.02   57.42   20.83   15.80   26.14   37.16
C1     4.05    3.84    2.23   23.10    5.35    7.39    9.12   54.08
C2     4.41    3.95    1.20   23.51    8.54   19.17   20.99   65.97
C3     5.12    4.24    0.87   24.45   13.59   25.93   29.27   62.32
C4     5.18    4.28    0.88   24.55   13.93   25.95   29.47   61.73
C5    22.94   22.13   10.41   54.15    7.43   20.66   21.96   70.24
C6    25.28   22.29    5.66   54.33   16.92   39.37   42.85   66.75
C7    26.61   21.90    2.42   53.92   24.21   58.83   63.62   67.62
C8    28.33   22.32    1.64   54.36   29.18   67.11   73.19   66.49
C9    48.23   48.82   32.54   75.33    3.24   10.77   11.25   73.25
C10   50.64   49.78   27.23   75.93    7.16   20.28   21.50   70.54
C11   53.04   50.72   22.77   76.51   10.99   29.26   31.26   69.42
C12   52.60   49.28   18.39   75.63   13.66   36.72   39.18   69.60
C13   57.78   65.04   63.30   84.50  -11.60   -9.85   15.22  220.35
C14   64.56   60.03   59.94   81.86   15.68  -11.11   19.22  324.68
C15   70.05   73.07   42.56   88.48   -0.81   19.71   19.73   92.35
C16   45.59   47.14   37.90   74.28    0.44    1.30    1.37   71.34
C17   59.59   56.29   39.48   79.78   13.10    8.68   15.72   33.47
C18   53.23   60.85   41.57   82.29  -13.47   10.30   16.95  142.63
C19   49.44   50.15   56.22   76.16    2.99  -17.12   17.39  279.93
C20    1.83    1.49    0.66   12.56   10.15    9.22   13.71   42.26
C21   22.94   17.45    5.61   48.82   30.45   30.12   42.83   44.68
C22   36.40   33.72   20.88   64.73   13.41   12.67   18.45   43.39
D1     3.76    3.87    2.26   23.22    0.44    7.28    7.30   86.55
D2     3.88    4.06    1.26   23.85   -0.40   19.10   19.11   91.16
D3     4.24    4.27    0.95   24.55    1.78   24.63   24.69   85.84
D4     4.24    4.29    0.97   24.59    1.51   24.60   24.66   86.48
D5    25.89   27.35   13.47   59.29   -1.97   20.51   20.60   95.51
D6    25.24   26.96    7.86   58.93   -3.12   37.82   37.94   94.72
D7    26.35   28.18    4.01   60.04   -3.26   58.14   58.23   93.21
D8    24.83   25.81    2.01   57.85   -0.21   69.32   69.32   90.18
D9    55.35   58.46   37.42   80.99   -2.46   13.55   13.76  100.29
D10   56.97   59.83   31.24   81.75   -1.72   23.83   23.89   94.13
D11   56.68   60.06   25.60   81.86   -2.92   33.31   33.44   95.01
D12   56.92   60.33   21.18   82.02   -3.02   41.88   41.98   94.12
D13   48.47   57.41   60.24   80.40  -17.94  -13.91   22.70  217.80
D14   57.86   50.47   54.69   76.35   23.72  -15.19   28.17  327.36
D15   68.01   70.83   34.76   87.40   -0.58   28.31   28.31   91.18
D16   33.15   34.37   28.08   65.24    0.11    0.43    0.44   75.61
D17   51.67   46.10   29.83   73.60   19.97   12.00   23.30   30.98
D18   42.08   51.25   32.50   76.83  -20.82   13.42   24.77  147.20
D19   37.27   37.21   48.99   67.43    4.65  -24.28   24.73  280.84
D20   14.21   10.79    3.39   39.22   26.12   26.14   36.95   45.02
D21   23.08   22.36   14.01   54.40    6.98   10.61   12.70   56.66
D22   40.50   39.41   24.20   69.04    7.93   13.71   15.84   59.92
E1     3.48    3.95    2.35   23.49   -5.01    7.03    8.64  125.45
E2     3.11    3.87    1.31   23.20   -9.87   17.32   19.93  119.68
E3     3.35    4.32    1.04   24.70  -12.38   23.62   26.67  117.67
E4     3.34    4.36    1.04   24.83  -13.00   23.72   27.05  118.74
E5    11.91   13.64    7.54   43.69   -8.33   12.84   15.30  123.00
E6    11.22   14.05    5.11   44.29  -15.82   24.81   29.42  122.53
E7    10.48   14.36    2.85   44.74  -23.24   39.65   45.96  120.36
E8    10.24   14.68    1.85   45.17  -26.90   49.15   56.04  118.69
E9    37.07   40.53   26.92   69.83   -6.40   10.30   12.13  121.86
E10   36.54   41.23   23.47   70.33  -10.27   17.31   20.14  120.69
E11   36.08   42.27   20.30   71.05  -14.93   24.76   28.92  121.08
E12   34.91   42.26   16.81   71.05  -18.81   32.40   37.47  120.14
E13   41.43   51.27   57.30   76.84  -22.81  -17.08   28.50  216.83
E14   52.32   43.12   50.12   71.63   30.12  -18.33   35.25  328.67
E15   65.56   67.93   26.26   85.97    0.19   39.24   39.24   89.74
E16   24.66   25.51   20.62   57.57    0.32    0.82    0.89   69.09
E17   45.08   38.24   21.90   68.19   25.22   16.62   30.20   33.39
E18   33.47   43.23   24.76   71.71  -26.64   17.30   31.76  146.99
E19   29.06   28.60   43.08   60.42    5.84  -29.31   29.89  281.26
E20   22.53   15.55    1.25   46.36   39.19   58.08   70.07   55.99
E21   17.58   14.67    3.39   45.18   19.83   36.43   41.47   61.44
E22   30.24   26.58    9.66   58.57   18.26   30.74   35.75   59.28
F1     1.39    1.75    1.17   14.07   -7.90    3.41    8.60  156.65
F2     1.19    1.87    0.98   14.77  -16.85    7.47   18.44  156.12
F3     1.15    2.11    0.93   16.02  -23.72   10.36   25.89  156.40
F4     1.31    2.52    1.10   18.00  -27.33   11.24   29.55  157.65
F5     6.53    8.11    5.80   34.20  -12.66    4.01   13.28  162.46
F6     5.55    8.39    5.18   34.78  -25.81    8.09   27.05  162.61
F7     4.47    8.36    4.43   34.72  -39.01   12.01   40.81  162.89
F8     3.18    7.68    3.71   33.32  -52.26   13.86   54.07  165.14
F9    36.51   40.21   30.62   69.61   -7.26    3.86    8.22  152.01
F10   35.94   41.40   30.34   70.45  -12.76    5.76   14.00  155.76
F11   34.76   42.22   29.69   71.02  -19.18    7.75   20.69  158.01
F12   33.24   42.26   28.17   71.06  -24.61   10.30   26.68  157.32
F13   35.01   45.31   54.13   73.09  -27.27  -20.22   33.94  216.54
F14   47.47   37.12   45.84   67.36   35.56  -20.72   41.15  329.76
F15   63.89   65.84   21.35   84.91    1.00   46.51   46.53   88.77
F16   18.31   18.98   15.27   50.65    0.09    0.90    0.93   82.77
F17   40.03   32.42   16.66   63.68   29.62   20.04   35.76   34.08
F18   27.43   37.29   19.19   67.49  -30.98   20.93   37.39  145.95
F19   22.83   21.97   38.01   53.99    7.66  -33.83   34.68  282.75
F20   27.96   27.11   14.36   59.07    7.41   17.75   19.24   67.34
F21   35.08   32.67   12.82   63.89   12.65   30.22   32.76   67.29
F22   39.57   38.11   18.77   68.10    9.09   22.88   24.62   68.32
G1     2.15    2.66    2.63   18.62   -8.41   -3.69    9.18  203.76
G2     1.88    2.80    2.96   19.20  -17.15   -5.29   17.94  197.13
G3     1.71    3.07    3.41   20.31  -25.87   -6.61   26.70  194.32
G4     1.90    3.51    3.83   21.98  -28.54   -6.38   29.24  192.59
G5     8.77   10.74    9.32   39.12  -12.68   -1.64   12.78  187.37
G6     7.65   10.89    9.88   39.39  -23.89   -3.08   24.09  187.35
G7     6.24   10.68   10.25   39.03  -36.47   -4.92   36.81  187.68
G8     5.26   10.95   11.14   39.50  -49.62   -6.92   50.10  187.94
G9    35.76   39.65   32.01   69.21   -8.06    1.03    8.12  172.71
G10   34.60   40.42   33.56   69.76  -14.34   -0.34   14.34  181.40
G11   33.65   41.40   34.53   70.45  -20.61   -0.56   20.62  181.60
G12   32.23   41.87   35.86   70.78  -27.01   -1.90   27.08  184.05
G13   28.45   38.87   50.21   68.65  -31.96  -23.57   39.71  216.41
G14   40.81   29.39   39.73   61.12   43.03  -23.82   49.18  331.03
G15   61.22   62.35   14.99   83.10    2.67   57.56   57.63   87.34
G16   11.81   12.17    9.94   41.46    0.64    0.29    0.70   24.92
G17   33.44   25.12   11.33   57.19   35.88   23.00   42.62   32.65
G18   20.88   30.47   14.02   62.05  -36.15   23.78   43.27  146.67
G19   15.60   14.38   31.08   44.76   10.56  -39.71   41.08  284.89
G20   37.91   37.39   17.08   67.56    6.15   25.74   26.47   76.57
G21   35.86   35.21   10.93   65.91    6.55   39.25   39.79   80.51
G22   44.12   41.51    2.96   70.53   12.36   83.21   84.13   81.55
H1     2.38    2.71    3.24   18.83   -4.51   -7.91    9.10  240.38
H2     2.17    2.81    4.26   19.26  -10.77  -13.65   17.39  231.74
H3     1.92    2.73    5.37   18.95  -15.16  -20.19   25.25  233.12
H4     2.26    3.29    6.88   21.15  -17.15  -23.33   28.95  233.67
H5     9.44   10.80   11.32   39.22   -7.58   -7.95   10.99  226.36
H6     8.84   11.23   14.62   39.94  -15.65  -15.90   22.31  225.46
H7     7.73   10.85   18.10   39.32  -22.92  -25.26   34.11  227.80
H8     7.32   11.10   21.99   39.75  -28.53  -32.61   43.33  228.82
H9    36.49   40.03   35.15   69.48   -6.76   -3.13    7.47  204.79
H10   35.82   40.41   39.08   69.76  -10.19   -8.07   13.00  218.40
H11   36.09   42.10   46.53   70.93  -14.36  -15.38   21.04  226.97
H12   35.46   42.51   51.11   71.22  -17.72  -20.15   26.83  228.67
H13   23.58   33.78   46.78   64.79  -35.50  -26.27   44.17  216.51
H14   34.78   22.99   33.98   55.06   49.70  -26.32   56.24  332.10
H15   59.18   59.56   10.94   81.59    4.34   66.26   66.40   86.26
H16    7.53    7.71    6.37   33.36    0.92   -0.05    0.92  356.50
H17   27.95   19.47    7.24   51.22   41.19   27.07   49.29   33.31
H18   15.76   24.77    9.93   56.85  -40.60   26.87   48.69  146.51
H19   11.15    9.63   25.87   37.15   14.45  -44.24   46.54  288.08
H20   42.53   43.89   17.67   72.15    0.69   32.32   32.33   88.77
H21   33.58   35.14   24.02   65.85   -0.99    8.55    8.61   96.62
H22   36.00   39.81   12.70   69.33   -7.72   39.93   40.67  100.94
I1     3.94    3.95    5.36   23.49    1.93  -12.31   12.45  278.93
I2     4.03    3.97    8.27   23.56    3.00  -24.67   24.85  276.93
I3     4.20    4.09   11.57   23.95    3.76  -35.02   35.22  276.12
I4     4.36    4.15   15.40   24.17    5.14  -45.06   45.35  276.51
I5    13.65   14.15   14.56   44.43    0.12   -7.99    7.99  270.87
I6    13.74   14.08   18.67   44.33    1.07  -17.84   17.88  273.44
I7    13.85   14.06   23.27   44.30    1.90  -27.22   27.28  274.00
I8    14.43   14.47   28.01   44.88    3.05  -34.60   34.73  275.03
I9    38.71   40.31   35.84   69.68   -0.44   -3.76    3.79  263.28
I10   39.74   41.27   40.39   70.36   -0.14   -8.74    8.74  269.12
I11   40.07   41.43   46.04   70.47    0.42  -15.61   15.61  271.54
I12   40.44   41.68   50.72   70.64    0.84  -20.70   20.72  272.32
I13   19.95   29.80   43.94   61.47  -38.18  -28.58   47.69  216.81
I14   31.19   19.45   30.46   51.22   53.57  -27.61   60.27  332.73
I15   57.78   57.64    8.77   80.54    5.48   71.68   71.90   85.63
I16    5.35    5.39    4.53   27.81    1.82   -0.50    1.89  344.42
I17   24.69   16.33    5.14   47.39   44.29   30.01   53.50   34.12
I18   12.88   21.34    7.60   53.32  -43.25   29.19   52.18  145.98
I19    8.52    6.87   22.28   31.50   17.93  -47.42   50.69  290.71
I20   43.54   48.22   18.67   74.96   -8.46   34.94   35.96  103.61
I21   12.48   16.67    4.45   47.83  -22.28   34.51   41.08  122.85
I22   30.32   38.71   20.18   68.54  -24.35   20.65   31.93  139.70
J1     1.98    1.78    2.93   14.26    6.42  -13.59   15.02  295.30
J2     2.26    1.76    4.69   14.19   12.84  -24.86   27.98  297.33
J3     2.79    1.86    7.94   14.69   21.20  -38.74   44.15  298.68
J4     3.05    1.83   10.51   14.56   26.38  -47.95   54.73  298.82
J5    11.01   10.73   11.79   39.11    5.02   -9.55   10.78  297.77
J6    11.70   10.69   15.28   39.04   10.32  -19.10   21.72  298.38
J7    12.14   10.33   19.33   38.40   16.08  -29.51   33.61  298.59
J8    13.13   10.76   22.58   39.15   19.48  -34.79   39.88  299.25
J9    39.82   40.65   36.32   69.92    2.05   -4.01    4.51  296.95
J10   40.99   41.03   40.39   70.19    4.51   -9.06   10.11  296.43
J11   42.71   41.41   45.82   70.46    8.51  -15.35   17.57  299.00
J12   43.33   41.12   50.28   70.25   11.20  -20.89   23.70  298.21
J13   14.48   23.24   38.44   55.31  -41.64  -32.12   52.60  217.65
J14   26.44   15.18   25.65   45.88   58.14  -28.83   64.89  333.62
J15   55.82   55.07    6.75   79.08    6.94   77.10   77.40   84.85
J16    2.72    2.78    2.44   19.11    0.83   -1.35    1.60  301.48
J17   20.33   12.43    3.04   41.89   48.09   33.26   58.47   34.67
J18    8.02   15.17    4.75   45.87  -48.36   29.45   56.61  148.65
J19    5.34    3.87   17.43   23.23   21.49  -51.51   55.82  292.64
J20   32.10   40.93   26.62   70.12  -24.64   11.30   27.10  155.37
J21    4.16    7.76    1.44   33.48  -37.89   33.49   50.56  138.53
J22    1.08    1.75    0.80   14.15  -18.27    9.37   20.53  152.86
K1     4.77    4.00    4.81   23.66   12.61   -9.16   15.59  323.98
K2     5.96    4.12    7.11   24.06   24.99  -19.30   31.58  322.33
K3     7.28    4.19    9.68   24.31   37.65  -28.43   47.18  322.94
K4     8.42    4.32   12.42   24.71   46.37  -36.22   58.83  322.01
K5    15.14   14.01   14.47   44.22   10.12   -8.11   12.98  321.29
K6    16.92   13.77   17.80   43.89   21.81  -16.70   27.48  322.55
K7    18.94   13.77   21.55   43.89   32.51  -24.58   40.76  322.90
K8    21.65   14.10   26.47   44.38   43.68  -32.85   54.65  323.05
K9    41.82   41.35   36.46   70.41    6.02   -3.38    6.90  330.73
K10   44.31   41.44   39.89   70.47   13.13   -7.90   15.33  328.97
K11   47.57   42.47   45.81   71.19   19.31  -14.09   23.92  323.88
K12   49.72   42.54   49.17   71.24   24.95  -17.92   30.72  324.31
K13   12.06   20.03   35.40   51.88  -42.51  -33.85   54.33  218.54
K14   21.64   11.36   20.67   40.18   61.68  -29.24   68.26  334.64
K15   47.80   44.96    2.79   72.87   12.73   88.54   89.45   81.82
K16    1.33    1.37    1.05   11.73    0.16    1.21    1.25   81.16
K17   16.80    9.66    1.41   37.24   49.81   40.23   64.03   38.93
K18    4.73    9.89    2.15   37.63  -48.08   33.17   58.41  145.40
K19    3.49    2.14   13.45   16.24   26.53  -53.71   59.90  296.29
K20    2.52    3.30    2.27   21.17  -11.81    3.75   12.38  162.37
K21    1.32    1.78    1.67   14.28  -11.07   -2.33   11.31  191.89
K22    1.70    2.17    3.43   16.35   -9.20  -13.55   16.38  235.83
L1     3.63    2.98    2.81   19.94   12.69   -2.78   13.00  347.62
L2     4.35    2.94    3.04   19.81   23.60   -4.80   24.08  348.49
L3     5.70    3.31    3.86   21.23   34.35   -7.89   35.25  347.08
L4     6.39    3.61    4.71   22.33   37.07  -10.92   38.64  343.59
L5    12.48   10.79   10.14   39.21   14.89   -4.24   15.48  344.08
L6    15.31   11.27   11.44   40.01   29.32   -6.94   30.13  346.67
L7    18.17   11.22   12.19   39.94   45.52   -9.29   46.46  348.46
L8    19.91   11.58   13.08   40.54   51.86  -10.77   52.97  348.27
L9    43.12   42.11   35.38   70.94    7.64   -0.94    7.70  352.96
L10   45.29   42.15   36.43   70.96   13.85   -2.38   14.06  350.24
L11   48.42   42.69   37.40   71.34   21.02   -3.07   21.25  351.66
L12   49.55   41.93   38.53   70.82   26.31   -5.51   26.88  348.17
L13    7.95   13.81   28.69   43.96  -40.76  -37.30   55.25  222.46
L14   16.80    8.08   15.83   34.15   63.12  -28.90   69.43  335.40
L15   43.96   40.53    2.24   69.85   14.85   87.94   89.19   80.41
L16    0.48    0.49    0.56    4.39    0.60   -2.87    2.93  281.74
L17   12.76    6.80    0.73   31.35   50.77   40.38   64.86   38.50
L18    2.84    6.60    1.45   30.87  -47.46   28.83   55.53  148.71
L19    1.98    0.94    8.94    8.44   31.52  -53.25   61.89  300.62
L20    0.70    0.82    0.77    7.41   -3.57   -1.83    4.03  207.58
L21    0.91    0.81    0.88    7.33    5.32   -3.69    6.48  325.23
L22    2.27    1.74    1.59   14.05   13.70   -1.74   13.82  352.77
GS0    76.11   78.62   68.02   91.06    0.69   -3.00    3.07  282.89
GS1    72.28   74.77   62.91   89.29    0.45   -1.23    1.31  290.33
GS2    62.49   64.71   53.53   84.33    0.31   -0.19    0.41  161.26
GS3    54.24   56.18   45.80   79.72    0.23    0.62    0.69   67.00
GS4    48.18   50.06   40.19   76.10   -0.17    1.40    1.42   95.84
GS5    41.51   43.16   35.07   71.65   -0.25    0.73    0.79  110.23
GS6    35.29   36.72   29.53   67.06   -0.35    1.18    1.23  106.85
GS7    30.88   32.09   25.92   63.42   -0.20    0.92    0.95  102.08
GS8    26.41   27.44   22.32   59.38   -0.18    0.60    0.62  106.79
GS9    22.71   23.65   19.24   55.74   -0.42    0.55    0.69  126.99
GS10   19.74   20.69   16.94   52.60   -1.03    0.28    1.10  166.55
GS11   15.76   16.45   13.55   47.55   -0.56    0.05    0.60  176.49
GS12   12.84   13.40   11.05   43.35   -0.52    0.01    0.54  177.74
GS13   10.09   10.49    8.68   38.71   -0.19   -0.10    0.34  162.67
GS14    8.20    8.51    6.91   35.01   -0.02    0.44    0.49   95.49
GS15    6.65    6.84    5.48   31.42    0.64    0.75    0.98   48.60
GS16    5.22    5.35    4.34   27.69    0.71    0.38    0.80   28.22
GS17    3.83    3.92    3.33   23.42    0.64   -0.60    0.89  318.29
GS18    2.68    2.78    2.37   19.13   -0.00   -0.68    0.68  271.75
GS19    1.90    1.97    1.57   15.32    0.04    0.66    0.70   90.96
GS20    1.29    1.33    0.94   11.51    0.25    2.47    2.49   83.93
GS21    1.04    1.07    0.70    9.56    0.38    3.20    3.22   83.10
GS22    0.80    0.80    0.60    7.22    1.09    1.18    1.62   47.47
GS23    0.43    0.43    0.50    3.87    0.57   -2.75    2.81  281.70
END_DATA
