lprof/data/targets/Agfa/Reflective/C81241XX.it8
IT8.7/2
ORIGINATOR "FotoTune"
DESCRIPTOR "Agfa IT8"
MATERIAL "Agfacolor"
MANUFACTURER "Agfa"
CREATED "Mon Apr 12 11:55:52 1999"
PROD_DATE "1999:04"
SERIAL "5x7 c81241xx"
NUMBER_OF_FIELDS 9
BEGIN_DATA_FORMAT
SAMPLE_ID XYZ_X XYZ_Y XYZ_Z LAB_L LAB_A LAB_B LAB_C LAB_H
END_DATA_FORMAT
NUMBER_OF_SETS 288
BEGIN_DATA
A1     3.28    2.74    2.15   19.01   11.07    1.05   11.11    5.44
A2     3.86    2.68    1.66   18.70   21.41    5.43   22.09   14.23
A3     5.10    3.05    1.66   20.26   31.42    8.09   32.44   14.44
A4     5.41    3.22    1.83   20.89   32.42    7.44   33.26   12.94
A5    11.38    9.98    7.94   37.81   13.32    1.10   13.36    4.72
A6    13.77   10.32    6.77   38.42   26.83    6.88   27.70   14.38
A7    16.26   10.48    5.93   38.69   40.53   11.13   42.03   15.36
A8    18.77   10.82    5.43   39.27   51.58   14.50   53.58   15.70
A9    41.46   40.50   33.35   69.82    7.49    0.06    7.49    0.45
A10   43.99   40.94   32.46   70.14   13.69    1.94   13.82    8.07
A11   47.07   41.39   30.81   70.45   21.12    5.01   21.71   13.34
A12   47.47   40.00   28.73   69.47   26.47    6.62   27.29   14.05
A13   75.43   78.19   67.83   90.87    0.13   -3.15    3.16  272.42
A14   75.74   78.07   67.65   90.81    1.01   -3.08    3.24  288.15
A15   75.56   78.20   65.63   90.87    0.38   -1.10    1.16  289.54
A16   74.63   77.21   65.38   90.42    0.44   -1.63    1.69  285.07
A17   75.35   77.76   65.74   90.67    0.83   -1.55    1.75  298.35
A18   75.03   77.82   65.92   90.70    0.06   -1.67    1.67  272.01
A19   74.94   77.36   67.42   90.49    0.78   -3.43    3.51  282.88
A20    1.38    1.09    0.65    9.73   10.66    4.48   11.57   22.79
A21    4.90    2.97    0.72   19.91   30.43   20.66   36.78   34.17
A22    9.30    5.09    0.74   26.98   44.03   32.60   54.78   36.52
B1     3.11    2.74    1.61   18.98    8.44    6.53   10.68   37.68
B2     3.72    2.82    0.85   19.31   16.83   17.31   24.15   45.81
B3     4.51    3.03    0.77   20.16   24.27   20.26   31.62   39.85
B4     5.03    3.28    0.77   21.12   26.92   21.89   34.69   39.10
B5    11.77   10.30    5.91   38.37   13.73   10.64   17.38   37.78
B6    13.83   10.61    4.12   38.92   25.08   20.99   32.71   39.93
B7    16.13   10.58    2.41   38.86   39.01   33.04   51.12   40.26
B8    17.83   10.73    1.59   39.11   47.36   41.34   62.87   41.11
B9    41.47   41.05   30.91   70.21    5.86    4.43    7.35   37.08
B10   43.96   41.58   28.02   70.58   11.68    9.70   15.19   39.69
B11   46.78   41.92   25.22   70.81   18.75   14.92   23.97   38.52
B12   47.69   41.56   22.51   70.57   22.35   19.50   29.67   41.10
B13   66.54   71.81   65.88   87.88   -5.83   -6.49    8.72  228.07
B14   71.00   69.98   64.63   86.99    7.67   -6.85   10.28  318.23
B15   72.79   75.79   53.11   89.76   -0.54    9.63    9.65   93.24
B16   59.56   61.44   51.84   82.62    0.79   -1.31    1.53  301.03
B17   68.28   67.90   51.69   85.96    6.25    4.61    7.77   36.43
B18   64.03   69.65   52.87   86.82   -6.92    4.82    8.43  145.15
B19   62.04   63.69   62.44   83.80    1.53  -10.23   10.34  278.51
B20    3.01    2.09    0.73   15.93   19.81   13.76   24.12   34.79
B21    8.14    4.59    0.75   25.52   40.38   29.76   50.17   36.39
B22   29.57   25.35   14.36   57.41   20.81   14.87   25.58   35.54
C1     4.20    4.01    2.26   23.69    4.90    8.21    9.57   59.14
C2     4.56    4.11    1.29   24.02    8.34   18.95   20.70   66.24
C3     5.24    4.37    0.96   24.87   13.20   25.12   28.38   62.26
C4     5.32    4.44    0.99   25.06   13.35   25.08   28.42   61.96
C5    22.93   22.16   10.80   54.19    7.24   19.47   20.77   69.59
C6    25.49   22.54    5.82   54.60   16.69   39.04   42.47   66.85
C7    26.62   21.99    2.47   54.01   23.87   58.57   63.26   67.83
C8    28.65   22.64    1.77   54.69   28.97   66.30   72.35   66.40
C9    48.21   49.07   33.95   75.49    2.53    8.95    9.30   74.21
C10   50.99   50.24   28.16   76.21    6.91   19.19   20.40   70.21
C11   53.30   51.03   23.50   76.70   10.85   28.21   30.22   68.96
C12   53.37   49.97   19.20   76.06   13.81   35.66   38.24   68.83
C13   56.83   64.33   63.26   84.14  -12.36  -10.44   16.17  220.20
C14   64.64   59.95   60.01   81.82   16.06  -11.27   19.62  324.96
C15   70.80   73.85   44.15   88.85   -0.80   18.38   18.39   92.51
C16   45.21   46.94   38.97   74.15   -0.12   -0.36    0.40  246.43
C17   60.15   56.68   40.62   79.99   13.49    7.55   15.45   29.23
C18   52.65   60.49   42.53   82.10  -14.13    8.76   16.62  148.20
C19   48.61   49.40   55.99   75.70    2.76  -17.69   17.90  278.86
C20    1.89    1.56    0.73   12.99    9.80    8.64   13.07   41.38
C21   23.20   17.80    5.95   49.25   29.83   29.19   41.74   44.39
C22   36.31   33.67   21.24   64.69   13.28   11.86   17.81   41.78
D1     3.94    4.07    2.32   23.89    0.28    8.02    8.03   88.01
D2     3.98    4.17    1.34   24.22   -0.56   18.79   18.80   91.68
D3     4.33    4.38    1.06   24.88    1.50   23.65   23.69   86.35
D4     4.44    4.52    1.08   25.33    1.07   24.14   24.17   87.47
D5    25.89   27.25   13.68   59.21   -1.57   19.76   19.83   94.51
D6    25.28   27.05    8.10   59.01   -3.28   37.06   37.21   95.06
D7    26.15   28.06    3.99   59.94   -3.62   58.07   58.18   93.57
D8    24.95   26.14    2.17   58.17   -1.04   68.40   68.40   90.88
D9    54.45   57.47   38.26   80.44   -2.36   11.44   11.69  101.63
D10   56.72   59.50   32.11   81.57   -1.56   22.17   22.22   94.01
D11   56.28   59.63   26.43   81.64   -2.92   31.46   31.59   95.29
D12   56.70   60.19   21.93   81.94   -3.22   40.25   40.38   94.57
D13   47.96   57.01   60.36   80.18  -18.37  -14.42   23.35  218.13
D14   57.99   50.39   54.81   76.31   24.24  -15.40   28.72  327.57
D15   68.57   71.44   35.60   87.70   -0.62   27.64   27.64   91.29
D16   33.18   34.33   28.90   65.22    0.33   -0.96    1.02  287.27
D17   52.27   46.44   30.74   73.83   20.53   10.93   23.26   28.05
D18   41.83   51.15   33.11   76.77  -21.30   12.40   24.64  149.80
D19   37.15   37.05   48.99   67.32    4.76  -24.50   24.95  280.98
D20   14.51   11.11    3.53   39.76   25.61   26.12   36.59   45.56
D21   23.26   22.55   14.74   54.60    7.00    9.06   11.45   52.35
D22   40.30   39.28   24.69   68.94    7.73   12.67   14.84   58.61
E1     3.57    4.07    2.36   23.89   -5.36    7.61    9.32  125.15
E2     3.18    3.95    1.39   23.51  -10.02   16.85   19.60  120.73
E3     3.36    4.39    1.14   24.92  -13.19   22.51   26.10  120.35
E4     3.37    4.41    1.14   25.00  -13.25   22.56   26.17  120.43
E5    12.02   13.77    7.66   43.90   -8.41   12.70   15.23  123.51
E6    11.18   14.00    5.12   44.24  -15.81   24.62   29.24  122.70
E7    10.39   14.26    2.80   44.61  -23.34   39.69   46.05  120.45
E8    10.25   14.77    1.96   45.32  -27.49   48.19   55.49  119.71
E9    36.94   40.42   27.42   69.76   -6.48    9.28   11.32  124.88
E10   36.45   41.19   24.25   70.31  -10.48   15.81   18.95  123.53
E11   35.94   42.00   20.93   70.88  -14.55   23.15   27.34  122.14
E12   34.67   42.04   17.43   70.90  -18.98   30.70   36.09  121.73
E13   41.04   50.90   57.35   76.61  -23.05  -17.51   28.95  217.24
E14   52.44   43.01   50.15   71.57   30.78  -18.49   35.90  328.99
E15   66.11   68.56   27.15   86.29    0.09   38.25   38.25   89.88
E16   24.64   25.47   20.94   57.53    0.38    0.12    0.46  203.13
E17   45.66   38.54   22.58   68.42   25.91   15.67   30.28   31.15
E18   33.24   43.13   25.28   71.65  -27.14   16.24   31.63  149.11
E19   28.86   28.38   43.08   60.23    5.93  -29.65   30.24  281.30
E20   23.08   15.94    1.39   46.89   39.38   57.21   69.46   55.46
E21   17.88   14.97    3.48   45.58   19.67   36.54   41.50   61.71
E22   30.28   26.67   10.09   58.66   18.11   29.43   34.56   58.39
F1     1.44    1.82    1.25   14.52   -8.28    3.20    8.88  158.90
F2     1.24    1.94    1.06   15.17  -17.23    6.90   18.56  158.17
F3     1.17    2.14    1.02   16.23  -23.83    9.34   25.60  158.61
F4     1.33    2.55    1.16   18.12  -27.18   10.41   29.11  159.04
F5     6.73    8.38    6.12   34.75  -12.91    3.46   13.38  165.03
F6     5.64    8.51    5.35   35.03  -25.83    7.64   26.93  163.53
F7     4.46    8.36    4.50   34.74  -39.17   11.60   40.85  163.51
F8     3.17    7.66    3.75   33.28  -52.16   13.55   53.89  165.45
F9    36.64   40.44   31.94   69.79   -7.56    2.10    7.85  164.47
F10   36.01   41.58   31.36   70.58  -13.09    4.38   13.80  161.51
F11   34.46   41.78   30.59   70.72  -18.93    5.81   19.80  162.95
F12   32.89   41.80   29.03   70.74  -24.44    8.31   25.81  161.24
F13   34.81   45.12   54.27   72.97  -27.42  -20.57   34.28  216.88
F14   48.01   37.47   46.21   67.63   35.90  -20.70   41.43  330.02
F15   64.63   66.67   22.08   85.33    0.87   45.80   45.81   88.91
F16   18.46   19.15   15.93   50.86    0.04   -0.35    0.40  259.47
F17   40.79   32.92   17.19   64.10   30.13   19.51   35.90   32.92
F18   27.49   37.47   19.95   67.63  -31.35   19.54   36.94  148.05
F19   22.76   21.91   38.12   53.92    7.61  -34.09   34.92  282.58
F20   27.85   27.05   14.83   59.02    7.22   16.45   17.97   66.29
F21   35.03   32.67   13.39   63.89   12.46   28.61   31.20   66.46
F22   39.40   38.02   19.23   68.04    8.88   21.78   23.52   67.84
G1     2.21    2.74    2.66   19.00   -8.90   -3.30    9.49  200.39
G2     1.93    2.90    3.03   19.66  -17.88   -4.99   18.56  195.62
G3     1.76    3.13    3.51   20.58  -25.94   -6.74   26.80  194.56
G4     1.96    3.62    3.95   22.36  -28.83   -6.46   29.53  192.63
G5     8.94   10.90    9.68   39.41  -12.45   -2.38   12.68  190.80
G6     7.84   11.07   10.32   39.70  -23.47   -4.00   23.81  189.67
G7     6.38   10.87   10.64   39.36  -36.34   -5.61   36.77  188.79
G8     5.32   11.00   11.60   39.58  -49.18   -8.19   49.86  189.46
G9    36.16   40.08   32.81   69.53   -8.02    0.35    8.02  177.50
G10   34.74   40.56   34.60   69.87  -14.27   -1.69   14.38  186.77
G11   33.60   41.15   35.39   70.28  -20.03   -2.12   20.14  186.03
G12   32.12   41.58   36.98   70.57  -26.51   -3.82   26.78  188.18
G13   28.60   39.03   50.55   68.77  -31.85  -23.75   39.73  216.71
G14   41.56   29.93   40.23   61.60   43.26  -23.67   49.31  331.33
G15   62.31   63.56   15.84   83.73    2.45   56.56   56.61   87.52
G16   11.93   12.27   10.27   41.65    0.64   -0.50    0.82  320.46
G17   34.42   25.83   11.95   57.88   36.28   22.33   42.60   31.62
G18   21.07   30.83   14.82   62.36  -36.55   22.26   42.79  148.66
G19   15.99   14.78   31.67   45.33   10.36  -39.64   40.97  284.65
G20   37.92   37.47   17.91   67.63    5.93   23.97   24.68   76.10
G21   35.86   35.32   11.44   66.00    6.18   37.82   38.32   80.71
G22   44.02   41.34    3.05   70.41   12.59   82.35   83.31   81.31
H1     2.45    2.79    3.34   19.19   -4.52   -8.02    9.22  240.60
H2     2.28    2.96    4.49   19.88  -11.09  -13.93   17.82  231.49
H3     1.94    2.78    5.51   19.12  -15.39  -20.59   25.70  233.23
H4     2.28    3.34    6.97   21.33  -17.35  -23.39   29.11  233.42
H5     9.64   11.06   11.68   39.69   -8.01   -8.26   11.51  225.85
H6     9.01   11.40   14.93   40.24  -15.49  -16.18   22.42  226.24
H7     7.88   11.01   18.61   39.60  -22.72  -25.92   34.46  228.76
H8     7.39   11.15   22.40   39.83  -28.30  -33.26   43.67  229.61
H9    36.62   40.10   36.03   69.54   -6.58   -4.29    7.85  213.10
H10   35.98   40.51   40.18   69.83   -9.94   -9.40   13.68  223.40
H11   35.80   41.76   46.95   70.71  -14.31  -16.28   21.67  228.70
H12   34.90   41.69   51.04   70.65  -17.12  -21.06   27.14  230.88
H13   23.58   33.79   46.97   64.80  -35.51  -26.49   44.31  216.72
H14   35.72   23.67   34.61   55.76   49.87  -26.02   56.25  332.44
H15   60.15   60.63   11.52   82.18    4.10   65.48   65.62   86.42
H16    7.77    8.00    6.61   33.98    0.61   -0.06    0.74  191.56
H17   29.06   20.31    7.71   52.18   41.38   26.79   49.29   32.92
H18   15.95   25.13   10.45   57.21  -41.02   25.76   48.43  147.88
H19   11.45    9.96   26.39   37.77   14.02  -44.11   46.28  287.64
H20   42.52   44.03   18.25   72.24    0.26   31.17   31.17   89.53
H21   33.62   35.25   24.42   65.93   -1.18    7.97    8.06   98.43
H22   35.72   39.44   13.02   69.07   -7.49   38.58   39.30  100.99
I1     4.05    4.09    5.56   23.95    1.55  -12.52   12.62  277.05
I2     4.14    4.10    8.44   23.99    2.72  -24.61   24.76  276.32
I3     4.31    4.24   11.81   24.44    3.13  -34.91   35.06  275.12
I4     4.47    4.28   15.68   24.59    4.58  -45.05   45.28  275.80
I5    13.82   14.33   14.91   44.69    0.10   -8.44    8.44  270.66
I6    13.91   14.26   19.18   44.59    1.09  -18.53   18.57  273.35
I7    13.98   14.16   23.71   44.45    2.15  -27.79   27.87  274.45
I8    14.66   14.69   28.60   45.20    3.12  -35.00   35.13  275.09
I9    38.60   40.25   36.80   69.65   -0.62   -5.17    5.21  263.11
I10   39.11   40.70   41.18   69.96   -0.37  -10.47   10.48  267.99
I11   39.94   41.35   46.56   70.42    0.25  -16.31   16.31  270.90
I12   40.22   41.53   51.01   70.54    0.62  -21.22   21.22  271.66
I13   19.86   29.69   43.99   61.38  -38.22  -28.78   47.84  216.99
I14   32.03   20.05   30.97   51.89   53.75  -27.26   60.28  333.10
I15   58.68   58.61    9.16   81.07    5.34   71.21   71.42   85.71
I16    5.48    5.56    4.81   28.27    1.45   -1.21    1.90  321.80
I17   25.59   16.96    5.41   48.21   44.61   30.02   53.77   33.94
I18   12.91   21.51    7.94   53.51  -43.76   28.17   52.05  147.23
I19    8.62    7.00   22.55   31.81   17.51  -47.39   50.52  290.29
I20   42.82   47.49   19.38   74.51   -8.58   32.62   33.74  104.73
I21   12.33   16.49    4.55   47.61  -22.30   33.57   40.29  123.60
I22   29.65   37.94   20.41   67.98  -24.47   19.22   31.11  141.86
J1     2.01    1.81    2.99   14.46    6.15  -13.72   15.03  294.15
J2     2.32    1.83    4.88   14.59   12.49  -25.19   28.12  296.38
J3     2.81    1.89    7.98   14.91   20.63  -38.53   43.71  298.16
J4     3.09    1.88   10.65   14.83   25.94  -47.96   54.52  298.40
J5    11.20   10.92   12.14   39.46    4.99   -9.99   11.17  296.54
J6    11.85   10.83   15.44   39.29   10.28  -19.10   21.68  298.29
J7    12.42   10.65   19.94   38.97   15.61  -29.83   33.67  297.61
J8    13.23   10.89   23.05   39.38   19.17  -35.29   40.16  298.52
J9    39.80   40.62   37.40   69.91    2.06   -5.57    5.93  290.30
J10   41.02   41.00   41.50   70.18    4.65  -10.50   11.48  293.87
J11   42.28   41.15   46.28   70.28    8.02  -16.22   18.10  296.31
J12   43.01   40.84   50.34   70.06   11.13  -21.28   24.02  297.60
J13   14.49   23.27   38.65   55.35  -41.65  -32.35   52.75  217.83
J14   27.21   15.65   26.10   46.51   58.54  -28.51   65.12  334.04
J15   56.54   55.79    6.78   79.49    6.95   77.65   77.96   84.88
J16    2.77    2.85    2.54   19.42    0.47   -1.58    1.66  285.58
J17   20.90   12.76    3.06   42.40   48.71   33.96   59.38   34.89
J18    7.95   15.15    4.72   45.83  -48.90   29.49   57.10  148.90
J19    5.38    3.92   17.58   23.42   21.16  -51.51   55.69  292.34
J20   31.61   40.28   26.78   69.68  -24.44   10.24   26.50  157.26
J21    4.18    7.86    1.59   33.68  -38.47   32.06   50.07  140.19
J22    1.08    1.78    0.88   14.26  -18.58    8.28   20.34  155.98
K1     4.93    4.14    4.97   24.15   12.49   -9.23   15.53  323.55
K2     5.99    4.16    7.10   24.19   24.81  -19.02   31.26  322.52
K3     7.37    4.30    9.69   24.62   37.14  -27.93   46.47  323.04
K4     8.55    4.43   12.66   25.02   46.12  -36.36   58.72  321.76
K5    15.17   14.00   14.51   44.23   10.34   -8.26   13.24  321.40
K6    16.89   13.74   17.85   43.86   21.78  -16.88   27.56  322.23
K7    19.31   14.12   22.17   44.41   32.14  -24.92   40.66  322.21
K8    22.05   14.41   27.01   44.83   43.64  -33.00   54.71  322.90
K9    41.40   40.97   36.92   70.16    5.86   -4.45    7.36  322.76
K10   43.81   40.97   40.81   70.15   13.09   -9.68   16.28  323.54
K11   47.15   42.11   46.11   70.95   19.22  -14.88   24.31  322.26
K12   49.39   42.22   49.29   71.02   25.03  -18.45   31.10  323.60
K13   11.99   19.95   35.49   51.78  -42.56  -34.14   54.56  218.74
K14   22.30   11.73   20.99   40.78   62.24  -28.86   68.60  335.12
K15   48.72   45.86    2.93   73.45   12.74   88.44   89.36   81.80
K16    1.34    1.38    1.11   11.88   -0.02    0.48    0.49   90.22
K17   17.22    9.89    1.44   37.65   50.35   40.61   64.69   38.89
K18    4.74   10.00    2.26   37.83  -48.80   32.46   58.61  146.38
K19    3.51    2.17   13.50   16.35   26.19  -53.64   59.69  296.03
K20    2.52    3.28    2.27   21.12  -11.70    3.66   12.26  162.67
K21    1.29    1.75    1.66   14.15  -11.20   -2.45   11.46  192.32
K22    1.72    2.18    3.48   16.43   -9.16  -13.73   16.51  236.27
L1     3.59    2.95    2.83   19.81   12.67   -3.26   13.08  345.58
L2     4.32    2.95    3.09   19.86   23.08   -5.11   23.64  347.52
L3     5.82    3.43    4.03   21.69   33.69   -8.13   34.67  346.43
L4     6.41    3.66    4.79   22.52   36.49  -11.02   38.11  343.20
L5    12.52   10.85   10.22   39.32   14.83   -4.36   15.45  343.64
L6    15.30   11.27   11.53   40.02   29.20   -7.22   30.08  346.12
L7    18.17   11.28   12.25   40.04   45.13   -9.30   46.08  348.36
L8    19.98   11.64   13.07   40.64   51.75  -10.57   52.82  348.46
L9    42.57   41.60   35.97   70.59    7.54   -2.39    7.91  342.40
L10   44.63   41.53   37.02   70.55   13.76   -3.93   14.32  344.08
L11   47.89   42.12   37.77   70.95   21.22   -4.26   21.63  348.66
L12   49.62   41.62   38.96   70.61   27.40   -6.45   28.15  346.76
L13    7.98   13.84   28.85   43.99  -40.67  -37.50   55.32  222.68
L14   17.60    8.52   16.40   35.06   63.62  -28.72   69.81  335.71
L15   45.22   41.72    2.45   70.68   14.89   87.57   88.83   80.35
L16    0.50    0.50    0.58    4.60    0.31   -3.03    3.05  275.90
L17   13.20    7.06    0.81   31.93   51.14   39.79   64.80   37.89
L18    2.89    6.74    1.61   31.20  -48.15   27.56   55.47  150.21
L19    2.05    1.00    9.22    8.97   31.02  -53.31   61.67  300.20
L20    0.71    0.83    0.80    7.49   -3.73   -2.18    4.32  210.24
L21    0.94    0.85    0.94    7.70    4.66   -4.06    6.18  319.02
L22    2.25    1.75    1.62   14.15   12.90   -1.95   13.05  351.40
GS0    76.34   78.92   68.15   91.19    0.58   -2.88    2.93  281.37
GS1    71.62   73.96   62.91   88.90    0.71   -1.88    2.01  290.63
GS2    61.35   63.31   53.89   83.61    0.78   -1.83    1.98  293.12
GS3    52.76   54.51   46.24   78.76    0.57   -1.56    1.65  290.11
GS4    47.29   49.19   40.61   75.57   -0.33   -0.07    0.37  189.58
GS5    40.71   42.37   35.00   71.12   -0.40   -0.09    0.41  193.87
GS6    34.89   36.26   29.86   66.71   -0.21    0.06    0.23  171.45
GS7    30.56   31.75   26.30   63.13   -0.16   -0.21    0.38  208.67
GS8    26.27   27.26   22.66   59.22   -0.01   -0.34    0.36  262.21
GS9    22.77   23.67   19.71   55.75   -0.12   -0.43    0.47  249.35
GS10   19.75   20.71   17.40   52.63   -1.05   -0.75    1.32  214.77
GS11   16.01   16.66   14.07   47.82   -0.29   -0.91    0.96  251.92
GS12   12.90   13.48   11.51   43.46   -0.58   -1.23    1.37  244.82
GS13   10.19   10.59    9.02   38.88   -0.11   -1.03    1.05  262.64
GS14    8.33    8.66    7.25   35.32   -0.13   -0.45    0.52  248.21
GS15    6.68    6.89    5.79   31.55    0.38   -0.54    0.66  304.43
GS16    5.24    5.38    4.48   27.77    0.82   -0.28    0.87  341.00
GS17    3.85    3.96    3.43   23.55    0.43   -1.14    1.22  290.45
GS18    2.63    2.74    2.39   19.01   -0.24   -1.11    1.14  257.62
GS19    1.87    1.95    1.57   15.24   -0.30    0.54    0.62  118.06
GS20    1.28    1.34    0.98   11.54   -0.22    1.82    1.84   96.91
GS21    1.04    1.10    0.76    9.77   -0.28    2.48    2.49   96.23
GS22    0.82    0.84    0.64    7.56    0.53    0.84    1.00   57.11
GS23    0.44    0.45    0.54    4.09    0.40   -3.20    3.22  277.18
END_DATA
