lprof/data/targets/Agfa/Reflective/C81232XX.it8
IT8.7/2
ORIGINATOR "FotoTune"
DESCRIPTOR "Agfa IT8"
MATERIAL "Agfacolor"
MANUFACTURER "Agfa"
CREATED "Mon Apr 26 12:28:30 1999"
PROD_DATE "1999:04"
SERIAL "5x7 c81232xx"
NUMBER_OF_FIELDS 9
BEGIN_DATA_FORMAT
SAMPLE_ID XYZ_X XYZ_Y XYZ_Z LAB_L LAB_A LAB_B LAB_C LAB_H
END_DATA_FORMAT
NUMBER_OF_SETS 288
BEGIN_DATA
A1     3.14    2.62    2.12   18.48   11.19    0.44   11.20    2.23
A2     3.77    2.62    1.66   18.42   21.31    4.94   21.88   13.07
A3     5.10    3.06    1.70   20.28   31.24    7.75   32.19   13.93
A4     5.30    3.16    1.83   20.69   32.04    7.02   32.81   12.35
A5    11.06    9.70    7.78   37.30   13.19    0.85   13.22    3.66
A6    13.37   10.01    6.61   37.85   26.74    6.59   27.53   13.85
A7    15.92   10.23    5.77   38.26   40.41   11.14   41.92   15.40
A8    18.42   10.56    5.29   38.83   51.62   14.48   53.62   15.66
A9    41.06   40.15   33.62   69.57    7.39   -0.76    7.43  354.11
A10   43.59   40.62   32.20   69.91   13.48    1.92   13.61    8.11
A11   47.01   41.33   30.94   70.41   21.12    4.73   21.65   12.65
A12   47.44   39.89   28.78   69.39   26.71    6.40   27.47   13.49
A13   75.67   78.35   68.15   90.94    0.32   -3.32    3.34  275.40
A14   75.92   78.09   68.06   90.82    1.34   -3.43    3.68  291.14
A15   75.81   78.35   66.10   90.94    0.57   -1.40    1.52  291.78
A16   74.86   77.29   65.82   90.45    0.76   -1.99    2.13  290.82
A17   75.48   77.71   66.05   90.65    1.18   -1.87    2.22  302.24
A18   75.26   77.97   66.25   90.77    0.23   -1.85    1.88  276.96
A19   74.97   77.26   67.69   90.44    1.06   -3.76    3.91  285.62
A20    1.31    1.03    0.62    9.30   10.28    4.20   11.11   22.25
A21    4.78    2.88    0.69   19.59   30.33   20.71   36.72   34.32
A22    9.12    4.99    0.72   26.72   43.74   32.53   54.51   36.65
B1     2.99    2.62    1.58   18.43    8.59    5.82   10.39   34.15
B2     3.62    2.74    0.83   18.96   16.78   17.00   23.89   45.37
B3     4.40    2.95    0.75   19.84   24.20   19.97   31.38   39.53
B4     4.93    3.20    0.75   20.82   26.98   21.72   34.63   38.83
B5    11.34    9.93    5.84   37.72   13.46    9.90   16.71   36.32
B6    13.41   10.24    4.00   38.28   25.13   20.65   32.53   39.40
B7    15.74   10.28    2.35   38.35   39.03   32.65   50.89   39.91
B8    17.40   10.39    1.53   38.53   47.53   41.06   62.82   40.83
B9    40.82   40.28   30.55   69.67    6.25    4.05    7.44   32.93
B10   43.08   40.60   27.58   69.90   12.02    9.27   15.18   37.67
B11   46.51   41.60   25.03   70.60   18.92   14.88   24.08   38.18
B12   47.51   41.28   22.35   70.37   22.70   19.46   29.91   40.60
B13   66.58   71.89   66.32   87.91   -5.89   -6.84    9.02  229.27
B14   70.67   69.17   64.59   86.59    8.66   -7.49   11.46  319.14
B15   73.18   76.11   53.63   89.92   -0.38    9.33    9.33   92.33
B16   58.96   60.66   51.96   82.19    1.21   -2.16    2.48  299.20
B17   67.74   66.90   51.63   85.45    7.26    3.81    8.20   27.67
B18   63.83   69.46   52.96   86.73   -6.99    4.56    8.35  146.89
B19   61.59   62.89   62.37   83.38    2.30  -10.88   11.12  281.90
B20    2.94    2.03    0.69   15.61   19.93   13.89   24.29   34.86
B21    7.97    4.48    0.73   25.22   40.21   29.84   50.08   36.58
B22   29.12   24.92   14.18   56.99   20.86   14.64   25.49   35.05
C1     4.02    3.84    2.26   23.11    4.84    7.14    8.61   55.85
C2     4.36    3.91    1.25   23.40    8.41   18.33   20.18   65.34
C3     5.07    4.24    0.94   24.43   13.16   24.62   27.92   61.88
C4     5.15    4.30    0.96   24.62   13.32   24.67   28.03   61.62
C5    22.42   21.73   10.74   53.74    6.89   18.87   20.08   69.93
C6    24.90   21.98    5.68   54.00   16.73   38.69   42.15   66.62
C7    26.16   21.59    2.43   53.58   23.79   58.22   62.89   67.77
C8    28.40   22.42    1.74   54.46   29.03   66.18   72.26   66.31
C9    47.20   47.83   33.60   74.72    3.09    8.13    8.69   69.26
C10   50.01   49.03   27.83   75.47    7.51   18.45   19.93   67.85
C11   52.88   50.43   23.39   76.32   11.35   27.78   30.01   67.76
C12   52.63   48.92   18.89   75.40   14.72   35.22   38.17   67.32
C13   56.30   63.92   63.46   83.92  -12.72  -11.01   16.83  220.90
C14   64.21   59.17   59.91   81.39   16.92  -11.89   20.67  324.89
C15   70.93   73.90   44.25   88.88   -0.64   18.30   18.31   92.01
C16   44.54   46.07   39.02   73.59    0.42   -1.39    1.46  286.42
C17   59.67   55.85   40.40   79.52   14.41    7.03   16.03   25.99
C18   52.24   60.19   42.81   81.94  -14.47    8.11   16.59  150.70
C19   47.96   48.54   55.73   75.16    3.26  -18.33   18.62  280.08
C20    1.83    1.51    0.70   12.69    9.82    8.60   13.06   41.19
C21   22.71   17.34    5.79   48.69   29.99   29.02   41.74   44.06
C22   35.81   33.22   20.97   64.33   13.20   11.78   17.69   41.74
D1     3.78    3.93    2.34   23.44   -0.08    6.94    6.94   90.58
D2     3.86    4.05    1.31   23.82   -0.62   18.35   18.35   91.93
D3     4.26    4.33    1.03   24.73    1.13   23.76   23.80   87.26
D4     4.28    4.38    1.05   24.89    0.85   23.68   23.69   87.94
D5    25.61   27.15   13.91   59.11   -2.29   19.00   19.14   96.87
D6    24.95   26.74    8.05   58.74   -3.49   36.78   36.94   95.42
D7    25.60   27.53    4.03   59.46   -3.84   56.93   57.05   93.86
D8    24.37   25.49    2.12   57.55   -0.87   67.76   67.76   90.74
D9    53.70   56.49   38.05   79.90   -1.89   10.78   10.94   99.99
D10   56.18   58.75   32.09   81.15   -1.06   21.47   21.50   92.83
D11   56.06   59.28   26.27   81.45   -2.66   31.42   31.52   94.83
D12   56.39   59.79   21.78   81.72   -3.04   40.15   40.28   94.33
D13   47.38   56.51   60.35   79.90  -18.77  -14.89   23.96  218.43
D14   57.71   49.89   54.73   76.00   24.88  -15.84   29.49  327.52
D15   68.88   71.70   35.83   87.82   -0.50   27.51   27.51   91.03
D16   32.56   33.76   28.78   64.77    0.05   -1.57    1.57  271.95
D17   51.97   46.01   30.64   73.56   20.96   10.62   23.49   26.88
D18   41.58   50.96   33.38   76.65  -21.56   11.80   24.57  151.32
D19   36.68   36.61   48.91   66.99    4.66  -24.98   25.41  280.57
D20   14.20   10.86    3.51   39.34   25.54   25.55   36.13   45.01
D21   23.09   22.44   14.72   54.50    6.68    8.92   11.15   53.17
D22   39.99   38.94   24.57   68.71    7.81   12.46   14.71   57.93
E1     3.52    4.01    2.43   23.68   -5.21    6.72    8.50  127.81
E2     3.16    3.95    1.38   23.49  -10.23   16.85   19.70  121.26
E3     3.33    4.34    1.13   24.77  -12.85   22.44   25.87  119.81
E4     3.32    4.37    1.14   24.86  -13.32   22.49   26.14  120.65
E5    11.91   13.64    7.66   43.71   -8.30   12.35   14.87  123.90
E6    11.13   13.98    5.16   44.20  -16.02   24.39   29.18  123.29
E7    10.34   14.18    2.82   44.50  -23.17   39.35   45.66  120.49
E8    10.14   14.52    1.95   44.98  -26.88   47.76   54.82  119.38
E9    36.33   39.69   27.23   69.25   -6.28    8.74   10.76  125.68
E10   35.86   40.52   24.12   69.84  -10.34   15.22   18.40  124.20
E11   35.20   41.17   20.78   70.30  -14.57   22.44   26.76  122.98
E12   34.21   41.51   17.49   70.54  -19.01   29.91   35.43  122.43
E13   40.53   50.47   57.35   76.36  -23.51  -17.97   29.59  217.40
E14   52.49   42.97   50.31   71.53   31.04  -18.73   36.25  328.90
E15   66.32   68.68   26.98   86.35    0.26   38.65   38.65   89.61
E16   24.35   25.22   20.93   57.28    0.19   -0.29    0.35  305.89
E17   45.60   38.47   22.49   68.36   26.00   15.74   30.40   31.20
E18   33.02   42.98   25.49   71.54  -27.47   15.69   31.64  150.26
E19   28.81   28.39   43.24   60.24    5.69  -29.83   30.37  280.80
E20   22.97   15.84    1.34   46.77   39.42   57.62   69.82   55.62
E21   17.60   14.73    3.45   45.26   19.61   36.19   41.17   61.54
E22   30.01   26.45   10.03   58.47   17.92   29.27   34.33   58.53
F1     1.38    1.72    1.23   13.97   -7.84    2.49    8.23  162.40
F2     1.21    1.88    1.03   14.87  -16.80    6.72   18.08  158.21
F3     1.20    2.16    1.00   16.26  -23.48    9.65   25.39  157.66
F4     1.35    2.56    1.16   18.19  -26.88   10.66   28.92  158.36
F5     6.56    8.17    6.04   34.34  -12.81    3.12   13.18  166.32
F6     5.43    8.27    5.27   34.55  -26.26    7.15   27.22  164.76
F7     4.39    8.26    4.44   34.53  -39.25   11.61   40.93  163.51
F8     3.22    7.69    3.80   33.35  -51.71   13.41   53.42  165.46
F9    35.80   39.46   31.67   69.08   -7.31    1.30    7.42  169.91
F10   35.10   40.47   31.19   69.80  -12.77    3.29   13.19  165.55
F11   33.75   40.83   30.24   70.06  -18.49    5.22   19.20  164.24
F12   32.31   41.24   28.86   70.33  -24.80    7.90   26.03  162.32
F13   34.49   44.83   54.24   72.79  -27.73  -20.86   34.71  216.96
F14   47.56   36.86   45.90   67.18   36.61  -21.12   42.26  330.02
F15   64.72   66.67   22.05   85.34    1.05   45.86   45.88   88.68
F16   18.09   18.69   15.67   50.33    0.38   -0.63    0.74  302.03
F17   40.40   32.49   16.92   63.76   30.42   19.54   36.15   32.71
F18   27.17   37.17   19.73   67.40  -31.62   19.64   37.22  148.16
F19   22.52   21.65   38.00   53.65    7.75  -34.39   35.26  282.70
F20   27.58   26.89   14.83   58.87    6.76   16.19   17.55   67.32
F21   34.80   32.57   13.33   63.82   12.02   28.67   31.09   67.25
F22   38.96   37.56   19.18   67.69    8.94   21.30   23.10   67.22
G1     2.14    2.67    2.67   18.66   -8.80   -3.98    9.66  204.36
G2     1.90    2.84    3.04   19.36  -17.25   -5.61   18.14  198.03
G3     1.78    3.13    3.55   20.57  -25.41   -7.02   26.35  195.44
G4     1.95    3.55    3.90   22.13  -28.06   -6.62   28.84  193.29
G5     8.92   10.85    9.68   39.33  -12.36   -2.55   12.62  191.63
G6     7.65   10.90   10.31   39.40  -23.95   -4.49   24.37  190.62
G7     6.23   10.69   10.65   39.06  -36.59   -6.15   37.10  189.54
G8     5.26   10.84   11.56   39.31  -48.75   -8.54   49.49  189.93
G9    35.25   39.03   32.51   68.77   -7.82   -0.50    7.84  183.65
G10   33.90   39.51   34.35   69.12  -13.95   -2.61   14.19  190.62
G11   32.75   40.11   35.11   69.55  -19.87   -2.97   20.09  188.49
G12   31.66   41.00   36.92   70.18  -26.47   -4.41   26.83  189.46
G13   28.29   38.72   50.46   68.55  -32.13  -24.03   40.12  216.79
G14   41.21   29.56   40.01   61.27   43.62  -23.94   49.76  331.24
G15   62.27   63.43   15.69   83.67    2.63   56.80   56.86   87.35
G16   11.71   12.09   10.17   41.36    0.40   -0.66    0.77  303.02
G17   34.09   25.50   11.73   57.56   36.53   22.44   42.88   31.56
G18   20.80   30.54   14.64   62.12  -36.83   22.29   43.05  148.82
G19   15.85   14.58   31.47   45.05   10.76  -39.83   41.26  285.11
G20   37.41   36.98   17.67   67.26    5.85   23.90   24.60   76.24
G21   35.49   34.94   11.32   65.71    6.18   37.69   38.19   80.69
G22   43.82   41.03    3.03   70.20   12.92   82.07   83.08   81.05
H1     2.37    2.70    3.32   18.83   -4.74   -8.44    9.69  240.73
H2     2.22    2.88    4.45   19.52  -10.74  -14.34   17.92  233.15
H3     1.98    2.81    5.58   19.28  -15.03  -20.68   25.58  234.00
H4     2.33    3.36    7.11   21.42  -16.69  -23.83   29.10  234.98
H5     9.70   11.06   12.00   39.68   -7.38   -9.20   11.80  231.30
H6     8.93   11.26   15.05   40.01  -15.19  -16.85   22.69  227.98
H7     7.80   10.94   18.70   39.48  -22.83  -26.32   34.83  229.07
H8     7.31   11.03   22.42   39.64  -28.12  -33.64   43.85  230.11
H9    36.06   39.44   36.20   69.07   -6.40   -5.34    8.34  219.79
H10   35.36   39.80   40.22   69.32   -9.84  -10.32   14.26  226.39
H11   35.36   41.14   47.07   70.27  -13.91  -17.17   22.10  231.01
H12   34.58   41.11   50.90   70.26  -16.50  -21.58   27.16  232.60
H13   23.62   33.85   47.19   64.85  -35.58  -26.65   44.46  216.83
H14   35.38   23.36   34.43   55.44   50.09  -26.31   56.58  332.29
H15   60.16   60.59   11.48   82.15    4.22   65.57   65.70   86.32
H16    7.72    7.89    6.68   33.76    1.04   -0.74    1.29  325.60
H17   28.65   19.92    7.61   51.75   41.69   26.41   49.35   32.35
H18   15.93   25.13   10.39   57.20  -41.08   25.93   48.58  147.74
H19   11.31    9.78   26.24   37.46   14.37  -44.37   46.64  287.94
H20   41.97   43.34   18.28   71.79    0.61   30.30   30.31   88.85
H21   33.35   34.89   24.65   65.66   -1.00    7.07    7.14   98.01
H22   35.47   39.07   13.10   68.80   -7.22   37.87   38.56  100.79
I1     3.91    3.93    5.45   23.45    1.71  -12.90   13.01  277.54
I2     4.01    3.97    8.41   23.56    2.74  -25.26   25.40  276.21
I3     4.15    4.07   11.63   23.90    3.38  -35.32   35.49  275.47
I4     4.37    4.15   15.59   24.17    5.12  -45.50   45.79  276.42
I5    13.59   14.08   14.94   44.35    0.14   -9.14    9.14  270.90
I6    13.81   14.09   19.23   44.35    1.44  -19.05   19.10  274.33
I7    13.76   13.91   23.60   44.10    2.22  -28.17   28.26  274.51
I8    14.26   14.26   28.39   44.60    3.26  -35.69   35.83  275.22
I9    37.78   39.30   36.70   68.97   -0.32   -6.21    6.22  267.07
I10   38.48   39.97   41.31   69.45   -0.12  -11.52   11.52  269.36
I11   39.11   40.32   46.35   69.69    0.81  -17.31   17.33  272.65
I12   39.24   40.39   50.50   69.74    0.99  -22.01   22.03  272.58
I13   19.69   29.51   43.97   61.24  -38.43  -29.03   48.17  217.07
I14   31.46   19.50   30.53   51.26   54.33  -27.64   60.96  333.04
I15   58.55   58.41    9.02   80.96    5.52   71.53   71.74   85.59
I16    5.29    5.36    4.66   27.74    1.44   -1.34    1.97  317.45
I17   25.15   16.58    5.24   47.72   44.85   30.02   53.97   33.79
I18   12.76   21.33    7.72   53.31  -43.85   28.69   52.41  146.81
I19    8.49    6.85   22.36   31.44   18.02  -47.65   50.95  290.71
I20   42.57   47.07   19.33   74.24   -8.15   32.25   33.26  104.18
I21   12.31   16.53    4.49   47.67  -22.64   33.96   40.81  123.69
I22   29.38   37.64   20.45   67.76  -24.51   18.74   30.85  142.60
J1     1.92    1.73    2.97   14.00    6.24  -14.35   15.65  293.53
J2     2.26    1.78    4.82   14.31   12.44  -25.35   28.24  296.14
J3     2.74    1.84    7.92   14.60   20.72  -38.83   44.01  298.09
J4     3.01    1.81   10.53   14.45   26.13  -48.22   54.85  298.45
J5    10.98   10.68   12.12   39.03    5.16  -10.66   11.84  295.80
J6    11.64   10.60   15.47   38.90   10.41  -19.81   22.38  297.72
J7    12.17   10.37   19.74   38.50   15.96  -30.24   34.19  297.83
J8    13.02   10.65   22.95   38.97   19.60  -35.81   40.83  298.70
J9    39.07   39.87   37.12   69.38    2.03   -6.09    6.42  288.47
J10   40.25   40.18   41.47   69.60    4.76  -11.46   12.41  292.54
J11   41.12   39.88   45.74   69.38    8.40  -17.12   19.08  296.11
J12   42.28   40.22   50.12   69.62   10.83  -21.80   24.34  296.40
J13   14.09   22.76   38.19   54.82  -41.88  -32.64   53.10  217.93
J14   26.81   15.34   25.78   46.09   58.75  -28.70   65.39  333.96
J15   56.40   55.56    6.68   79.36    7.18   77.90   78.22   84.74
J16    2.59    2.66    2.43   18.62    0.70   -2.09    2.20  288.38
J17   20.46   12.41    3.01   41.87   48.82   33.43   59.17   34.40
J18    7.84   14.99    4.73   45.62  -49.03   29.12   57.03  149.29
J19    5.24    3.78   17.27   22.90   21.68  -51.72   56.08  292.74
J20   31.31   39.97   26.92   69.44  -24.56    9.60   26.38  158.64
J21    4.07    7.64    1.52   33.23  -38.10   32.03   49.78  139.95
J22    1.08    1.75    0.86   14.14  -17.99    8.34   19.83  155.12
K1     4.88    4.07    5.02   23.92   12.88   -9.88   16.23  322.53
K2     5.91    4.06    7.16   23.85   25.39  -19.86   32.24  321.96
K3     7.34    4.27    9.84   24.52   37.25  -28.62   46.97  322.46
K4     8.48    4.39   12.76   24.91   46.01  -36.85   58.95  321.32
K5    15.12   13.96   14.73   44.17   10.30   -8.88   13.60  319.24
K6    16.81   13.66   18.11   43.74   21.89  -17.69   28.14  321.07
K7    19.01   13.85   22.17   44.01   32.39  -25.61   41.29  321.66
K8    21.74   14.21   26.93   44.53   43.50  -33.38   54.83  322.50
K9    41.17   40.78   37.37   70.01    5.78   -5.32    7.86  317.33
K10   43.78   40.97   41.03   70.15   13.02   -9.94   16.39  322.63
K11   46.92   41.89   46.33   70.79   19.24  -15.41   24.65  321.31
K12   49.17   41.99   49.42   70.86   25.08  -18.87   31.39  323.06
K13   11.88   19.81   35.35   51.62  -42.62  -34.22   54.66  218.76
K14   22.03   11.55   20.86   40.50   62.19  -29.10   68.66  334.93
K15   48.72   45.78    2.93   73.40   12.93   88.39   89.33   81.67
K16    1.28    1.34    1.07   11.49    0.09    0.44    0.46   76.50
K17   16.98    9.73    1.43   37.35   50.33   40.24   64.44   38.65
K18    4.72    9.94    2.24   37.74  -48.71   32.47   58.54  146.30
K19    3.45    2.11   13.38   16.06   26.51  -53.79   59.97  296.24
K20    2.51    3.28    2.28   21.14  -11.90    3.51   12.41  163.58
K21    1.29    1.75    1.65   14.14  -11.14   -2.36   11.38  191.96
K22    1.69    2.14    3.45   16.20   -8.81  -13.93   16.48  237.71
L1     3.57    2.92    2.88   19.73   12.83   -3.75   13.37  343.69
L2     4.36    2.97    3.13   19.92   23.34   -5.32   23.94  347.17
L3     5.74    3.38    4.01   21.47   33.76   -8.39   34.79  346.04
L4     6.38    3.65    4.86   22.47   36.41  -11.51   38.19  342.45
L5    12.46   10.81   10.42   39.26   14.66   -5.11   15.52  340.77
L6    15.30   11.27   11.74   40.01   29.27   -7.86   30.31  344.98
L7    17.85   10.98   12.31   39.55   45.53  -10.31   46.68  347.23
L8    19.64   11.37   13.06   40.19   52.01  -11.32   53.23  347.72
L9    42.35   41.36   36.19   70.43    7.61   -2.99    8.18  338.52
L10   44.68   41.67   37.29   70.64   13.51   -4.14   14.13  342.96
L11   47.92   42.12   38.07   70.94   21.35   -4.67   21.85  347.65
L12   49.71   41.65   39.24   70.62   27.58   -6.79   28.40  346.17
L13    8.15   14.09   29.22   44.36  -40.75  -37.44   55.35  222.58
L14   17.39    8.42   16.32   34.84   63.43  -28.90   69.71  335.50
L15   45.25   41.72    2.39   70.68   14.99   87.99   89.26   80.33
L16    0.50    0.51    0.57    4.61    0.45   -2.77    2.81  279.28
L17   13.12    7.02    0.80   31.85   50.96   39.95   64.75   38.10
L18    2.95    6.80    1.55   31.35  -47.79   28.49   55.64  149.21
L19    2.05    1.00    9.18    8.92   31.15  -53.26   61.70  300.32
L20    0.72    0.83    0.80    7.54   -3.47   -1.99    4.01  209.96
L21    0.94    0.85    0.93    7.69    4.74   -3.97    6.18  320.08
L22    2.30    1.78    1.64   14.28   13.26   -1.96   13.40  351.62
GS0    76.57   79.01   68.65   91.24    0.84   -3.25    3.36  284.36
GS1    71.69   73.75   63.36   88.81    1.28   -2.49    2.81  297.15
GS2    60.97   62.54   54.15   83.20    1.65   -2.82    3.27  300.41
GS3    52.54   54.10   46.83   78.52    1.04   -2.66    2.86  291.34
GS4    47.04   48.72   41.04   75.28    0.25   -1.14    1.16  282.22
GS5    40.56   42.07   35.69   70.92    0.05   -1.43    1.43  272.01
GS6    34.79   36.20   30.20   66.68   -0.33   -0.55    0.64  239.26
GS7    30.36   31.65   26.54   63.05   -0.53   -0.77    0.95  234.77
GS8    25.93   27.02   22.69   58.99   -0.45   -0.80    0.91  240.36
GS9    22.50   23.47   19.80   55.56   -0.55   -0.94    1.10  238.95
GS10   19.67   20.61   17.41   52.51   -0.93   -0.97    1.35  226.11
GS11   15.71   16.35   14.14   47.44   -0.28   -1.73    1.75  260.78
GS12   12.60   13.18   11.31   43.03   -0.64   -1.36    1.50  244.68
GS13    9.95   10.33    8.93   38.43   -0.06   -1.50    1.51  267.32
GS14    8.15    8.45    7.14   34.92   -0.00   -0.69    0.73  268.50
GS15    6.62    6.81    5.74   31.36    0.63   -0.64    0.90  314.52
GS16    5.16    5.28    4.49   27.53    0.85   -0.74    1.13  319.74
GS17    3.77    3.88    3.40   23.29    0.43   -1.41    1.48  286.92
GS18    2.62    2.72    2.41   18.88   -0.08   -1.50    1.52  266.83
GS19    1.82    1.89    1.58   14.92   -0.19   -0.19    0.27  232.14
GS20    1.25    1.29    0.97   11.22   -0.13    1.58    1.59   94.52
GS21    1.01    1.05    0.74    9.43   -0.12    2.43    2.44   93.01
GS22    0.81    0.81    0.62    7.37    0.75    0.91    1.18   50.71
GS23    0.45    0.45    0.53    4.09    0.46   -2.89    2.93  279.10
END_DATA
