lprof/data/targets/Agfa/Reflective/C81246XX.it8
IT8.7/2
ORIGINATOR "FotoTune"
DESCRIPTOR "Agfa IT8"
MATERIAL "Agfacolor"
MANUFACTURER "Agfa"
CREATED "Mon Apr 12 13:28:30 1999"
PROD_DATE "1999:04"
SERIAL "5x7 c81246xx"
NUMBER_OF_FIELDS 9
BEGIN_DATA_FORMAT
SAMPLE_ID XYZ_X XYZ_Y XYZ_Z LAB_L LAB_A LAB_B LAB_C LAB_H
END_DATA_FORMAT
NUMBER_OF_SETS 288
BEGIN_DATA
A1     3.09    2.59    1.96   18.31   10.82    1.64   10.94    8.62
A2     3.67    2.55    1.52   18.13   21.08    6.02   21.92   15.92
A3     4.88    2.92    1.54   19.71   31.03    8.55   32.19   15.41
A4     5.11    3.03    1.63   20.15   32.02    8.23   33.07   14.42
A5    10.68    9.28    7.02   36.52   13.69    2.60   13.93   10.74
A6    12.99    9.68    6.03   37.26   26.81    8.19   28.03   17.00
A7    15.77   10.09    5.28   37.99   40.78   13.06   42.82   17.76
A8    18.25   10.44    4.84   38.62   51.65   16.44   54.20   17.65
A9    39.65   38.52   31.56   68.40    8.07    0.32    8.07    2.26
A10   42.47   39.06   30.30   68.79   15.00    2.95   15.28   11.14
A11   45.71   39.85   29.19   69.36   21.99    5.69   22.71   14.49
A12   46.00   38.32   26.88   68.26   27.55    7.62   28.58   15.47
A13   75.22   78.00   67.53   90.77    0.10   -3.03    3.03  271.92
A14   75.46   77.70   67.39   90.64    1.16   -3.13    3.34  290.41
A15   75.29   77.93   65.21   90.75    0.38   -0.91    0.99  292.16
A16   74.33   76.82   64.92   90.24    0.60   -1.50    1.62  291.49
A17   74.93   77.24   65.17   90.43    1.01   -1.41    1.74  305.53
A18   74.85   77.64   65.44   90.62    0.05   -1.37    1.37  271.92
A19   74.58   76.93   67.11   90.29    0.92   -3.49    3.61  284.80
A20    1.27    0.99    0.60    8.90   10.62    4.05   11.36   20.85
A21    4.68    2.80    0.67   19.26   30.38   20.50   36.65   34.02
A22    8.91    4.84    0.69   26.28   43.85   32.28   54.44   36.36
B1     2.94    2.61    1.50   18.39    8.09    6.63   10.46   39.31
B2     3.55    2.67    0.80   18.70   16.72   17.20   23.99   45.81
B3     4.32    2.89    0.73   19.60   24.15   20.01   31.36   39.65
B4     4.82    3.12    0.73   20.53   26.76   21.60   34.39   38.91
B5    11.10    9.65    5.22   37.21   13.94   12.02   18.40   40.78
B6    13.22   10.07    3.74   37.97   25.16   21.74   33.25   40.83
B7    15.49   10.09    2.15   37.99   39.08   33.79   51.67   40.84
B8    17.39   10.37    1.44   38.49   47.65   42.10   63.59   41.46
B9    39.68   38.97   28.91   68.74    6.76    5.07    8.44   36.86
B10   42.17   39.40   25.83   69.04   13.03   10.81   16.93   39.66
B11   45.31   40.26   23.28   69.65   19.59   16.48   25.60   40.08
B12   46.34   39.95   20.91   69.43   23.45   20.71   31.28   41.45
B13   66.20   71.56   65.60   87.76   -6.06   -6.44    8.84  226.74
B14   70.12   68.65   63.94   86.32    8.62   -7.32   11.32  319.68
B15   72.42   75.43   51.79   89.60   -0.59   10.77   10.79   93.13
B16   58.64   60.22   50.53   81.96    1.44   -1.00    1.75  325.61
B17   67.12   66.37   50.19   85.18    7.06    4.95    8.62   35.00
B18   63.57   69.20   51.63   86.60   -6.99    5.80    9.09  140.36
B19   61.43   62.76   61.90   83.32    2.19  -10.53   10.76  281.77
B20    2.88    1.97    0.67   15.35   19.85   13.84   24.20   34.88
B21    7.79    4.37    0.70   24.85   40.11   29.61   49.86   36.43
B22   28.19   23.91   12.90   56.00   21.58   16.35   27.08   37.17
C1     3.93    3.75    2.09   22.83    4.73    8.29    9.55   60.28
C2     4.28    3.84    1.19   23.12    8.42   18.79   20.59   65.87
C3     4.99    4.12    0.91   24.05   13.72   24.46   28.05   60.71
C4     5.05    4.17    0.93   24.21   13.82   24.53   28.15   60.61
C5    21.69   20.80    9.79   52.72    7.88   20.19   21.67   68.67
C6    24.21   21.13    5.14   53.08   17.67   39.78   43.54   66.05
C7    25.35   20.63    2.26   52.54   24.90   57.92   63.05   66.73
C8    27.71   21.53    1.66   53.53   30.33   65.46   72.15   65.14
C9    46.28   46.55   31.49   73.90    4.03    9.90   10.68   67.78
C10   48.85   47.69   26.04   74.63    7.99   20.06   21.60   68.29
C11   51.82   49.01   21.62   75.46   12.35   29.69   32.15   67.42
C12   51.58   47.66   17.30   74.61   15.38   37.40   40.43   67.64
C13   55.94   63.64   62.88   83.78  -12.98  -10.70   16.83  219.49
C14   63.22   57.92   58.96   80.69   17.65  -12.14   21.42  325.49
C15   70.26   73.27   42.15   88.57   -0.76   20.39   20.40   92.14
C16   43.44   44.77   37.01   72.74    0.83   -0.14    0.85  350.48
C17   58.50   54.51   38.64   78.76   14.90    8.03   16.92   28.35
C18   51.64   59.63   40.90   81.64  -14.74   10.01   17.82  145.82
C19   47.19   47.51   54.91   74.51    3.93  -18.59   19.00  281.95
C20    1.78    1.46    0.69   12.37    9.79    8.42   12.91   40.67
C21   22.05   16.64    5.22   47.80   30.80   30.29   43.20   44.52
C22   34.85   32.06   19.57   63.40   13.97   13.07   19.12   43.08
D1     3.63    3.76    2.10   22.85    0.22    8.19    8.19   88.51
D2     3.65    3.82    1.20   23.06   -0.34   18.47   18.49   91.05
D3     4.02    4.03    0.98   23.78    1.79   22.99   23.06   85.54
D4     4.05    4.09    1.00   23.98    1.48   23.03   23.08   86.33
D5    24.48   25.81   12.51   57.86   -1.73   20.65   20.73   94.78
D6    23.74   25.31    7.12   57.37   -2.81   38.10   38.20   94.21
D7    24.84   26.44    3.61   58.44   -2.70   57.88   57.93   92.67
D8    23.66   24.59    2.01   56.67   -0.19   67.32   67.32   90.16
D9    53.22   55.91   36.17   79.57   -1.73   12.79   12.91   97.71
D10   55.28   57.76   30.17   80.60   -0.97   23.52   23.54   92.35
D11   55.04   58.11   24.47   80.80   -2.41   33.51   33.60   94.11
D12   56.14   59.36   20.15   81.49   -2.68   43.06   43.15   93.56
D13   46.83   56.08   59.68   79.66  -19.24  -14.65   24.18  217.29
D14   56.65   48.57   53.73   75.18   25.83  -16.19   30.48  327.93
D15   68.11   70.91   33.99   87.44   -0.51   29.50   29.51   91.00
D16   31.51   32.47   27.00   63.74    0.79   -0.38    0.88  334.33
D17   50.42   44.22   28.55   72.38   21.96   11.93   24.99   28.53
D18   40.75   50.15   31.58   76.17  -21.99   13.67   25.90  148.14
D19   35.53   35.14   47.72   65.86    5.66  -25.54   26.16  282.50
D20   13.70   10.38    3.10   38.50   26.03   27.02   37.53   46.07
D21   22.08   21.23   13.31   53.19    7.68   10.41   12.94   53.58
D22   38.81   37.50   23.06   67.65    8.65   13.43   15.97   57.22
E1     3.33    3.79    2.15   22.94   -5.04    7.84    9.32  122.75
E2     2.99    3.69    1.27   22.65   -9.47   16.80   19.27  119.40
E3     3.16    4.07    1.07   23.90  -11.95   21.82   24.88  118.71
E4     3.12    4.05    1.06   23.83  -12.26   21.90   25.10  119.25
E5    11.09   12.66    6.82   42.25   -7.95   13.30   15.50  120.86
E6    10.47   13.06    4.58   42.85  -15.07   25.15   29.33  120.94
E7     9.74   13.35    2.60   43.28  -22.55   39.04   45.09  120.01
E8     9.70   13.94    1.85   44.15  -26.69   47.31   54.32  119.43
E9    35.17   38.37   25.43   68.29   -6.06   10.21   11.88  120.70
E10   34.57   39.04   22.48   68.78  -10.22   16.50   19.41  121.77
E11   34.36   40.20   19.18   69.61  -14.50   24.61   28.57  120.50
E12   33.31   40.47   16.04   69.79  -18.93   32.05   37.22  120.57
E13   40.03   50.05   56.75   76.10  -23.90  -17.78   29.80  216.66
E14   51.18   41.44   49.11   70.49   32.13  -19.17   37.42  329.19
E15   65.56   67.82   25.17   85.92    0.42   41.06   41.06   89.41
E16   23.40   24.09   19.44   56.18    0.77    0.90    1.18   49.11
E17   44.19   36.87   20.87   67.18   27.04   16.90   31.89   32.00
E18   32.12   42.04   23.74   70.90  -27.90   17.76   33.06  147.52
E19   27.68   27.01   41.96   58.99    6.67  -30.39   31.11  282.38
E20   22.27   15.18    1.27   45.89   40.07   56.88   69.57   54.83
E21   16.99   14.09    3.06   44.35   20.20   37.35   42.46   61.58
E22   28.95   25.26    9.02   57.33   18.82   30.74   36.04   58.51
F1     1.37    1.69    1.14   13.81   -7.52    3.36    8.23  155.93
F2     1.18    1.82    0.99   14.49  -16.02    6.86   17.43  156.82
F3     1.14    2.02    0.94   15.60  -22.31    9.35   24.19  157.26
F4     1.29    2.42    1.10   17.56  -25.78   10.45   27.82  157.92
F5     6.24    7.76    5.44   33.47  -12.52    4.49   13.31  160.29
F6     5.21    7.86    4.79   33.69  -25.10    8.23   26.42  161.85
F7     4.20    7.88    4.03   33.72  -38.36   12.61   40.39  161.80
F8     3.13    7.51    3.49   32.93  -51.33   14.68   53.39  164.05
F9    34.90   38.40   30.01   68.32   -7.04    2.59    7.50  159.86
F10   34.13   39.32   29.32   68.99  -12.58    4.84   13.48  158.96
F11   33.10   40.14   28.72   69.57  -18.70    6.81   19.90  160.01
F12   31.53   40.28   27.10   69.67  -24.76    9.67   26.60  158.67
F13   34.07   44.47   53.65   72.54  -28.09  -20.66   34.87  216.34
F14   46.53   35.68   44.96   66.27   37.64  -21.55   43.36  330.20
F15   63.97   65.79   20.55   84.90    1.28   48.11   48.12   88.49
F16   17.51   18.04   14.59   49.54    0.63    0.74    0.98   49.11
F17   39.32   31.28   15.71   62.74   31.41   20.68   37.61   33.36
F18   26.48   36.36   18.18   66.79  -31.83   21.92   38.65  145.46
F19   21.83   20.76   37.09   52.69    8.75  -34.82   35.91  284.10
F20   26.59   25.69   13.59   57.74    7.65   17.49   19.09   66.38
F21   33.64   31.15   12.13   62.63   13.14   29.98   32.72   66.33
F22   38.15   36.43   17.87   66.85   10.00   22.72   24.82   66.24
G1     2.03    2.51    2.37   17.94   -8.36   -2.74    8.80  198.11
G2     1.82    2.72    2.72   18.88  -17.11   -4.02   17.58  193.22
G3     1.66    2.93    3.15   19.75  -25.01   -5.73   25.65  192.90
G4     1.84    3.37    3.57   21.45  -27.77   -5.65   28.35  191.49
G5     8.36   10.15    8.74   38.10  -11.85   -1.38   11.94  186.67
G6     7.21   10.24    9.33   38.26  -23.23   -3.17   23.44  187.77
G7     5.90   10.14    9.64   38.10  -36.11   -4.49   36.39  187.10
G8     5.03   10.52   10.65   38.77  -49.13   -6.66   49.58  187.73
G9    34.19   37.86   30.99   67.91   -7.77    0.35    7.79  177.40
G10   32.93   38.36   32.77   68.28  -13.75   -1.73   13.85  187.17
G11   31.87   39.23   33.43   68.91  -20.28   -1.62   20.35  184.57
G12   30.94   40.35   35.23   69.71  -27.11   -2.85   27.26  186.01
G13   27.81   38.28   49.82   68.22  -32.62  -23.88   40.42  216.21
G14   40.30   28.55   39.15   60.38   44.68  -24.34   50.88  331.41
G15   61.65   62.65   14.46   83.26    2.97   59.19   59.26   87.13
G16   11.15   11.44    9.33   40.32    0.83    0.38    0.91   24.27
G17   33.15   24.54   10.59   56.62   37.25   24.31   44.48   33.12
G18   20.17   29.78   13.44   61.47  -37.07   24.29   44.31  146.76
G19   15.03   13.68   30.50   43.78   11.43  -40.50   42.09  285.77
G20   36.10   35.42   16.22   66.08    6.67   25.22   26.08   75.17
G21   34.40   33.64   10.44   64.68    6.93   38.67   39.29   79.83
G22   43.00   40.03    2.82   69.49   13.53   82.48   83.58   80.68
H1     2.26    2.58    2.98   18.27   -4.57   -7.04    8.40  236.97
H2     2.07    2.68    3.87   18.73  -10.83  -12.22   16.33  228.46
H3     1.82    2.59    4.95   18.32  -14.73  -19.13   24.14  232.40
H4     2.15    3.12    6.34   20.50  -16.62  -22.09   27.65  233.04
H5     8.92   10.17   10.55   38.15   -7.21   -7.40   10.34  225.74
H6     8.30   10.48   13.59   38.69  -14.99  -15.36   21.47  225.68
H7     7.30   10.22   17.34   38.22  -22.19  -25.43   33.75  228.89
H8     6.95   10.49   21.22   38.70  -27.67  -32.90   42.99  229.93
H9    34.58   37.81   33.75   67.88   -6.29   -3.87    7.39  211.61
H10   33.88   38.15   38.09   68.13   -9.78   -9.56   13.68  224.34
H11   34.17   39.77   45.11   69.31  -13.83  -16.50   21.52  230.04
H12   33.71   40.24   49.90   69.64  -16.85  -21.53   27.33  231.94
H13   22.90   33.10   46.25   64.24  -36.18  -26.61   44.92  216.33
H14   34.60   22.55   33.58   54.60   51.03  -26.52   57.51  332.54
H15   59.46   59.66   10.45   81.65    4.72   67.88   68.04   86.03
H16    7.29    7.44    5.96   32.79    1.13    0.82    1.40   35.28
H17   27.94   19.24    6.77   50.97   42.28   28.55   51.03   34.03
H18   15.30   24.27    9.34   56.36  -41.22   28.00   49.83  145.82
H19   10.77    9.23   25.47   36.42   14.93  -44.82   47.24  288.42
H20   40.54   41.67   16.52   70.64    1.17   32.33   32.36   87.92
H21   31.85   33.22   22.76   64.34   -0.60    8.30    8.32   94.11
H22   34.28   37.74   11.93   67.82   -7.08   39.55   40.18  100.15
I1     3.69    3.74    4.93   22.78    1.36  -11.34   11.42  276.82
I2     3.78    3.72    7.65   22.75    2.76  -23.74   23.90  276.61
I3     3.95    3.87   10.85   23.22    3.34  -34.12   34.29  275.60
I4     4.17    3.93   14.81   23.45    5.43  -44.82   45.14  276.91
I5    12.90   13.31   13.59   43.22    0.47   -7.53    7.54  273.61
I6    12.88   13.11   17.72   42.93    1.60  -18.19   18.26  275.00
I7    12.99   13.06   22.36   42.85    2.64  -27.99   28.11  275.38
I8    13.76   13.67   27.34   43.75    3.74  -35.40   35.60  276.04
I9    36.64   38.10   34.81   68.08   -0.23   -5.06    5.07  267.35
I10   37.63   38.92   39.54   68.69    0.38  -10.52   10.53  272.09
I11   38.24   39.38   44.97   69.03    0.94  -16.80   16.83  273.22
I12   38.38   39.37   49.51   69.02    1.38  -22.15   22.19  273.56
I13   19.36   29.17   43.36   60.93  -38.76  -28.81   48.29  216.62
I14   31.13   19.16   30.13   50.87   54.82  -27.69   61.42  333.20
I15   57.92   57.57    8.26   80.50    6.00   73.50   73.75   85.33
I16    5.07    5.13    4.22   27.10    1.47    0.09    1.48  183.61
I17   24.67   16.11    4.71   47.11   45.40   31.82   55.44   35.03
I18   12.38   20.76    7.07   52.69  -43.81   30.21   53.21  145.40
I19    8.15    6.51   21.81   30.66   18.35  -47.94   51.33  290.95
I20   41.55   45.97   17.81   73.53   -8.16   34.35   35.30  103.38
I21   11.74   15.69    4.07   46.56  -21.81   34.52   40.83  122.29
I22   28.30   36.41   18.97   66.83  -24.72   20.27   31.97  140.64
J1     1.87    1.69    2.71   13.80    5.78  -12.66   13.91  294.55
J2     2.15    1.72    4.43   13.94   11.74  -23.80   26.53  296.27
J3     2.67    1.83    7.51   14.53   19.65  -37.33   42.18  297.76
J4     2.98    1.81   10.31   14.42   25.74  -47.53   54.05  298.43
J5    10.38   10.06   11.10   37.94    5.38   -9.51   10.92  299.50
J6    11.13   10.09   14.40   38.01   10.67  -18.66   21.49  299.76
J7    11.88   10.10   19.01   38.01   16.01  -29.51   33.57  298.49
J8    12.65   10.32   22.24   38.41   19.54  -35.40   40.44  298.90
J9    38.27   38.85   35.62   68.64    2.66   -5.27    5.90  296.81
J10   39.30   39.07   39.88   68.80    5.23  -10.78   11.98  295.90
J11   40.84   39.25   44.74   68.93    9.50  -16.69   19.21  299.63
J12   41.17   38.69   48.90   68.53   12.20  -22.30   25.42  298.70
J13   14.05   22.74   37.93   54.80  -42.03  -32.32   53.02  217.56
J14   26.83   15.33   25.80   46.08   58.89  -28.74   65.52  333.98
J15   55.96   54.97    6.31   79.03    7.51   78.95   79.31   84.57
J16    2.64    2.71    2.32   18.84    0.63   -0.67    0.94  314.59
J17   20.51   12.45    2.80   41.94   48.81   35.10   60.12   35.72
J18    7.74   14.76    4.37   45.32  -48.60   30.59   57.42  147.81
J19    5.18    3.72   17.16   22.74   21.68  -51.73   56.08  292.74
J20   30.47   38.99   25.35   68.74  -24.67   11.14   27.07  155.71
J21    3.97    7.41    1.48   32.72  -37.43   31.70   49.05  139.73
J22    1.03    1.66    0.81   13.57  -17.13    8.16   18.98  154.51
K1     4.59    3.88    4.57   23.25   12.05   -8.53   14.76  324.70
K2     5.72    3.97    6.64   23.56   24.40  -18.12   30.39  323.40
K3     7.07    4.13    9.24   24.10   36.40  -27.31   45.50  323.12
K4     8.22    4.26   12.31   24.50   45.51  -36.25   58.18  321.45
K5    14.31   13.17   13.47   43.01   10.37   -7.59   12.85  323.82
K6    16.14   13.09   16.81   42.90   21.70  -16.15   27.05  323.35
K7    18.36   13.33   21.06   43.25   32.32  -24.74   40.71  322.57
K8    21.20   13.78   26.37   43.92   43.56  -33.47   54.93  322.46
K9    39.72   39.08   35.40   68.82    6.53   -4.64    8.01  324.55
K10   42.51   39.48   39.22   69.10   13.81   -9.41   16.71  325.77
K11   46.12   40.74   45.06   69.99   20.44  -15.26   25.51  323.27
K12   48.35   40.89   48.36   70.10   26.17  -18.97   32.32  324.06
K13   11.76   19.66   34.97   51.46  -42.79  -33.97   54.63  218.44
K14   22.03   11.54   20.82   40.47   62.32  -29.05   68.76  335.01
K15   48.00   44.93    2.79   72.85   13.34   88.51   89.51   81.43
K16    1.30    1.35    1.02   11.60    0.05    1.31    1.32   87.63
K17   17.01    9.73    1.35   37.36   50.43   41.19   65.12   39.24
K18    4.64    9.74    2.11   37.36  -48.12   33.06   58.39  145.51
K19    3.41    2.09   13.27   15.94   26.53  -53.72   59.90  296.27
K20    2.39    3.12    2.06   20.51  -11.58    4.51   12.42  158.71
K21    1.23    1.66    1.50   13.57  -10.73   -1.62   10.85  188.61
K22    1.59    2.03    3.10   15.60   -8.89  -12.56   15.39  234.69
L1     3.38    2.76    2.56   19.06   12.40   -2.40   12.62  349.03
L2     4.12    2.80    2.80   19.25   22.83   -3.93   23.17  350.23
L3     5.40    3.17    3.61   20.72   33.14   -7.15   33.90  347.83
L4     6.07    3.47    4.36   21.82   35.92   -9.85   37.24  344.66
L5    11.92   10.28    9.42   38.35   14.86   -3.35   15.24  347.32
L6    14.71   10.81   10.60   39.25   29.06   -5.70   29.61  348.90
L7    17.60   10.86   11.56   39.36   45.11   -8.45   45.90  349.40
L8    19.55   11.33   12.38   40.12   51.88   -9.53   52.75  349.60
L9    41.11   39.92   34.38   69.41    8.22   -2.15    8.49  345.33
L10   43.50   40.14   35.32   69.57   14.73   -3.24   15.08  347.58
L11   46.76   40.67   36.11   69.94   22.44   -3.70   22.74  350.62
L12   48.22   39.97   37.38   69.45   28.60   -6.32   29.30  347.55
L13    7.98   13.85   28.66   44.01  -40.79  -37.15   55.17  222.32
L14   17.03    8.16   15.88   34.33   63.65  -28.72   69.82  335.71
L15   44.39   40.74    2.27   69.99   15.48   87.88   89.24   80.01
L16    0.49    0.49    0.55    4.39    0.64   -2.80    2.88  283.02
L17   12.88    6.84    0.75   31.43   51.17   39.96   64.92   37.99
L18    2.82    6.54    1.48   30.74  -47.42   28.25   55.18  149.22
L19    1.97    0.93    8.86    8.40   31.52  -53.03   61.69  300.72
L20    0.68    0.78    0.74    7.10   -3.18   -1.82    3.67  209.82
L21    0.88    0.78    0.85    7.11    4.69   -3.63    5.93  322.26
L22    2.08    1.62    1.43   13.33   12.86   -1.22   12.92  354.58
GS0    76.21   78.76   67.99   91.13    0.62   -2.85    2.91  282.17
GS1    71.48   73.68   62.51   88.77    0.99   -1.73    1.98  299.97
GS2    60.22   61.94   52.81   82.88    1.25   -1.91    2.29  303.22
GS3    51.82   53.29   44.86   78.04    1.19   -1.14    1.65  316.42
GS4    45.48   47.02   38.77   74.21    0.47    0.00    0.47  180.43
GS5    39.11   40.40   33.50   69.75    0.56   -0.27    0.62  333.89
GS6    33.37   34.53   28.26   65.38    0.30    0.34    0.49   52.26
GS7    29.22   30.29   24.81   61.91    0.09    0.30    0.31   73.23
GS8    24.98   25.83   21.28   57.88    0.32    0.04    0.33  188.29
GS9    21.55   22.35   18.47   54.39    0.06   -0.09    0.26  228.61
GS10   18.66   19.41   16.07   51.16   -0.24   -0.16    0.30  216.11
GS11   15.01   15.56   12.82   46.39    0.09    0.05    0.31  240.31
GS12   12.14   12.63   10.48   42.20   -0.25   -0.19    0.34  215.74
GS13    9.63    9.95    8.31   37.75    0.28   -0.38    0.47  306.19
GS14    7.96    8.23    6.62   34.46    0.20    0.70    0.73   73.86
GS15    6.44    6.61    5.28   30.90    0.69    0.86    1.10   51.28
GS16    5.01    5.14    4.12   27.13    0.66    0.71    1.04   44.06
GS17    3.66    3.78    3.13   22.92    0.34   -0.09    0.36  345.92
GS18    2.58    2.69    2.24   18.76   -0.28   -0.17    0.54  200.38
GS19    1.80    1.87    1.46   14.79   -0.24    0.99    1.02  104.06
GS20    1.25    1.30    0.90   11.24   -0.11    2.47    2.48   92.51
GS21    1.00    1.03    0.70    9.24    0.00    2.58    2.58   89.96
GS22    0.79    0.81    0.61    7.26    0.76    1.07    1.32   54.50
GS23    0.44    0.44    0.51    3.93    0.63   -2.87    2.94  282.46
END_DATA
