lprof/data/targets/Agfa/Reflective/C81227XX.it8
IT8.7/2
ORIGINATOR "FotoTune"
DESCRIPTOR "Agfa IT8"
MATERIAL "Agfacolor"
MANUFACTURER "Agfa"
CREATED "Tue Mar 23 11:01:55 1999"
PROD_DATE "1999:03"
SERIAL "5x7 c81227xx"
NUMBER_OF_FIELDS 9
BEGIN_DATA_FORMAT
SAMPLE_ID XYZ_X XYZ_Y XYZ_Z LAB_L LAB_A LAB_B LAB_C LAB_H
END_DATA_FORMAT
NUMBER_OF_SETS 288
BEGIN_DATA
A1     3.09    2.57    1.98   18.26   11.18    1.39   11.28    7.10
A2     3.72    2.58    1.60   18.28   21.19    5.44   21.89   14.41
A3     5.09    3.05    1.64   20.26   31.19    8.27   32.26   14.85
A4     5.35    3.18    1.77   20.77   32.13    7.80   33.06   13.64
A5    10.88    9.41    7.31   36.76   14.23    1.78   14.34    7.13
A6    13.20    9.76    6.29   37.42   27.50    7.28   28.44   14.82
A7    15.94   10.16    5.55   38.12   41.19   11.97   42.89   16.21
A8    18.19   10.39    5.10   38.53   51.78   14.97   53.91   16.11
A9    40.91   39.97   31.90   69.44    7.47    1.60    7.64   12.11
A10   43.65   40.49   31.07   69.82   14.06    3.51   14.49   14.00
A11   46.76   41.07   29.92   70.23   21.24    5.99   22.06   15.77
A12   46.98   39.54   27.52   69.14   26.53    8.05   27.72   16.89
A13   75.44   78.17   67.79   90.85    0.21   -3.13    3.14  273.91
A14   75.67   77.96   67.62   90.76    1.10   -3.14    3.33  289.16
A15   75.44   78.07   65.07   90.82    0.40   -0.66    0.78  301.11
A16   74.41   76.95   64.82   90.30    0.52   -1.31    1.41  291.67
A17   75.22   77.60   65.11   90.60    0.89   -1.08    1.39  309.83
A18   74.98   77.75   65.43   90.67    0.11   -1.26    1.26  275.08
A19   74.88   77.25   67.31   90.43    0.89   -3.41    3.53  284.57
A20    1.29    1.01    0.62    9.12   10.41    4.00   11.15   20.99
A21    4.76    2.86    0.69   19.50   30.35   20.72   36.74   34.33
A22    9.18    5.01    0.71   26.76   44.06   32.72   54.88   36.60
B1     2.93    2.56    1.51   18.21    8.61    6.20   10.61   35.72
B2     3.51    2.65    0.81   18.59   16.65   16.76   23.63   45.18
B3     4.35    2.91    0.74   19.69   24.14   20.05   31.38   39.72
B4     4.84    3.14    0.74   20.60   26.78   21.69   34.46   39.00
B5    11.31    9.77    5.52   37.43   14.44   10.90   18.10   37.07
B6    13.31   10.08    3.82   37.99   25.73   21.22   33.36   39.53
B7    15.59   10.12    2.22   38.06   39.40   33.22   51.53   40.14
B8    17.31   10.27    1.48   38.33   47.94   41.32   63.29   40.75
B9    40.86   40.38   29.54   69.74    6.05    5.78    8.37   43.71
B10   43.58   41.05   26.77   70.21   12.16   11.18   16.52   42.58
B11   46.44   41.58   24.23   70.58   18.80   16.32   24.89   40.96
B12   47.36   41.24   21.72   70.34   22.40   20.66   30.47   42.67
B13   66.99   72.12   65.96   88.03   -5.49   -6.31    8.37  228.94
B14   71.25   70.36   64.76   87.18    7.39   -6.64    9.93  318.02
B15   72.70   75.68   52.52   89.71   -0.51   10.18   10.19   92.92
B16   59.90   61.87   50.87   82.85    0.64    0.16    0.67   14.70
B17   68.11   67.85   50.78   85.93    6.02    5.59    8.22   42.89
B18   64.15   69.62   51.85   86.81   -6.59    5.90    8.85  138.15
B19   62.34   63.97   62.49   83.95    1.59  -10.03   10.15  278.99
B20    2.87    1.98    0.69   15.39   19.64   13.54   23.85   34.59
B21    8.01    4.48    0.71   25.20   40.51   30.08   50.46   36.60
B22   28.98   24.70   13.24   56.78   21.24   16.76   27.06   38.28
C1     3.93    3.73    2.13   22.75    5.10    7.66    9.20   56.35
C2     4.27    3.80    1.21   22.99    8.82   18.33   20.35   64.31
C3     4.97    4.12    0.93   24.07   13.42   24.19   27.67   60.97
C4     5.05    4.17    0.93   24.23   13.69   24.49   28.06   60.81
C5    22.40   21.51   10.15   53.50    7.82   20.33   21.78   68.96
C6    24.94   21.93    5.56   53.96   17.12   39.19   42.77   66.40
C7    25.99   21.33    2.38   53.31   24.27   58.18   63.04   67.35
C8    28.41   22.27    1.74   54.31   29.66   65.99   72.35   65.79
C9    47.69   48.33   32.47   75.04    3.10   10.37   10.82   73.38
C10   50.08   49.25   26.84   75.60    7.11   20.35   21.56   70.77
C11   52.90   50.38   22.28   76.30   11.55   29.85   32.00   68.85
C12   52.77   49.28   18.18   75.62   14.11   37.12   39.72   69.18
C13   56.89   64.39   63.29   84.17  -12.34  -10.41   16.15  220.15
C14   64.54   59.82   59.95   81.74   16.16  -11.33   19.73  324.96
C15   70.42   73.43   42.87   88.65   -0.75   19.61   19.62   92.19
C16   45.00   46.66   38.11   73.98    0.09    0.50    0.50   75.65
C17   59.75   56.25   39.50   79.75   13.61    8.60   16.10   32.29
C18   52.51   60.33   41.66   82.02  -14.12    9.70   17.14  145.51
C19   48.51   49.19   55.77   75.57    3.06  -17.69   17.95  279.80
C20    1.86    1.53    0.73   12.84    9.60    8.37   12.74   41.10
C21   22.58   17.15    5.62   48.45   30.45   29.43   42.36   44.02
C22   35.77   33.10   20.03   64.25   13.43   13.57   19.09   45.27
D1     3.63    3.72    2.18   22.73    0.63    7.25    7.28   85.01
D2     3.70    3.86    1.25   23.22   -0.26   18.06   18.06   90.82
D3     4.13    4.16    1.00   24.21    1.63   23.31   23.38   85.99
D4     4.14    4.22    1.02   24.37    1.13   23.28   23.31   87.21
D5    25.39   26.78   13.06   58.78   -1.77   20.71   20.78   94.89
D6    24.83   26.58    7.76   58.58   -3.35   37.62   37.76   95.09
D7    25.91   27.77    3.91   59.68   -3.51   58.11   58.22   93.46
D8    24.85   26.03    2.11   58.07   -1.06   68.76   68.77   90.88
D9    54.75   57.79   37.62   80.62   -2.38   12.61   12.84  100.68
D10   56.32   59.21   30.99   81.40   -1.83   23.59   23.66   94.43
D11   56.14   59.43   25.12   81.52   -2.82   33.57   33.69   94.79
D12   56.80   60.14   20.94   81.92   -2.84   42.19   42.28   93.86
D13   48.15   57.19   60.31   80.28  -18.26  -14.20   23.13  217.87
D14   57.90   50.31   54.74   76.26   24.21  -15.40   28.69  327.54
D15   68.33   71.16   34.61   87.57   -0.55   28.80   28.80   91.09
D16   32.93   34.15   27.95   65.08    0.06    0.34    0.34   81.09
D17   51.84   46.08   29.62   73.60   20.43   12.30   23.85   31.05
D18   41.86   51.12   32.22   76.75  -21.14   13.69   25.19  147.07
D19   37.09   36.97   48.95   67.26    4.82  -24.55   25.02  281.12
D20   14.10   10.67    3.34   39.03   26.26   26.17   37.08   44.90
D21   22.97   22.22   13.84   54.26    7.16   10.79   12.95   56.43
D22   39.92   38.88   23.51   68.66    7.79   14.34   16.32   61.48
E1     3.36    3.80    2.25   22.99   -4.80    7.03    8.51  124.33
E2     2.99    3.71    1.31   22.69   -9.58   16.46   19.05  120.20
E3     3.18    4.14    1.09   24.13  -12.63   21.90   25.27  119.97
E4     3.20    4.22    1.10   24.36  -13.25   22.24   25.89  120.78
E5    11.58   13.27    7.34   43.16   -8.28   12.72   15.18  123.07
E6    10.88   13.67    4.97   43.75  -15.98   24.62   29.35  122.96
E7    10.13   13.98    2.74   44.20  -23.53   39.53   46.00  120.76
E8    10.05   14.60    1.93   45.09  -27.97   48.06   55.61  120.21
E9    36.74   40.21   26.58   69.62   -6.53   10.47   12.34  121.95
E10   35.87   40.69   23.40   69.96  -10.84   16.77   19.97  122.89
E11   35.56   41.65   20.00   70.62  -14.78   24.63   28.73  120.96
E12   34.48   41.83   16.60   70.75  -18.98   32.35   37.51  120.40
E13   41.01   50.90   57.31   76.62  -23.14  -17.48   29.01  217.06
E14   52.32   42.90   50.07   71.49   30.78  -18.53   35.93  328.95
E15   65.80   68.15   26.06   86.08    0.25   39.78   39.78   89.65
E16   24.47   25.33   20.28   57.40    0.25    1.25    1.28   78.33
E17   45.16   38.08   21.37   68.08   25.92   17.45   31.24   33.97
E18   33.06   42.92   24.29   71.50  -27.15   17.77   32.45  146.78
E19   28.87   28.34   43.00   60.19    6.11  -29.62   30.24  281.67
E20   22.68   15.57    1.32   46.40   39.75   57.16   69.62   55.19
E21   17.55   14.58    3.31   45.04   20.26   36.78   41.99   61.15
E22   29.87   26.23    9.58   58.25   18.32   30.45   35.54   58.97
F1     1.33    1.66    1.17   13.62   -7.66    2.66    8.11  160.87
F2     1.16    1.80    1.00   14.43  -16.38    6.59   17.66  158.08
F3     1.13    2.03    0.97   15.66  -22.85    9.06   24.59  158.38
F4     1.28    2.43    1.12   17.62  -26.49   10.35   28.44  158.67
F5     6.40    7.93    5.77   33.82  -12.28    3.47   12.76  164.26
F6     5.41    8.20    5.06   34.42  -25.89    8.06   27.11  162.71
F7     4.32    8.14    4.29   34.25  -39.05   11.98   40.85  162.95
F8     3.22    7.75    3.70   33.46  -52.13   14.26   54.04  164.70
F9    36.01   39.81   30.55   69.33   -7.69    3.49    8.44  155.61
F10   35.63   41.18   30.40   70.30  -13.14    5.39   14.20  157.70
F11   34.32   41.67   29.40   70.65  -19.08    7.57   20.53  158.36
F12   32.80   41.79   28.23   70.73  -24.75    9.61   26.56  158.76
F13   34.77   45.13   54.24   72.98  -27.59  -20.53   34.39  216.66
F14   47.53   36.90   45.83   67.19   36.40  -21.00   42.03  330.02
F15   64.18   66.08   21.10   85.04    1.11   47.24   47.26   88.65
F16   18.23   18.94   15.10   50.61   -0.08    1.26    1.26   93.72
F17   40.35   32.53   16.31   63.78   30.13   21.02   36.74   34.90
F18   27.17   37.08   18.85   67.33  -31.35   21.40   37.96  145.68
F19   22.61   21.69   37.90   53.71    7.92  -34.18   35.09  283.04
F20   27.59   26.81   14.08   58.80    7.13   17.99   19.35   68.38
F21   34.78   32.42   12.75   63.69   12.47   30.06   32.54   67.47
F22   39.21   37.69   18.20   67.79    9.30   23.61   25.38   68.51
G1     2.06    2.54    2.51   18.09   -8.21   -3.63    8.99  203.85
G2     1.82    2.70    2.81   18.80  -16.91   -4.86   17.60  196.05
G3     1.71    3.01    3.36   20.10  -25.33   -6.57   26.17  194.54
G4     1.88    3.45    3.74   21.76  -28.01   -6.26   28.70  192.60
G5     8.64   10.56    9.09   38.83  -12.60   -1.39   12.67  186.30
G6     7.49   10.68    9.81   39.03  -23.83   -3.48   24.08  188.33
G7     6.14   10.53   10.11   38.79  -36.49   -4.88   36.81  187.61
G8     5.22   10.90   11.09   39.40  -49.56   -6.95   50.05  187.98
G9    35.49   39.41   31.94   69.05   -8.20    0.82    8.24  174.24
G10   34.61   40.40   34.02   69.75  -14.22   -1.05   14.26  184.23
G11   33.30   40.97   34.68   70.15  -20.51   -1.32   20.56  183.68
G12   32.06   41.60   36.39   70.59  -26.81   -2.98   26.97  186.34
G13   28.26   38.71   50.31   68.54  -32.22  -23.88   40.11  216.52
G14   41.08   29.46   39.90   61.18   43.61  -23.95   49.75  331.22
G15   61.81   62.92   15.10   83.40    2.70   57.81   57.88   87.32
G16   11.61   11.99    9.74   41.19    0.47    0.45    0.67   40.56
G17   33.74   25.22   11.09   57.28   36.52   23.88   43.63   33.17
G18   20.78   30.43   13.90   62.03  -36.52   24.02   43.72  146.67
G19   15.49   14.24   31.11   44.57   10.73  -40.08   41.49  284.98
G20   37.21   36.74   16.70   67.08    5.97   25.80   26.48   76.98
G21   35.58   35.01   10.99   65.76    6.28   38.78   39.29   80.81
G22   44.03   41.36    3.01   70.43   12.52   82.74   83.68   81.40
H1     2.27    2.57    3.10   18.26   -4.34   -7.92    9.02  241.30
H2     2.07    2.67    4.07   18.69  -10.51  -13.60   17.19  232.30
H3     1.84    2.61    5.16   18.40  -14.65  -20.11   24.89  233.93
H4     2.18    3.14    6.60   20.62  -16.42  -23.04   28.30  234.51
H5     9.27   10.62   11.08   38.92   -7.68   -7.76   10.91  225.29
H6     8.63   10.98   14.31   39.54  -15.74  -15.77   22.28  225.08
H7     7.61   10.68   17.99   39.04  -22.78  -25.49   34.19  228.21
H8     7.22   10.92   21.92   39.46  -28.31  -33.00   43.47  229.38
H9    36.08   39.53   35.38   69.13   -6.59   -4.06    7.74  211.67
H10   35.41   39.93   39.19   69.42  -10.08   -8.81   13.39  221.12
H11   35.57   41.48   46.47   70.51  -14.25  -16.05   21.47  228.40
H12   34.78   41.61   50.68   70.60  -17.29  -20.74   27.01  230.20
H13   23.39   33.61   46.83   64.65  -35.78  -26.56   44.56  216.60
H14   34.76   22.77   33.78   54.83   50.63  -26.42   57.11  332.44
H15   59.68   60.04   11.07   81.86    4.35   66.31   66.45   86.25
H16    7.40    7.53    6.21   33.00    1.34    0.00    1.34    0.26
H17   28.22   19.55    7.11   51.32   41.85   27.73   50.21   33.53
H18   15.66   24.72    9.78   56.79  -40.95   27.25   49.19  146.36
H19   11.05    9.51   25.82   36.95   14.70  -44.53   46.90  288.27
H20   41.85   43.25   17.15   71.72    0.53   32.74   32.74   89.07
H21   33.22   34.75   23.46   65.55   -0.96    9.06    9.11   96.01
H22   35.49   39.22   12.45   68.91   -7.58   39.86   40.58  100.77
I1     3.74    3.74    5.11   22.80    1.96  -12.31   12.45  279.07
I2     3.81    3.74    7.82   22.80    3.03  -24.34   24.53  277.10
I3     4.02    3.89   11.18   23.34    3.89  -34.93   35.15  276.35
I4     4.26    4.00   15.17   23.67    5.80  -45.35   45.72  277.28
I5    13.39   13.80   14.25   43.94    0.56   -8.07    8.09  274.02
I6    13.48   13.76   18.44   43.89    1.37  -18.14   18.19  274.31
I7    13.48   13.61   23.05   43.68    2.29  -27.88   27.97  274.70
I8    14.18   14.15   27.84   44.45    3.39  -35.05   35.22  275.52
I9    38.18   39.80   36.17   69.33   -0.61   -4.85    4.89  262.88
I10   39.23   40.71   40.53   69.97   -0.01   -9.61    9.61  269.92
I11   39.51   40.78   46.06   70.02    0.65  -16.41   16.42  272.28
I12   39.66   40.89   50.56   70.10    0.78  -21.49   21.50  272.09
I13   19.60   29.42   43.68   61.15  -38.51  -28.82   48.10  216.80
I14   31.19   19.28   30.26   51.00   54.47  -27.66   61.09  333.08
I15   58.17   57.99    8.78   80.73    5.61   71.96   72.17   85.54
I16    5.15    5.19    4.44   27.28    1.77   -0.94    2.01  332.47
I17   24.87   16.32    5.05   47.39   45.06   30.51   54.42   34.10
I18   12.59   21.08    7.51   53.04  -43.86   29.07   52.62  146.47
I19    8.27    6.61   21.95   30.92   18.33  -47.77   51.17  290.99
I20   42.65   47.33   18.32   74.40   -8.65   34.73   35.79  103.97
I21   12.11   16.24    4.32   47.30  -22.41   34.28   40.96  123.18
I22   29.55   37.83   19.44   67.90  -24.48   21.09   32.31  139.26
J1     1.88    1.70    2.82   13.81    6.13  -13.54   14.86  294.37
J2     2.18    1.73    4.61   13.95   12.35  -24.80   27.70  296.47
J3     2.72    1.84    7.72   14.59   20.31  -38.10   43.17  298.07
J4     2.99    1.80   10.43   14.40   26.20  -48.00   54.68  298.63
J5    10.74   10.42   11.52   38.58    5.36   -9.68   11.07  298.98
J6    11.50   10.46   15.11   38.66   10.54  -19.38   22.06  298.54
J7    12.04   10.22   19.27   38.24   16.19  -29.70   33.82  298.59
J8    12.95   10.56   22.51   38.83   19.75  -35.20   40.36  299.29
J9    39.54   40.34   36.68   69.71    2.09   -4.90    5.33  293.08
J10   40.83   40.88   40.75   70.09    4.48   -9.71   10.69  294.73
J11   42.36   41.07   46.08   70.23    8.50  -16.08   18.19  297.85
J12   42.56   40.40   50.07   69.75   11.12  -21.52   24.22  297.34
J13   14.27   23.01   38.31   55.08  -41.89  -32.34   52.92  217.67
J14   26.58   15.16   25.59   45.85   58.89  -28.77   65.54  333.96
J15   56.19   55.36    6.64   79.25    7.16   77.82   78.15   84.74
J16    2.59    2.64    2.37   18.58    0.79   -1.61    1.79  296.39
J17   20.36   12.34    2.88   41.75   48.86   34.20   59.64   34.99
J18    7.78   14.90    4.62   45.49  -48.94   29.48   57.14  148.95
J19    5.22    3.76   17.26   22.85   21.74  -51.78   56.16  292.78
J20   31.44   40.18   25.93   69.60  -24.74   11.57   27.31  154.93
J21    4.10    7.75    1.56   33.46  -38.60   32.03   50.17  140.31
J22    1.06    1.72    0.85   13.97  -17.91    8.22   19.70  155.33
K1     4.68    3.93    4.75   23.42   12.63   -9.27   15.67  323.71
K2     5.76    3.97    6.78   23.59   24.78  -18.75   31.07  322.88
K3     7.20    4.18    9.52   24.28   36.99  -27.94   46.36  322.94
K4     8.43    4.36   12.52   24.85   45.93  -36.27   58.52  321.71
K5    14.77   13.57   13.92   43.61   10.65   -7.76   13.19  323.92
K6    16.59   13.41   17.33   43.38   22.19  -16.57   27.68  323.26
K7    18.72   13.52   21.51   43.53   32.93  -25.15   41.44  322.62
K8    21.37   13.84   26.30   44.00   44.00  -33.19   55.12  322.98
K9    40.93   40.43   36.28   69.78    6.07   -4.23    7.40  325.14
K10   43.43   40.56   39.72   69.87   13.23   -8.74   15.85  326.55
K11   47.11   41.85   45.74   70.76   19.88  -14.74   24.75  323.43
K12   49.35   42.05   48.96   70.90   25.40  -18.26   31.28  324.28
K13   11.91   19.88   35.28   51.69  -42.67  -34.00   54.56  218.55
K14   21.88   11.43   20.69   40.31   62.30  -29.08   68.76  334.98
K15   48.38   45.49    2.89   73.21   12.82   88.37   89.30   81.74
K16    1.25    1.28    1.02   11.17    0.31    0.53    0.61   59.13
K17   16.80    9.58    1.36   37.08   50.53   40.58   64.81   38.77
K18    4.62    9.78    2.18   37.44  -48.69   32.60   58.60  146.20
K19    3.41    2.08   13.30   15.90   26.72  -53.88   60.15  296.38
K20    2.39    3.11    2.12   20.48  -11.43    3.84   12.06  161.45
K21    1.23    1.65    1.55   13.57  -10.68   -2.25   10.92  191.88
K22    1.62    2.03    3.24   15.68   -8.58  -13.40   15.90  237.36
L1     3.49    2.84    2.72   19.40   12.77   -3.09   13.14  346.42
L2     4.26    2.90    2.99   19.65   23.17   -4.71   23.65  348.51
L3     5.74    3.38    3.88   21.49   33.65   -7.60   34.50  347.27
L4     6.44    3.68    4.66   22.58   36.62  -10.27   38.03  344.32
L5    12.30   10.57    9.85   38.83   15.34   -3.95   15.84  345.59
L6    15.02   10.95   10.99   39.50   29.83   -6.48   30.52  347.73
L7    17.83   10.98   11.87   39.54   45.49   -9.05   46.38  348.74
L8    19.69   11.39   12.62   40.22   52.15  -10.07   53.10  349.07
L9    42.58   41.54   35.55   70.56    7.74   -1.86    7.96  346.48
L10   44.94   41.61   36.60   70.60   14.44   -3.25   14.81  347.32
L11   48.03   42.15   37.17   70.97   21.56   -3.41   21.82  350.99
L12   49.24   41.28   37.95   70.37   27.40   -5.50   27.95  348.65
L13    8.05   13.96   28.92   44.18  -40.89  -37.30   55.35  222.38
L14   17.25    8.31   16.15   34.61   63.64  -28.88   69.89  335.60
L15   44.97   41.49    2.38   70.52   14.85   87.83   89.08   80.40
L16    0.46    0.47    0.54    4.24    0.53   -2.99    3.03  280.17
L17   12.97    6.90    0.76   31.58   51.18   40.10   65.02   38.07
L18    2.87    6.69    1.54   31.11  -48.12   28.12   55.74  149.70
L19    2.01    0.95    9.09    8.57   31.60  -53.52   62.15  300.56
L20    0.68    0.78    0.76    7.05   -3.23   -2.22    3.91  214.44
L21    0.88    0.79    0.87    7.18    4.61   -3.86    6.01  320.07
L22    2.16    1.68    1.51   13.72   12.99   -1.48   13.08  353.53
GS0    76.10   78.62   68.01   91.06    0.65   -2.98    3.05  282.46
GS1    71.82   74.15   62.36   88.99    0.75   -1.20    1.42  301.79
GS2    61.29   63.33   52.93   83.62    0.58   -0.78    0.98  306.50
GS3    53.10   54.88   45.17   78.97    0.55    0.09    0.55    8.65
GS4    47.10   48.89   39.96   75.38   -0.06    0.47    0.49  100.83
GS5    40.47   42.05   34.35   70.90   -0.19    0.47    0.50  112.51
GS6    34.62   35.96   29.03   66.49   -0.13    1.00    1.01   97.83
GS7    30.20   31.34   25.56   62.79   -0.04    0.50    0.50   93.53
GS8    25.90   26.88   21.93   58.86   -0.02    0.44    0.44   93.61
GS9    22.35   23.23   18.87   55.31   -0.16    0.61    0.63  106.38
GS10   19.26   20.17   16.56   52.03   -0.90    0.19    0.92  168.45
GS11   15.53   16.13   13.27   47.15   -0.10    0.10    0.16  145.07
GS12   12.64   13.20   10.90   43.07   -0.59   -0.03    0.59  182.65
GS13    9.89   10.22    8.63   38.24    0.29   -0.75    0.80  290.88
GS14    8.09    8.35    6.84   34.69    0.41    0.16    0.44   21.17
GS15    6.36    6.51    5.35   30.67    0.95    0.08    0.96    5.22
GS16    4.94    5.03    4.20   26.82    1.16   -0.31    1.20  345.01
GS17    3.61    3.70    3.18   22.67    0.62   -0.90    1.10  304.58
GS18    2.52    2.62    2.22   18.42    0.10   -0.65    0.66  279.33
GS19    1.74    1.80    1.46   14.43   -0.00    0.42    0.42   95.74
GS20    1.22    1.26    0.92   10.98    0.10    1.79    1.79   86.81
GS21    0.99    1.02    0.72    9.16    0.12    2.24    2.24   86.96
GS22    0.77    0.79    0.61    7.12    0.71    0.69    0.99   43.51
GS23    0.43    0.44    0.51    3.91    0.48   -3.02    3.06  278.92
END_DATA
