lprof/data/targets/Agfa/Reflective/C81233XX.it8
IT8.7/2
ORIGINATOR "FotoTune"
DESCRIPTOR "Agfa IT8"
MATERIAL "Agfacolor"
MANUFACTURER "Agfa"
CREATED "Mon Apr 12 11:07:50 1999"
PROD_DATE "1999:04"
SERIAL "5x7 c81233xx"
NUMBER_OF_FIELDS 9
BEGIN_DATA_FORMAT
SAMPLE_ID XYZ_X XYZ_Y XYZ_Z LAB_L LAB_A LAB_B LAB_C LAB_H
END_DATA_FORMAT
NUMBER_OF_SETS 288
BEGIN_DATA
A1     3.30    2.78    2.11   19.12   11.03    1.60   11.16    8.24
A2     3.88    2.70    1.65   18.80   21.26    5.73   22.02   15.10
A3     5.14    3.10    1.65   20.45   31.15    8.52   32.29   15.29
A4     5.44    3.26    1.83   21.03   32.25    7.73   33.16   13.48
A5    11.33    9.95    7.77   37.76   13.21    1.65   13.32    7.15
A6    13.67   10.27    6.60   38.32   26.60    7.51   27.64   15.76
A7    16.19   10.47    5.80   38.67   40.23   11.70   41.90   16.22
A8    18.61   10.76    5.31   39.16   51.22   14.95   53.36   16.28
A9    41.47   40.61   33.02   69.90    7.22    0.68    7.25    5.41
A10   43.79   40.82   31.68   70.05   13.48    2.96   13.81   12.37
A11   47.08   41.54   30.51   70.56   20.73    5.64   21.48   15.24
A12   47.32   40.00   28.40   69.47   26.07    7.16   27.03   15.36
A13   75.13   77.88   67.51   90.72    0.15   -3.10    3.11  272.72
A14   75.44   77.77   67.40   90.68    0.99   -3.09    3.24  287.74
A15   75.28   77.93   65.49   90.75    0.34   -1.18    1.23  286.52
A16   74.44   77.01   65.23   90.32    0.43   -1.65    1.71  284.60
A17   74.96   77.37   65.34   90.49    0.80   -1.47    1.68  298.68
A18   74.65   77.43   65.54   90.51    0.04   -1.62    1.62  271.38
A19   74.62   77.07   67.12   90.35    0.70   -3.38    3.45  281.64
A20    1.36    1.06    0.62    9.47   10.98    4.51   11.88   22.30
A21    4.90    2.95    0.70   19.85   30.72   20.97   37.19   34.33
A22    9.18    5.01    0.72   26.75   44.03   32.54   54.75   36.47
B1     3.20    2.82    1.61   19.28    8.55    7.00   11.05   39.33
B2     3.75    2.84    0.86   19.39   16.89   17.40   24.25   45.86
B3     4.56    3.07    0.77   20.30   24.36   20.41   31.78   39.94
B4     5.15    3.35    0.78   21.41   27.03   22.17   34.96   39.36
B5    11.94   10.46    5.91   38.65   13.69   11.15   17.66   39.17
B6    13.88   10.67    4.08   39.01   24.90   21.43   32.85   40.72
B7    16.11   10.59    2.39   38.89   38.82   33.19   51.07   40.53
B8    17.68   10.65    1.56   38.99   47.11   41.55   62.82   41.41
B9    41.48   41.05   30.58   70.21    5.89    4.94    7.69   40.03
B10   43.74   41.42   27.48   70.47   11.50   10.43   15.53   42.20
B11   46.82   42.10   24.89   70.93   18.32   15.72   24.14   40.63
B12   47.57   41.59   22.23   70.58   21.94   20.08   29.74   42.46
B13   66.66   71.85   65.83   87.90   -5.65   -6.41    8.55  228.64
B14   70.93   70.06   64.55   87.02    7.35   -6.71    9.95  317.61
B15   72.49   75.51   52.92   89.63   -0.58    9.60    9.62   93.47
B16   59.74   61.73   51.86   82.77    0.58   -1.06    1.21  298.70
B17   68.15   67.94   51.71   85.98    5.88    4.64    7.48   38.28
B18   64.07   69.59   52.82   86.79   -6.70    4.82    8.26  144.32
B19   62.39   64.09   62.53   84.01    1.45   -9.95   10.06  278.29
B20    3.07    2.11    0.70   16.04   20.40   14.42   24.99   35.26
B21    8.14    4.57    0.73   25.47   40.58   30.14   50.55   36.60
B22   29.83   25.65   14.31   57.71   20.51   15.53   25.73   37.12
C1     4.29    4.07    2.24   23.93    5.03    8.77   10.11   60.16
C2     4.61    4.15    1.28   24.17    8.36   19.26   21.01   66.54
C3     5.33    4.45    0.97   25.12   13.29   25.33   28.61   62.32
C4     5.43    4.53    0.99   25.33   13.44   25.51   28.84   62.21
C5    22.97   22.24   10.67   54.28    7.08   20.01   21.23   70.51
C6    25.44   22.48    5.72   54.53   16.74   39.40   42.81   66.98
C7    26.49   21.88    2.43   53.90   23.80   58.72   63.36   67.94
C8    28.52   22.54    1.77   54.60   28.87   66.08   72.12   66.40
C9    48.04   48.95   33.32   75.42    2.39    9.74   10.02   76.24
C10   50.80   50.11   27.83   76.14    6.76   19.61   20.74   71.00
C11   53.28   51.07   23.20   76.72   10.67   28.79   30.71   69.66
C12   53.07   49.78   18.86   75.93   13.55   36.18   38.64   69.49
C13   57.06   64.46   63.22   84.21  -12.08  -10.28   15.87  220.41
C14   64.79   60.36   60.18   82.04   15.43  -11.05   18.98  324.41
C15   70.44   73.51   43.90   88.69   -0.87   18.38   18.40   92.69
C16   45.54   47.35   38.93   74.41   -0.25    0.15    0.31  149.76
C17   60.18   56.90   40.55   80.12   13.04    7.86   15.22   31.07
C18   52.84   60.61   42.57   82.17  -13.92    8.82   16.48  147.66
C19   48.96   49.83   56.10   75.96    2.53  -17.34   17.53  278.33
C20    1.92    1.58    0.72   13.11   10.07    9.16   13.60   42.28
C21   23.40   18.01    5.94   49.50   29.56   29.72   41.91   45.16
C22   36.58   34.03   21.10   64.99   12.93   12.66   18.10   44.39
D1     3.95    4.09    2.26   23.95    0.19    8.53    8.53   88.72
D2     3.99    4.18    1.32   24.26   -0.49   18.97   18.98   91.49
D3     4.38    4.41    1.07   24.99    1.73   23.76   23.83   85.85
D4     4.48    4.57    1.09   25.47    1.15   24.32   24.35   87.29
D5    25.90   27.34   13.53   59.29   -1.85   20.30   20.38   95.21
D6    25.45   27.25    8.03   59.21   -3.34   37.62   37.78   95.08
D7    26.12   28.01    3.96   59.90   -3.58   58.16   58.27   93.53
D8    24.83   25.95    2.16   57.99   -0.75   68.15   68.16   90.62
D9    54.31   57.39   37.85   80.40   -2.54   11.92   12.18  102.03
D10   56.46   59.25   31.58   81.43   -1.59   22.74   22.80   93.99
D11   56.17   59.47   25.78   81.56   -2.86   32.45   32.58   95.04
D12   56.52   59.99   21.51   81.84   -3.18   40.88   41.00   94.45
D13   48.15   57.14   60.20   80.26  -18.17  -14.13   23.02  217.86
D14   58.14   50.78   54.96   76.54   23.58  -15.15   28.02  327.27
D15   68.20   71.11   35.30   87.54   -0.71   27.77   27.78   91.47
D16   33.44   34.69   28.83   65.51   -0.01   -0.36    0.38  264.61
D17   52.17   46.54   30.50   73.90   19.98   11.42   23.01   29.74
D18   42.22   51.46   33.14   76.96  -20.91   12.67   24.45  148.79
D19   37.56   37.56   49.25   67.69    4.47  -24.14   24.55  280.48
D20   14.60   11.19    3.48   39.90   25.59   26.76   37.03   46.28
D21   23.60   22.94   14.60   55.00    6.74   10.12   12.15   56.34
D22   40.62   39.68   24.51   69.24    7.44   13.50   15.42   61.13
E1     3.62    4.12    2.35   24.08   -5.28    8.05    9.62  123.26
E2     3.19    3.95    1.38   23.51   -9.70   17.03   19.60  119.65
E3     3.38    4.39    1.14   24.90  -12.66   22.44   25.77  119.43
E4     3.41    4.44    1.15   25.09  -12.86   22.61   26.01  119.62
E5    12.03   13.77    7.47   43.90   -8.31   13.42   15.78  121.72
E6    11.11   13.93    4.99   44.12  -15.79   25.15   29.69  122.13
E7    10.45   14.29    2.82   44.65  -22.97   39.64   45.82  120.10
E8    10.20   14.65    1.99   45.15  -27.08   47.70   54.85  119.59
E9    36.92   40.49   27.03   69.82   -6.76   10.06   12.11  123.90
E10   36.30   41.08   23.75   70.23  -10.61   16.59   19.69  122.61
E11   35.67   41.77   20.40   70.71  -14.76   23.94   28.14  121.65
E12   34.56   41.86   16.98   70.78  -18.85   31.51   36.72  120.89
E13   41.07   50.91   57.23   76.62  -23.00  -17.39   28.83  217.08
E14   52.49   43.22   50.25   71.71   30.26  -18.35   35.39  328.77
E15   65.77   68.22   26.67   86.12    0.04   38.77   38.77   89.94
E16   24.73   25.63   20.66   57.69    0.13    0.96    0.98   83.54
E17   45.52   38.58   22.20   68.45   25.38   16.44   30.24   32.94
E18   33.31   43.15   24.84   71.65  -26.94   17.06   31.88  147.67
E19   29.10   28.67   43.20   60.49    5.73  -29.36   29.92  281.04
E20   22.93   15.89    1.35   46.83   39.02   57.57   69.54   55.86
E21   17.83   14.91    3.31   45.51   19.73   37.58   42.44   62.30
E22   30.22   26.65    9.78   58.64   17.95   30.42   35.31   59.45
F1     1.42    1.78    1.23   14.31   -7.89    3.01    8.45  159.10
F2     1.23    1.90    1.05   14.99  -16.78    6.70   18.07  158.21
F3     1.18    2.13    1.02   16.16  -23.38    9.22   25.13  158.49
F4     1.35    2.56    1.18   18.18  -26.78   10.41   28.73  158.76
F5     6.69    8.31    5.87   34.61  -12.68    4.37   13.41  160.98
F6     5.62    8.48    5.14   34.96  -25.69    8.58   27.08  161.53
F7     4.52    8.43    4.38   34.85  -38.89   12.48   40.85  162.20
F8     3.20    7.69    3.70   33.35  -51.97   14.04   53.83  164.88
F9    36.33   40.18   31.17   69.60   -7.75    2.96    8.30  159.08
F10   35.71   41.33   30.61   70.40  -13.32    5.22   14.32  158.58
F11   34.24   41.54   29.87   70.54  -18.91    6.64   20.05  160.65
F12   32.65   41.58   28.35   70.57  -24.62    9.16   26.26  159.60
F13   34.84   45.13   54.06   72.98  -27.33  -20.35   34.07  216.65
F14   47.93   37.53   46.16   67.67   35.51  -20.58   41.05  329.91
F15   64.10   66.08   21.44   85.04    0.91   46.54   46.56   88.87
F16   18.39   19.11   15.55   50.82   -0.17    0.52    0.56  108.82
F17   40.47   32.75   16.82   63.95   29.78   20.11   35.93   34.04
F18   27.44   37.34   19.40   67.54  -31.13   20.53   37.29  146.59
F19   22.72   21.92   38.01   53.93    7.40  -33.92   34.72  282.30
F20   27.87   27.12   14.51   59.09    6.97   17.37   18.72   68.15
F21   35.00   32.71   12.99   63.92   12.22   29.80   32.21   67.71
F22   39.21   37.88   18.72   67.93    8.69   22.71   24.32   69.06
G1     2.24    2.76    2.61   19.08   -8.56   -2.78    9.00  198.05
G2     1.96    2.93    2.96   19.75  -17.60   -4.34   18.13  193.85
G3     1.77    3.16    3.43   20.67  -25.98   -6.07   26.67  193.14
G4     1.97    3.62    3.84   22.38  -28.85   -5.82   29.43  191.40
G5     8.93   10.90    9.32   39.42  -12.59   -1.16   12.65  185.29
G6     7.86   11.11   10.07   39.77  -23.56   -3.10   23.77  187.48
G7     6.40   10.92   10.39   39.45  -36.47   -4.68   36.76  187.30
G8     5.32   11.02   11.32   39.62  -49.35   -7.26   49.89  188.36
G9    35.75   39.69   32.08   69.25   -8.19    0.97    8.25  173.24
G10   34.43   40.28   34.01   69.67  -14.48   -1.17   14.52  184.64
G11   33.17   40.75   34.65   70.01  -20.31   -1.51   20.36  184.26
G12   31.89   41.32   36.31   70.40  -26.60   -3.20   26.79  186.85
G13   28.57   38.99   50.33   68.75  -31.91  -23.54   39.65  216.42
G14   41.51   30.03   40.28   61.68   42.74  -23.58   48.82  331.11
G15   61.74   62.97   15.33   83.43    2.47   57.28   57.33   87.52
G16   11.98   12.36   10.16   41.78    0.42    0.10    0.43   12.39
G17   34.21   25.76   11.68   57.81   35.90   22.99   42.63   32.64
G18   21.05   30.78   14.48   62.32  -36.47   23.03   43.14  147.73
G19   15.98   14.81   31.61   45.36   10.19  -39.49   40.78  284.47
G20   37.83   37.47   17.36   67.63    5.60   25.20   25.82   77.48
G21   35.90   35.42   11.19   66.07    5.97   38.72   39.17   81.24
G22   43.72   41.03    3.00   70.20   12.64   82.35   83.31   81.28
H1     2.45    2.78    3.24   19.15   -4.63   -7.39    8.72  237.92
H2     2.24    2.90    4.30   19.63  -11.11  -13.31   17.34  230.13
H3     1.93    2.77    5.35   19.10  -15.49  -19.83   25.17  231.99
H4     2.28    3.34    6.85   21.34  -17.47  -22.90   28.80  232.65
H5     9.56   10.95   11.44   39.51   -7.78   -7.85   11.06  225.21
H6     8.92   11.32   14.62   40.11  -15.70  -15.61   22.15  224.83
H7     7.82   10.95   18.30   39.51  -22.83  -25.39   34.14  228.02
H8     7.36   11.14   22.20   39.81  -28.46  -32.93   43.53  229.16
H9    36.26   39.78   35.52   69.32   -6.77   -3.95    7.84  210.32
H10   35.60   40.14   39.68   69.57  -10.07   -9.20   13.64  222.42
H11   35.62   41.59   46.74   70.59  -14.40  -16.24   21.70  228.41
H12   34.78   41.56   50.74   70.57  -17.15  -20.87   27.01  230.58
H13   23.65   33.86   46.94   64.85  -35.51  -26.35   44.22  216.58
H14   35.54   23.62   34.58   55.71   49.48  -26.09   55.94  332.20
H15   59.59   60.07   11.26   81.88    4.09   65.76   65.88   86.45
H16    7.78    8.01    6.50   34.01    0.54    0.47    0.72   42.45
H17   28.73   20.10    7.46   51.96   41.09   27.38   49.38   33.67
H18   15.86   24.97   10.10   57.05  -40.87   26.62   48.78  146.93
H19   11.46    9.99   26.39   37.83   13.89  -44.00   46.14  287.52
H20   42.35   43.90   17.83   72.16    0.09   31.97   31.97   89.83
H21   33.60   35.26   24.20   65.96   -1.33    8.38    8.49   99.02
H22   35.68   39.42   12.83   69.05   -7.57   39.07   39.80  100.97
I1     3.99    4.05    5.33   23.81    1.35  -11.64   11.72  276.60
I2     4.06    4.03    8.14   23.78    2.47  -23.84   23.97  275.92
I3     4.26    4.20   11.52   24.34    2.97  -34.25   34.38  274.95
I4     4.41    4.26   15.38   24.50    4.39  -44.45   44.67  275.62
I5    13.62   14.18   14.34   44.49   -0.22   -7.35    7.36  268.31
I6    13.70   14.09   18.74   44.36    0.76  -17.99   18.01  272.41
I7    13.78   14.01   23.30   44.24    1.83  -27.37   27.42  273.81
I8    14.48   14.55   28.21   45.00    2.84  -34.70   34.82  274.68
I9    37.90   39.57   35.81   69.16   -0.76   -4.63    4.69  260.70
I10   38.56   40.18   40.44   69.60   -0.54  -10.15   10.16  266.95
I11   39.40   40.86   45.85   70.07    0.09  -16.06   16.06  270.30
I12   39.66   41.03   50.47   70.19    0.37  -21.19   21.19  270.99
I13   19.69   29.49   43.62   61.21  -38.32  -28.65   47.85  216.78
I14   31.68   19.82   30.74   51.63   53.59  -27.35   60.17  332.96
I15   57.99   57.88    8.80   80.67    5.43   71.81   72.01   85.68
I16    5.42    5.53    4.61   28.19    1.13   -0.25    1.15  347.91
I17   25.28   16.81    5.16   48.01   44.15   30.95   53.93   35.03
I18   12.79   21.31    7.57   53.29  -43.60   29.22   52.49  146.17
I19    8.61    7.01   22.49   31.83   17.37  -47.26   50.35  290.18
I20   42.68   47.31   18.58   74.39   -8.48   34.12   35.16  103.94
I21   12.26   16.42    4.30   47.53  -22.36   34.81   41.38  122.72
I22   29.43   37.71   19.86   67.81  -24.49   20.05   31.65  140.70
J1     2.03    1.85    2.91   14.64    5.91  -12.83   14.12  294.74
J2     2.36    1.89    4.85   14.89   12.14  -24.53   27.38  296.32
J3     2.84    1.93    7.90   15.14   20.22  -37.82   42.89  298.12
J4     3.16    1.94   10.73   15.20   25.55  -47.53   53.97  298.26
J5    11.15   10.88   11.90   39.38    4.98   -9.44   10.68  297.83
J6    11.89   10.91   15.26   39.43    9.99  -18.41   20.94  298.46
J7    12.43   10.67   19.77   39.03   15.45  -29.40   33.22  297.73
J8    13.26   10.95   23.01   39.50   18.91  -35.01   39.79  298.38
J9    39.66   40.53   36.86   69.85    1.86   -4.91    5.26  290.71
J10   40.82   40.89   41.03   70.10    4.38  -10.05   10.95  293.55
J11   41.96   40.85   45.80   70.07    7.95  -16.00   17.87  296.42
J12   42.72   40.61   50.07   69.90   10.96  -21.26   23.92  297.27
J13   14.57   23.37   38.58   55.44  -41.61  -32.10   52.55  217.65
J14   27.03   15.59   26.05   46.42   58.22  -28.59   64.85  333.85
J15   55.97   55.20    6.59   79.15    7.01   77.91   78.22   84.87
J16    2.78    2.86    2.47   19.47    0.54   -0.93    1.09  299.88
J17   20.69   12.66    2.96   42.26   48.27   34.45   59.30   35.51
J18    7.99   15.16    4.66   45.86  -48.60   29.90   57.06  148.40
J19    5.40    3.94   17.58   23.47   21.12  -51.42   55.58  292.33
J20   31.69   40.36   26.42   69.73  -24.40   10.94   26.74  155.85
J21    4.21    7.88    1.57   33.72  -38.21   32.37   50.07  139.72
J22    1.07    1.76    0.87   14.20  -18.51    8.19   20.24  156.13
K1     4.95    4.18    4.89   24.27   12.28   -8.58   14.98  325.08
K2     6.02    4.19    7.07   24.31   24.62  -18.67   30.89  322.83
K3     7.50    4.40    9.80   24.97   36.90  -27.69   46.14  323.12
K4     8.59    4.47   12.67   25.16   45.94  -36.16   58.47  321.79
K5    15.23   14.09   14.41   44.36   10.13   -7.76   12.76  322.53
K6    16.96   13.88   17.75   44.07   21.30  -16.31   26.83  322.55
K7    19.27   14.12   22.08   44.42   31.98  -24.76   40.44  322.26
K8    22.06   14.50   27.05   44.94   43.13  -32.87   54.23  322.69
K9    41.28   40.96   36.83   70.14    5.61   -4.35    7.10  322.17
K10   43.86   41.07   40.44   70.22   12.94   -9.06   15.80  324.99
K11   47.01   42.02   45.99   70.88   19.07  -14.83   24.16  322.13
K12   49.25   42.17   49.19   70.99   24.78  -18.39   30.86  323.42
K13   12.15   20.17   35.53   52.03  -42.53  -33.78   54.32  218.46
K14   22.14   11.68   21.01   40.69   61.83  -29.05   68.31  334.83
K15   48.28   45.44    2.91   73.18   12.66   88.11   89.02   81.82
K16    1.38    1.43    1.10   12.18    0.06    1.16    1.17   86.37
K17   17.01    9.80    1.41   37.47   49.99   40.61   64.41   39.08
K18    4.80   10.02    2.24   37.89  -48.38   32.82   58.46  145.85
K19    3.55    2.20   13.58   16.50   26.19  -53.60   59.65  296.03
K20    2.60    3.39    2.26   21.55  -11.89    4.48   12.70  159.32
K21    1.29    1.77    1.62   14.23  -11.44   -1.80   11.58  188.93
K22    1.74    2.22    3.43   16.60   -9.53  -13.10   16.20  233.97
L1     3.55    2.91    2.74   19.70   12.41   -2.68   12.69  347.80
L2     4.24    2.92    2.99   19.70   22.65   -4.66   23.13  348.36
L3     5.68    3.37    3.84   21.45   33.17   -7.39   33.98  347.45
L4     6.30    3.62    4.60   22.36   36.06  -10.26   37.49  344.12
L5    12.30   10.67    9.88   39.01   14.60   -3.74   15.07  345.63
L6    15.01   11.07   11.11   39.69   28.99   -6.53   29.72  347.30
L7    17.82   11.07   11.77   39.69   44.78   -8.52   45.58  349.23
L8    19.66   11.48   12.61   40.38   51.31   -9.74   52.22  349.26
L9    41.99   40.99   35.12   70.17    7.60   -1.91    7.84  345.89
L10   43.89   40.83   35.99   70.06   13.76   -3.35   14.16  346.32
L11   47.25   41.53   36.82   70.54   21.19   -3.65   21.51  350.24
L12   48.92   41.00   37.99   70.17   27.42   -5.90   28.05  347.86
L13    7.96   13.82   28.70   43.97  -40.74  -37.31   55.24  222.48
L14   17.23    8.32   16.12   34.64   63.38  -28.76   69.60  335.60
L15   44.53   41.07    2.41   70.22   14.90   87.04   88.31   80.29
L16    0.48    0.48    0.56    4.35    0.53   -3.14    3.19  279.59
L17   12.83    6.84    0.78   31.43   50.87   39.38   64.33   37.75
L18    2.82    6.58    1.54   30.83  -47.81   27.60   55.21  150.01
L19    2.00    0.96    8.99    8.62   31.14  -53.08   61.54  300.40
L20    0.69    0.80    0.78    7.24   -3.46   -2.27    4.14  213.29
L21    0.91    0.82    0.89    7.44    4.85   -3.88    6.22  321.29
L22    2.20    1.71    1.53   13.89   13.05   -1.51   13.14  353.40
GS0    76.10   78.68   68.03   91.09    0.57   -2.95    3.01  280.93
GS1    71.57   73.91   62.81   88.88    0.72   -1.83    1.96  291.36
GS2    61.54   63.53   53.80   83.72    0.71   -1.54    1.69  294.66
GS3    52.93   54.76   46.16   78.90    0.37   -1.21    1.26  287.38
GS4    47.50   49.42   40.50   75.71   -0.34    0.32    0.48  143.18
GS5    40.85   42.57   34.90   71.26   -0.54    0.28    0.61  152.97
GS6    35.03   36.49   29.64   66.88   -0.43    0.70    0.83  122.69
GS7    30.64   31.89   26.15   63.25   -0.34    0.26    0.44  141.89
GS8    26.31   27.34   22.43   59.29   -0.19    0.21    0.29  137.88
GS9    22.75   23.70   19.47   55.79   -0.44    0.16    0.47  159.92
GS10   19.65   20.64   17.10   52.55   -1.20   -0.17    1.21  188.55
GS11   15.97   16.64   13.73   47.79   -0.33   -0.04    0.34  187.43
GS12   12.91   13.51   11.31   43.53   -0.73   -0.50    0.90  214.40
GS13   10.24   10.66    8.84   39.00   -0.30   -0.17    0.35  210.48
GS14    8.40    8.73    7.12   35.47   -0.17    0.34    0.38  112.57
GS15    6.71    6.94    5.57   31.65    0.30    0.68    0.74   65.99
GS16    5.30    5.43    4.37   27.92    0.73    0.61    0.98   39.24
GS17    3.86    3.97    3.26   23.59    0.41    0.14    0.50  200.14
GS18    2.72    2.83    2.36   19.33   -0.13   -0.22    0.28  248.54
GS19    1.90    1.98    1.52   15.40   -0.27    1.26    1.30  101.88
GS20    1.27    1.33    0.95   11.44   -0.00    2.19    2.20   89.85
GS21    1.05    1.10    0.74    9.78   -0.05    2.87    2.87   90.97
GS22    0.82    0.84    0.64    7.57    0.74    1.00    1.23   53.60
GS23    0.44    0.44    0.53    4.03    0.50   -3.15    3.20  279.04
END_DATA
