lprof/data/targets/Agfa/Reflective/C81236XX.it8
IT8.7/2
ORIGINATOR "FotoTune"
DESCRIPTOR "Agfa IT8"
MATERIAL "Agfacolor"
MANUFACTURER "Agfa"
CREATED "Mon Apr 12 11:38:28 1999"
PROD_DATE "1999:04"
SERIAL "5x7 c81236xx"
NUMBER_OF_FIELDS 9
BEGIN_DATA_FORMAT
SAMPLE_ID XYZ_X XYZ_Y XYZ_Z LAB_L LAB_A LAB_B LAB_C LAB_H
END_DATA_FORMAT
NUMBER_OF_SETS 288
BEGIN_DATA
A1     3.30    2.76    2.10   19.07   11.22    1.61   11.34    8.14
A2     3.93    2.73    1.66   18.92   21.65    5.78   22.41   14.97
A3     5.15    3.09    1.64   20.39   31.42    8.47   32.54   15.08
A4     5.41    3.22    1.79   20.88   32.53    7.76   33.44   13.43
A5    11.42   10.01    7.87   37.86   13.44    1.44   13.52    6.14
A6    13.76   10.32    6.72   38.40   26.86    7.11   27.78   14.82
A7    16.28   10.50    5.86   38.72   40.50   11.49   42.10   15.84
A8    18.59   10.69    5.35   39.06   51.60   14.56   53.61   15.75
A9    41.66   40.79   33.39   70.03    7.24    0.36    7.25    2.84
A10   43.99   40.97   32.21   70.16   13.59    2.35   13.79    9.81
A11   47.32   41.67   31.03   70.65   20.97    4.98   21.55   13.37
A12   47.57   40.16   28.76   69.58   26.26    6.78   27.13   14.47
A13   75.42   78.18   67.63   90.86    0.13   -2.97    2.97  272.50
A14   75.74   78.07   67.54   90.81    1.00   -2.98    3.14  288.51
A15   75.48   78.12   65.51   90.83    0.37   -1.05    1.11  289.30
A16   74.69   77.26   65.34   90.44    0.47   -1.56    1.63  286.90
A17   75.35   77.77   65.67   90.68    0.81   -1.48    1.68  299.06
A18   75.06   77.86   65.73   90.71    0.06   -1.46    1.47  272.21
A19   74.90   77.36   67.26   90.49    0.70   -3.28    3.35  282.04
A20    1.42    1.11    0.65    9.87   11.09    4.76   12.08   23.19
A21    4.94    2.98    0.72   19.96   30.84   20.99   37.30   34.24
A22    9.26    5.07    0.75   26.92   43.97   32.32   54.56   36.32
B1     3.20    2.82    1.61   19.29    8.60    7.09   11.16   39.50
B2     3.76    2.84    0.84   19.39   17.01   17.65   24.51   46.05
B3     4.51    3.01    0.75   20.10   24.50   20.45   31.91   39.85
B4     5.06    3.28    0.76   21.14   27.11   22.06   34.95   39.12
B5    11.86   10.37    5.88   38.50   13.78   11.05   17.67   38.71
B6    13.77   10.53    3.99   38.79   25.21   21.56   33.17   40.53
B7    16.08   10.53    2.33   38.78   39.08   33.53   51.49   40.62
B8    17.71   10.64    1.54   38.97   47.34   41.71   63.09   41.38
B9    41.47   41.04   30.85   70.21    5.90    4.51    7.43   37.41
B10   43.78   41.43   27.78   70.48   11.61    9.92   15.27   40.51
B11   46.82   42.02   25.05   70.88   18.57   15.36   24.09   39.60
B12   47.63   41.56   22.42   70.56   22.19   19.67   29.65   41.55
B13   66.57   71.82   65.79   87.88   -5.82   -6.39    8.64  227.70
B14   71.01   70.07   64.49   87.04    7.48   -6.62    9.99  318.46
B15   72.87   75.87   53.21   89.80   -0.53    9.57    9.59   93.15
B16   59.56   61.54   51.67   82.67    0.61   -1.04    1.20  300.15
B17   68.19   67.88   51.57   85.94    6.14    4.72    7.74   37.59
B18   64.18   69.76   52.97   86.88   -6.82    4.80    8.35  144.88
B19   62.33   64.05   62.42   83.99    1.38   -9.88    9.98  277.96
B20    3.07    2.12    0.71   16.10   20.24   14.33   24.80   35.32
B21    8.12    4.57    0.74   25.47   40.51   29.94   50.37   36.47
B22   29.74   25.52   14.44   57.58   20.70   14.95   25.54   35.84
C1     4.28    4.08    2.24   23.92    4.99    8.78   10.10   60.38
C2     4.58    4.11    1.26   24.06    8.44   19.37   21.13   66.46
C3     5.28    4.40    0.97   24.96   13.44   25.15   28.51   61.86
C4     5.35    4.44    0.97   25.10   13.59   25.38   28.78   61.83
C5    22.97   22.20   10.76   54.24    7.21   19.65   20.92   69.85
C6    25.51   22.49    5.73   54.55   16.93   39.40   42.89   66.74
C7    26.55   21.89    2.43   53.91   24.01   58.69   63.42   67.76
C8    28.53   22.49    1.76   54.54   29.14   66.08   72.22   66.21
C9    48.12   48.97   33.56   75.43    2.57    9.42    9.76   74.78
C10   51.00   50.28   28.10   76.24    6.84   19.33   20.51   70.53
C11   53.24   50.97   23.32   76.66   10.83   28.49   30.48   69.18
C12   53.18   49.79   18.98   75.94   13.81   35.96   38.52   68.99
C13   57.03   64.52   63.27   84.24  -12.30  -10.28   16.03  219.89
C14   64.79   60.20   60.11   81.94   15.83  -11.13   19.35  324.88
C15   70.72   73.77   43.96   88.82   -0.80   18.54   18.56   92.46
C16   45.28   47.02   38.82   74.20   -0.10   -0.08    0.13  212.20
C17   60.24   56.83   40.67   80.09   13.34    7.65   15.38   29.83
C18   52.74   60.56   42.78   82.14  -14.09    8.50   16.45  148.90
C19   48.86   49.71   56.08   75.89    2.59  -17.45   17.65  278.45
C20    1.95    1.61    0.73   13.26   10.15    9.14   13.65   41.99
C21   23.34   17.91    5.97   49.39   29.84   29.36   41.87   44.54
C22   36.65   34.04   21.51   64.99   13.12   11.86   17.69   42.10
D1     3.97    4.10    2.29   23.99    0.26    8.38    8.39   88.15
D2     4.07    4.25    1.32   24.48   -0.43   19.42   19.43   91.26
D3     4.41    4.44    1.05   25.08    1.77   24.17   24.24   85.79
D4     4.52    4.59    1.07   25.54    1.25   24.61   24.64   87.09
D5    26.09   27.54   13.76   59.47   -1.88   20.02   20.11   95.38
D6    25.58   27.41    8.20   59.35   -3.44   37.22   37.38   95.28
D7    26.29   28.17    3.91   60.04   -3.49   58.71   58.81   93.40
D8    25.01   26.05    2.09   58.09   -0.44   68.96   68.96   90.37
D9    54.58   57.66   38.31   80.55   -2.49   11.56   11.82  102.13
D10   56.81   59.61   32.22   81.62   -1.56   22.09   22.15   94.04
D11   56.54   59.86   26.43   81.76   -2.82   31.67   31.80   95.10
D12   56.91   60.42   21.99   82.07   -3.21   40.32   40.46   94.55
D13   48.08   57.12   60.28   80.24  -18.33  -14.23   23.20  217.82
D14   58.25   50.74   55.01   76.51   23.97  -15.24   28.41  327.54
D15   68.77   71.68   35.90   87.82   -0.68   27.40   27.40   91.42
D16   33.50   34.75   29.12   65.56    0.05   -0.77    0.77  273.10
D17   52.40   46.65   30.96   73.97   20.29   10.82   22.99   28.08
D18   42.22   51.52   33.51   76.99  -21.11   12.18   24.37  150.01
D19   37.40   37.38   49.17   67.57    4.49  -24.26   24.67  280.51
D20   14.69   11.27    3.53   40.03   25.60   26.62   36.94   46.12
D21   23.58   22.86   14.91   54.94    6.94    9.18   11.51   52.92
D22   40.81   39.80   24.99   69.33    7.64   12.76   14.88   59.10
E1     3.65    4.16    2.32   24.19   -5.26    8.42    9.93  121.95
E2     3.28    4.07    1.37   23.88   -9.94   17.81   20.39  119.18
E3     3.47    4.50    1.13   25.26  -12.77   23.24   26.52  118.79
E4     3.44    4.47    1.14   25.19  -12.97   23.01   26.41  119.40
E5    12.15   13.89    7.66   44.07   -8.25   12.98   15.38  122.46
E6    11.29   14.14    5.09   44.43  -15.83   25.18   29.74  122.15
E7    10.58   14.50    2.82   44.94  -23.31   40.17   46.43  120.12
E8    10.36   14.86    1.94   45.44  -27.04   48.62   55.64  119.08
E9    37.16   40.74   27.46   69.99   -6.73    9.64   11.76  124.96
E10   36.61   41.46   24.33   70.49  -10.68   15.97   19.21  123.76
E11   35.97   42.10   20.90   70.94  -14.73   23.33   27.59  122.27
E12   34.85   42.23   17.44   71.04  -18.93   30.90   36.23  121.49
E13   41.07   50.96   57.28   76.65  -23.12  -17.38   28.92  216.93
E14   52.69   43.33   50.36   71.78   30.48  -18.35   35.58  328.95
E15   66.32   68.76   27.15   86.39    0.09   38.43   38.43   89.87
E16   24.86   25.74   21.13   57.79    0.21    0.19    0.31   42.56
E17   45.86   38.84   22.68   68.64   25.53   15.85   30.06   31.83
E18   33.37   43.28   25.34   71.75  -27.12   16.31   31.65  148.97
E19   29.18   28.72   43.31   60.53    5.84  -29.42   29.99  281.23
E20   23.21   16.09    1.37   47.09   39.15   57.82   69.82   55.90
E21   18.07   15.13    3.47   45.81   19.72   37.01   41.94   61.96
E22   30.56   26.95   10.22   58.93   17.99   29.48   34.53   58.60
F1     1.46    1.83    1.20   14.58   -8.15    3.86    9.01  154.64
F2     1.26    1.98    1.04   15.36  -17.29    7.47   18.83  156.64
F3     1.19    2.18    1.00   16.37  -24.06    9.91   26.03  157.60
F4     1.34    2.57    1.15   18.24  -27.42   10.82   29.47  158.46
F5     6.81    8.47    6.06   34.93  -12.88    4.05   13.50  162.55
F6     5.74    8.66    5.30   35.32  -25.97    8.39   27.30  162.10
F7     4.55    8.52    4.47   35.04  -39.26   12.27   41.13  162.64
F8     3.16    7.65    3.72   33.26  -52.29   13.74   54.06  165.27
F9    36.98   40.88   32.08   70.10   -7.77    2.42    8.14  162.70
F10   36.10   41.76   31.33   70.71  -13.33    4.64   14.11  160.83
F11   34.58   41.93   30.58   70.82  -18.94    5.99   19.86  162.43
F12   33.16   42.13   29.17   70.96  -24.49    8.48   25.90  160.90
F13   35.10   45.43   54.39   73.18  -27.33  -20.35   34.07  216.68
F14   48.18   37.68   46.39   67.79   35.71  -20.66   41.25  329.95
F15   64.69   66.71   22.06   85.36    0.89   45.89   45.90   88.88
F16   18.67   19.40   16.00   51.15   -0.12   -0.01    0.15  175.55
F17   40.85   33.03   17.23   64.18   29.94   19.57   35.77   33.18
F18   27.74   37.71   19.85   67.80  -31.10   20.06   37.01  147.18
F19   22.96   22.16   38.29   54.19    7.40  -33.86   34.66  282.34
F20   28.26   27.52   15.10   59.46    6.95   16.52   17.92   67.19
F21   35.47   33.18   13.60   64.31   12.15   28.79   31.26   67.12
F22   39.72   38.39   19.47   68.31    8.72   21.74   23.42   68.15
G1     2.26    2.81    2.68   19.26   -8.77   -3.05    9.29  199.17
G2     1.99    2.97    3.03   19.94  -17.90   -4.55   18.46  194.25
G3     1.76    3.15    3.45   20.64  -26.22   -6.27   26.96  193.46
G4     1.96    3.61    3.89   22.35  -28.98   -6.14   29.62  191.97
G5     9.04   11.02    9.48   39.61  -12.54   -1.38   12.61  186.27
G6     7.97   11.26   10.35   40.02  -23.62   -3.54   23.89  188.53
G7     6.48   11.06   10.67   39.67  -36.64   -5.18   37.01  188.04
G8     5.32   11.03   11.55   39.64  -49.39   -7.93   50.02  189.12
G9    36.24   40.21   32.81   69.62   -8.16    0.51    8.17  176.42
G10   34.88   40.78   34.74   70.02  -14.45   -1.63   14.55  186.45
G11   33.61   41.22   35.26   70.33  -20.17   -1.85   20.25  185.23
G12   32.31   41.79   37.03   70.72  -26.50   -3.63   26.74  187.79
G13   28.70   39.15   50.51   68.85  -31.87  -23.56   39.64  216.48
G14   41.66   30.06   40.35   61.71   43.11  -23.65   49.17  331.25
G15   62.28   63.52   15.74   83.71    2.48   56.76   56.81   87.50
G16   12.03   12.39   10.38   41.83    0.62   -0.50    0.84  322.71
G17   34.44   25.89   11.92   57.93   36.15   22.51   42.58   31.90
G18   21.26   31.03   14.94   62.53  -36.43   22.23   42.68  148.61
G19   16.12   14.93   31.78   45.54   10.21  -39.43   40.74  284.52
G20   38.15   37.78   17.81   67.85    5.69   24.58   25.23   76.96
G21   36.35   35.86   11.62   66.42    6.02   38.01   38.49   81.01
G22   44.25   41.54    3.02   70.56   12.65   82.84   83.80   81.32
H1     2.53    2.87    3.37   19.49   -4.50   -7.66    8.89  239.56
H2     2.32    3.01    4.49   20.04  -11.15  -13.69   17.66  230.83
H3     1.95    2.78    5.48   19.15  -15.31  -20.40   25.49  233.12
H4     2.31    3.38    7.03   21.49  -17.43  -23.36   29.15  233.29
H5     9.73   11.15   11.79   39.83   -7.80   -8.34   11.41  226.97
H6     9.09   11.51   15.03   40.44  -15.61  -16.11   22.43  225.90
H7     8.01   11.20   18.85   39.92  -22.84  -25.90   34.53  228.58
H8     7.49   11.32   22.65   40.11  -28.48  -33.28   43.79  229.45
H9    36.81   40.35   36.33   69.72   -6.70   -4.40    8.02  213.27
H10   36.06   40.65   40.29   69.93  -10.10   -9.39   13.78  222.92
H11   36.07   42.09   47.22   70.93  -14.40  -16.20   21.67  228.39
H12   35.22   42.06   51.29   70.91  -17.15  -20.89   27.03  230.62
H13   23.81   34.07   47.18   65.02  -35.49  -26.34   44.20  216.58
H14   35.82   23.80   34.76   55.89   49.65  -26.03   56.06  332.33
H15   60.32   60.81   11.68   82.28    4.07   65.21   65.32   86.43
H16    7.99    8.20    6.86   34.40    0.78   -0.42    0.91  333.22
H17   29.17   20.44    7.75   52.33   41.14   26.88   49.15   33.16
H18   16.17   25.38   10.55   57.44  -40.79   25.85   48.29  147.63
H19   11.66   10.18   26.62   38.17   13.86  -43.83   45.97  287.54
H20   42.97   44.53   18.62   72.59    0.16   30.94   30.94   89.70
H21   34.07   35.71   24.95   66.30   -1.23    7.62    7.73   99.12
H22   36.22   40.03   13.47   69.49   -7.68   38.08   38.85  101.40
I1     4.12    4.16    5.60   24.20    1.54  -12.25   12.35  277.19
I2     4.18    4.14    8.49   24.14    2.81  -24.58   24.74  276.52
I3     4.38    4.31   11.92   24.65    3.12  -34.88   35.01  275.11
I4     4.55    4.39   15.90   24.90    4.39  -45.01   45.22  275.57
I5    14.01   14.56   15.06   45.03   -0.12   -8.24    8.24  269.11
I6    14.04   14.41   19.37   44.83    0.91  -18.52   18.55  272.83
I7    14.16   14.36   24.00   44.75    1.97  -27.79   27.86  274.07
I8    14.80   14.88   28.82   45.47    2.82  -34.90   35.02  274.61
I9    38.79   40.51   37.10   69.83   -0.80   -5.28    5.34  261.35
I10   39.40   41.06   41.44   70.22   -0.55  -10.36   10.38  266.97
I11   40.21   41.71   46.83   70.67    0.04  -16.20   16.20  270.16
I12   40.36   41.75   51.05   70.70    0.38  -20.98   20.99  271.05
I13   19.99   29.86   44.09   61.53  -38.25  -28.65   47.79  216.84
I14   32.14   20.14   31.13   52.00   53.62  -27.33   60.17  332.99
I15   58.71   58.65    9.20   81.10    5.33   71.13   71.33   85.71
I16    5.65    5.75    4.86   28.77    1.25   -0.62    1.41  333.79
I17   25.65   17.03    5.43   48.29   44.47   30.10   53.69   34.09
I18   13.08   21.69    7.94   53.70  -43.53   28.52   52.04  146.76
I19    8.78    7.16   22.78   32.17   17.32  -47.21   50.29  290.15
I20   43.40   48.11   19.55   74.90   -8.55   32.94   34.03  104.55
I21   12.68   16.95    4.53   48.20  -22.44   34.65   41.28  122.93
I22   30.16   38.53   20.98   68.42  -24.40   18.81   30.81  142.36
J1     2.05    1.86    2.99   14.68    6.15  -13.27   14.63  294.86
J2     2.38    1.88    4.93   14.89   12.51  -24.95   27.92  296.62
J3     2.88    1.96    8.09   15.25   20.53  -38.39   43.53  298.15
J4     3.16    1.93   10.79   15.14   25.89  -47.85   54.40  298.41
J5    11.35   11.06   12.22   39.68    5.10   -9.84   11.07  297.38
J6    11.99   10.99   15.57   39.56   10.14  -18.96   21.50  298.14
J7    12.62   10.84   20.26   39.31   15.55  -29.92   33.72  297.45
J8    13.53   11.18   23.44   39.87   19.04  -35.18   40.00  298.43
J9    40.07   40.99   37.61   70.17    1.76   -5.38    5.66  288.16
J10   41.10   41.18   41.56   70.30    4.35  -10.38   11.25  292.73
J11   42.32   41.24   46.38   70.35    7.88  -16.24   18.05  295.88
J12   43.15   41.00   50.38   70.18   11.03  -21.13   23.83  297.57
J13   14.65   23.47   38.74   55.56  -41.60  -32.11   52.55  217.67
J14   27.31   15.77   26.29   46.67   58.26  -28.58   64.90  333.88
J15   56.56   55.77    6.78   79.48    7.05   77.63   77.96   84.82
J16    2.86    2.93    2.55   19.75    0.58   -1.17    1.31  296.43
J17   20.95   12.84    3.10   42.53   48.37   33.94   59.10   35.06
J18    8.09   15.30    4.76   46.04  -48.53   29.69   56.89  148.55
J19    5.49    4.03   17.74   23.74   21.02  -51.32   55.46  292.27
J20   32.01   40.74   27.12   69.99  -24.39   10.19   26.44  157.31
J21    4.30    7.98    1.59   33.94  -37.99   32.56   50.03  139.40
J22    1.11    1.82    0.88   14.51  -18.69    8.53   20.54  155.45
K1     5.07    4.27    5.07   24.56   12.51   -9.04   15.43  324.16
K2     6.14    4.27    7.24   24.52   25.03  -19.06   31.46  322.73
K3     7.60    4.43   10.02   25.05   37.45  -28.30   46.94  322.92
K4     8.72    4.53   12.90   25.33   46.30  -36.51   58.97  321.74
K5    15.56   14.40   14.98   44.79   10.18   -8.44   13.23  320.35
K6    17.31   14.16   18.33   44.46   21.49  -16.92   27.35  321.79
K7    19.64   14.41   22.65   44.81   32.08  -25.18   40.78  321.88
K8    22.37   14.72   27.38   45.25   43.26  -32.90   54.35  322.74
K9    42.00   41.64   37.69   70.62    5.68   -4.71    7.39  320.35
K10   44.38   41.59   41.25   70.58   12.86   -9.48   15.98  323.61
K11   47.74   42.76   46.65   71.40   18.91  -14.74   23.97  322.05
K12   49.85   42.78   49.70   71.40   24.61  -18.26   30.65  323.44
K13   12.19   20.24   35.72   52.11  -42.56  -33.90   54.41  218.54
K14   22.27   11.74   21.10   40.79   62.06  -29.07   68.52  334.90
K15   48.71   45.81    2.94   73.42   12.85   88.34   89.28   81.72
K16    1.40    1.45    1.11   12.32   -0.01    1.30    1.30   90.59
K17   17.26    9.95    1.44   37.76   50.12   40.68   64.56   39.06
K18    4.86   10.11    2.28   38.04  -48.28   32.74   58.34  145.87
K19    3.58    2.23   13.66   16.64   26.07  -53.58   59.58  295.95
K20    2.70    3.53    2.36   22.05  -12.08    4.45   12.87  159.79
K21    1.34    1.83    1.67   14.57  -11.57   -1.90   11.73  189.35
K22    1.80    2.29    3.57   16.94   -9.47  -13.45   16.44  234.85
L1     3.82    3.13    2.91   20.56   12.78   -2.59   13.04  348.57
L2     4.51    3.07    3.18   20.35   23.51   -4.85   24.01  348.34
L3     5.92    3.47    4.10   21.82   34.26   -8.33   35.26  346.34
L4     6.57    3.74    4.91   22.78   37.01  -11.23   38.67  343.11
L5    13.01   11.32   10.61   40.11   14.62   -4.23   15.23  343.88
L6    15.90   11.76   12.03   40.84   29.19   -7.29   30.08  345.98
L7    18.57   11.56   12.70   40.51   45.23   -9.80   46.28  347.79
L8    20.39   11.93   13.57   41.11   51.74  -11.12   52.92  347.87
L9    43.41   42.53   36.72   71.24    7.27   -2.33    7.63  342.21
L10   45.30   42.27   37.57   71.06   13.51   -3.80   14.03  344.27
L11   48.61   42.93   38.49   71.51   20.84   -4.28   21.28  348.39
L12   50.19   42.25   39.67   71.04   27.11   -6.64   27.91  346.23
L13    8.01   13.89   28.86   44.06  -40.71  -37.39   55.26  222.57
L14   17.35    8.40   16.27   34.81   63.33  -28.85   69.59  335.52
L15   45.16   41.65    2.39   70.63   14.93   87.98   89.23   80.36
L16    0.50    0.51    0.57    4.64    0.37   -2.93    2.96  277.10
L17   13.23    7.09    0.81   32.00   50.98   39.97   64.79   38.10
L18    2.90    6.75    1.58   31.24  -48.01   27.95   55.56  149.80
L19    2.05    1.00    9.17    8.99   30.83  -53.11   61.41  300.13
L20    0.74    0.87    0.81    7.82   -3.94   -1.81    4.34  204.73
L21    0.99    0.89    0.94    8.03    4.96   -3.49    6.06  324.91
L22    2.40    1.87    1.65   14.77   13.35   -1.31   13.42  354.41
GS0    76.49   79.04   68.21   91.26    0.61   -2.84    2.90  282.12
GS1    71.86   74.22   63.11   89.02    0.69   -1.87    2.00  290.42
GS2    61.77   63.80   54.23   83.86    0.65   -1.75    1.87  290.38
GS3    53.34   55.22   46.71   79.18    0.28   -1.39    1.42  281.51
GS4    47.69   49.66   40.91   75.86   -0.48    0.05    0.48  174.45
GS5    41.32   43.10   35.76   71.62   -0.66   -0.32    0.74  205.74
GS6    35.14   36.61   30.19   66.99   -0.51    0.00    0.52  181.54
GS7    30.76   32.07   26.56   63.40   -0.56   -0.20    0.61  200.00
GS8    26.39   27.44   22.74   59.39   -0.27   -0.21    0.38  216.98
GS9    22.98   23.95   19.91   56.04   -0.53   -0.32    0.66  211.01
GS10   19.91   20.93   17.57   52.88   -1.33   -0.71    1.50  207.85
GS11   16.10   16.79   14.10   47.99   -0.47   -0.66    0.82  234.47
GS12   13.03   13.67   11.55   43.75   -0.86   -0.86    1.22  223.43
GS13   10.35   10.81    9.18   39.26   -0.50   -0.94    1.06  241.92
GS14    8.31    8.66    7.20   35.31   -0.34   -0.26    0.45  217.38
GS15    6.66    6.88    5.65   31.53    0.28    0.09    0.31  191.87
GS16    5.34    5.48    4.52   28.05    0.74   -0.02    0.74  178.10
GS17    3.86    3.97    3.38   23.58    0.44   -0.74    0.86  301.15
GS18    2.72    2.85    2.40   19.41   -0.30   -0.47    0.56  237.23
GS19    1.91    1.99    1.57   15.48   -0.31    0.91    0.97  108.79
GS20    1.31    1.36    0.98   11.68   -0.17    2.12    2.13   94.90
GS21    1.07    1.12    0.76    9.90   -0.24    2.72    2.73   95.05
GS22    0.84    0.85    0.65    7.70    0.62    0.94    1.12   56.54
GS23    0.45    0.45    0.53    4.11    0.38   -3.07    3.09  277.04
END_DATA
