lprof/data/targets/Agfa/Reflective/C81253XX.it8
IT8.7/2
ORIGINATOR "FotoTune"
DESCRIPTOR "Agfa IT8"
MATERIAL "Agfacolor"
MANUFACTURER "Agfa"
CREATED "Mon Apr 12 14:32:12 1999"
PROD_DATE "1999:04"
SERIAL "5x7 c81253xx"
NUMBER_OF_FIELDS 9
BEGIN_DATA_FORMAT
SAMPLE_ID XYZ_X XYZ_Y XYZ_Z LAB_L LAB_A LAB_B LAB_C LAB_H
END_DATA_FORMAT
NUMBER_OF_SETS 288
BEGIN_DATA
A1     3.27    2.72    2.16   18.88   11.55    0.77   11.57    3.82
A2     3.89    2.69    1.72   18.74   21.61    4.83   22.15   12.60
A3     5.16    3.12    1.75   20.53   31.02    7.62   31.94   13.80
A4     5.39    3.22    1.85   20.92   32.03    7.24   32.83   12.74
A5    11.03    9.56    7.61   37.03   14.18    1.03   14.23    4.15
A6    13.11    9.76    6.60   37.39   27.06    5.87   27.69   12.24
A7    15.93   10.21    5.67   38.22   40.71   11.53   42.31   15.81
A8    18.56   10.68    5.28   39.03   51.54   14.89   53.65   16.11
A9    40.41   39.50   31.86   69.11    7.36    1.07    7.43    8.28
A10   43.31   40.07   30.95   69.52   14.35    3.17   14.70   12.48
A11   46.31   40.53   29.44   69.85   21.59    6.11   22.44   15.81
A12   46.56   39.11   27.57   68.83   26.69    7.45   27.71   15.59
A13   74.68   77.44   66.96   90.53    0.09   -2.94    2.94  271.86
A14   75.09   77.36   66.89   90.49    1.09   -2.93    3.13  290.47
A15   74.82   77.45   64.34   90.53    0.36   -0.46    0.59  308.25
A16   73.82   76.38   64.14   90.04    0.42   -1.12    1.19  290.59
A17   74.63   76.99   64.53   90.32    0.88   -1.00    1.33  311.12
A18   74.36   77.14   64.76   90.39    0.01   -1.10    1.10  270.80
A19   74.34   76.74   66.90   90.21    0.76   -3.43    3.51  282.63
A20    1.38    1.09    0.64    9.72   10.70    4.65   11.68   23.49
A21    4.87    2.95    0.71   19.87   30.28   20.90   36.78   34.60
A22    9.24    5.07    0.74   26.93   43.74   32.60   54.55   36.69
B1     3.14    2.74    1.64   18.95    8.95    6.03   10.80   34.00
B2     3.77    2.84    0.85   19.37   17.29   17.56   24.64   45.44
B3     4.51    3.01    0.76   20.10   24.53   20.27   31.83   39.57
B4     5.03    3.26    0.76   21.08   27.08   21.97   34.88   39.04
B5    11.36    9.84    5.70   37.56   14.37   10.22   17.63   35.40
B6    13.19   10.05    4.01   37.94   25.19   20.03   32.18   38.50
B7    15.68   10.23    2.39   38.25   39.15   32.10   50.62   39.34
B8    17.61   10.53    1.58   38.78   47.62   41.03   62.86   40.74
B9    40.40   39.74   29.42   69.28    6.61    5.18    8.39   38.07
B10   43.09   40.46   26.57   69.79   12.53   10.81   16.55   40.77
B11   45.92   40.91   23.99   70.11   19.37   15.95   25.09   39.47
B12   46.75   40.56   21.70   69.86   22.76   19.88   30.21   41.12
B13   66.63   71.68   65.35   87.82   -5.37   -6.11    8.13  228.67
B14   70.42   69.41   63.87   86.71    7.64   -6.61   10.09  319.15
B15   71.94   74.90   51.22   89.35   -0.54   10.98   10.99   92.83
B16   59.54   61.35   50.22   82.57    1.00    0.41    1.08   21.91
B17   67.35   67.04   49.71   85.53    6.08    6.09    8.60   45.01
B18   63.90   69.28   51.25   86.65   -6.43    6.29    9.00  135.68
B19   62.29   63.81   62.17   83.86    1.85   -9.85   10.02  280.61
B20    3.04    2.09    0.70   15.94   20.27   14.22   24.76   35.04
B21    7.97    4.50    0.74   25.26   39.96   29.54   49.68   36.48
B22   29.40   25.20   14.22   57.27   20.77   14.99   25.63   35.82
C1     4.16    3.93    2.30   23.44    5.43    7.43    9.20   53.85
C2     4.57    4.07    1.26   23.90    9.00   19.12   21.14   64.79
C3     5.27    4.35    0.95   24.79   13.95   25.18   28.79   61.01
C4     5.31    4.38    0.95   24.88   14.07   25.31   28.96   60.93
C5    22.27   21.57   10.60   53.57    6.97   19.01   20.24   69.85
C6    24.99   21.99    5.72   54.01   17.04   38.52   42.12   66.13
C7    26.24   21.54    2.46   53.54   24.31   57.88   62.78   67.21
C8    28.58   22.51    1.74   54.56   29.27   66.35   72.53   66.19
C9    47.51   47.95   32.22   74.79    3.61   10.31   10.93   70.71
C10   50.08   49.12   26.84   75.53    7.47   20.23   21.57   69.71
C11   52.52   50.01   22.66   76.07   11.55   28.71   30.95   68.08
C12   52.36   48.87   18.29   75.36   14.15   36.47   39.11   68.79
C13   56.26   63.75   62.62   83.84  -12.48  -10.34   16.20  219.65
C14   63.84   59.07   59.18   81.33   16.31  -11.26   19.81  325.39
C15   69.71   72.69   42.07   88.31   -0.75   20.01   20.02   92.16
C16   44.17   45.78   37.24   73.40    0.13    0.69    0.71   78.83
C17   59.06   55.48   39.04   79.32   13.85    8.45   16.23   31.42
C18   51.81   59.61   41.07   81.62  -14.28    9.77   17.31  145.61
C19   47.91   48.52   55.22   75.15    3.17  -17.82   18.10  280.09
C20    1.90    1.56    0.72   13.00   10.24    8.98   13.61   41.25
C21   22.78   17.35    5.81   48.70   30.24   28.94   41.85   43.74
C22   35.94   33.25   21.02   64.37   13.53   11.74   17.92   40.95
D1     3.86    3.93    2.32   23.43    1.12    7.18    7.27   81.17
D2     3.90    4.04    1.34   23.80    0.11   18.06   18.06   89.65
D3     4.36    4.36    1.03   24.82    2.17   23.92   24.01   84.82
D4     4.34    4.37    1.03   24.86    1.69   23.92   23.98   85.95
D5    24.95   26.44   13.26   58.46   -2.24   19.60   19.74   96.53
D6    24.40   26.20    7.74   58.23   -3.61   37.10   37.28   95.56
D7    25.45   27.42    3.97   59.36   -4.04   57.19   57.33   94.04
D8    24.42   25.61    2.11   57.67   -1.16   68.10   68.11   90.98
D9    54.19   57.12   36.55   80.24   -2.18   13.44   13.62   99.19
D10   56.12   58.83   30.79   81.20   -1.41   23.56   23.60   93.44
D11   55.97   59.25   25.42   81.43   -2.80   32.88   32.99   94.88
D12   56.49   59.75   21.03   81.70   -2.70   41.61   41.71   93.71
D13   46.76   55.85   59.32   79.53  -18.87  -14.52   23.81  217.56
D14   57.11   49.46   54.00   75.74   24.55  -15.51   29.05  327.71
D15   67.71   70.50   34.10   87.25   -0.53   29.00   29.00   91.06
D16   32.03   33.19   27.56   64.32    0.13   -0.32    0.35  293.47
D17   51.06   45.17   29.20   73.00   20.94   11.94   24.10   29.70
D18   40.69   49.96   31.82   76.04  -21.63   13.08   25.28  148.84
D19   36.17   36.14   48.26   66.62    4.55  -24.85   25.26  280.36
D20   13.88   10.58    3.43   38.86   25.60   25.31   36.01   44.67
D21   22.55   21.95   14.23   53.97    6.48    9.31   11.34   55.15
D22   39.83   38.62   24.15   68.47    8.34   12.82   15.30   56.99
E1     3.51    3.93    2.37   23.42   -4.12    6.72    7.89  121.51
E2     3.20    3.91    1.39   23.38   -9.09   16.62   18.95  118.65
E3     3.40    4.37    1.12   24.85  -12.10   22.71   25.73  118.05
E4     3.39    4.39    1.12   24.93  -12.56   22.78   26.01  118.85
E5    11.68   13.34    7.39   43.28   -8.11   12.69   15.06  122.58
E6    11.03   13.76    4.97   43.88  -15.35   24.80   29.16  121.76
E7    10.35   14.16    2.84   44.47  -22.97   39.12   45.36  120.42
E8    10.31   14.74    1.96   45.28  -26.83   48.19   55.15  119.10
E9    35.60   39.09   25.93   68.82   -6.85   10.22   12.30  123.85
E10   35.19   39.93   23.17   69.42  -10.84   16.26   19.55  123.68
E11   34.72   40.81   19.95   70.04  -15.13   23.71   28.12  122.55
E12   33.72   41.10   16.70   70.24  -19.41   31.24   36.78  121.85
E13   39.86   49.74   56.28   75.92  -23.67  -17.62   29.51  216.68
E14   51.42   41.93   49.18   70.82   31.26  -18.65   36.40  329.17
E15   65.26   67.60   25.88   85.81    0.24   39.60   39.60   89.65
E16   23.61   24.49   20.05   56.58    0.03    0.31    0.32   83.32
E17   44.57   37.44   21.42   67.60   26.31   16.52   31.08   32.11
E18   32.19   42.03   24.35   70.90  -27.62   16.62   32.24  148.96
E19   27.95   27.44   42.21   59.39    6.05  -30.02   30.62  281.39
E20   22.89   15.76    1.31   46.66   39.52   57.78   70.00   55.63
E21   17.38   14.49    3.44   44.92   19.89   35.68   40.84   60.86
E22   29.93   26.33    9.81   58.36   18.11   29.84   34.91   58.75
F1     1.41    1.75    1.23   14.12   -7.39    2.76    7.89  159.57
F2     1.22    1.87    1.03   14.74  -16.15    6.55   17.43  157.93
F3     1.17    2.09    1.00   15.99  -23.03    9.23   24.81  158.17
F4     1.31    2.48    1.14   17.82  -26.47   10.30   28.40  158.75
F5     6.61    8.15    5.78   34.28  -12.15    4.20   12.86  160.92
F6     5.54    8.30    5.10   34.61  -25.21    8.17   26.50  162.04
F7     4.42    8.24    4.38   34.48  -38.58   11.82   40.35  162.96
F8     3.20    7.70    3.74   33.37  -51.97   13.77   53.76  165.15
F9    35.07   38.80   29.99   68.61   -7.73    3.11    8.33  158.07
F10   34.62   40.13   29.68   69.56  -13.34    5.23   14.34  158.60
F11   33.30   40.65   29.17   69.93  -19.52    6.70   20.64  161.04
F12   31.81   40.83   27.67   70.05  -25.38    9.38   27.06  159.73
F13   34.07   44.35   53.38   72.46  -27.76  -20.50   34.51  216.45
F14   47.00   36.46   45.22   66.87   36.37  -20.83   41.91  330.21
F15   63.78   65.71   21.30   84.85    1.03   46.51   46.52   88.73
F16   17.93   18.55   15.32   50.15    0.29   -0.07    0.41  171.91
F17   39.90   32.07   16.54   63.40   30.44   19.80   36.32   33.04
F18   26.97   36.82   19.20   67.15  -31.35   20.30   37.35  147.07
F19   22.28   21.37   37.50   53.35    7.97  -34.24   35.15  283.10
F20   27.17   26.40   14.40   58.42    7.06   16.51   17.97   66.85
F21   34.53   32.14   12.92   63.46   12.62   29.16   31.78   66.60
F22   39.29   37.69   18.83   67.79    9.55   22.24   24.20   66.77
G1     2.23    2.72    2.70   18.92   -7.96   -3.78    8.82  205.40
G2     1.92    2.82    2.97   19.31  -16.69   -5.13   17.46  197.10
G3     1.76    3.10    3.48   20.44  -25.40   -6.82   26.30  195.01
G4     1.95    3.55    3.91   22.12  -28.10   -6.60   28.86  193.22
G5     8.93   10.81    9.41   39.25  -11.85   -1.78   11.98  188.54
G6     7.73   10.91    9.96   39.43  -23.23   -3.28   23.46  188.04
G7     6.28   10.67   10.36   39.01  -35.98   -5.33   36.37  188.43
G8     5.28   10.93   11.27   39.47  -49.15   -7.40   49.70  188.56
G9    34.76   38.60   31.14   68.46   -8.15    1.07    8.22  172.58
G10   33.35   39.12   32.86   68.83  -14.65   -0.91   14.67  183.58
G11   32.44   40.06   33.78   69.51  -20.78   -1.11   20.80  183.05
G12   31.14   40.56   35.12   69.86  -27.02   -2.45   27.13  185.17
G13   28.23   38.60   49.93   68.46  -31.98  -23.60   39.75  216.42
G14   40.72   29.16   39.46   60.92   43.64  -23.82   49.71  331.38
G15   61.47   62.65   15.25   83.26    2.56   57.19   57.24   87.43
G16   11.66   11.95   10.05   41.14    1.03   -0.65    1.23  328.08
G17   33.86   25.34   11.59   57.42   36.37   22.60   42.82   31.84
G18   20.77   30.44   14.39   62.03  -36.54   22.78   43.07  148.05
G19   15.54   14.27   31.03   44.61   10.89  -39.90   41.36  285.26
G20   37.17   36.60   17.38   66.97    6.32   24.05   24.86   75.28
G21   35.39   34.74   11.31   65.54    6.57   37.47   38.03   80.07
G22   44.38   41.68    3.04   70.65   12.60   82.82   83.78   81.35
H1     2.43    2.73    3.27   18.93   -3.97   -7.97    8.90  243.51
H2     2.20    2.80    4.26   19.22  -10.06  -13.75   17.03  233.83
H3     1.90    2.68    5.30   18.74  -14.57  -20.20   24.90  234.20
H4     2.26    3.26    6.79   21.03  -16.55  -23.17   28.47  234.46
H5     9.48   10.77   11.24   39.19   -7.14   -7.80   10.57  227.51
H6     8.84   11.14   14.32   39.81  -15.06  -15.36   21.52  225.57
H7     7.68   10.76   17.81   39.17  -22.65  -24.87   33.64  227.68
H8     7.18   10.84   21.48   39.30  -28.03  -32.40   42.83  229.14
H9    34.94   38.42   33.82   68.33   -6.99   -3.20    7.69  204.58
H10   34.40   38.95   38.20   68.71  -10.49   -8.70   13.63  219.68
H11   34.43   40.36   44.75   69.73  -14.73  -15.33   21.26  226.14
H12   34.00   40.81   49.71   70.04  -17.56  -20.61   27.08  229.57
H13   23.40   33.56   46.49   64.61  -35.55  -26.24   44.18  216.43
H14   34.45   22.51   33.39   54.57   50.68  -26.30   57.10  332.57
H15   59.38   59.79   11.11   81.73    4.24   65.94   66.08   86.32
H16    7.61    7.69    6.41   33.34    1.82   -0.31    1.86  351.09
H17   28.11   19.44    7.35   51.20   41.94   26.51   49.61   32.29
H18   15.86   24.94   10.16   57.01  -40.69   26.36   48.49  147.05
H19   11.23    9.60   25.85   37.13   15.16  -44.28   46.80  288.90
H20   41.44   42.83   17.47   71.44    0.49   31.51   31.51   89.11
H21   32.65   34.27   23.78   65.18   -1.33    7.80    7.91   99.60
H22   35.53   39.29   12.97   68.96   -7.70   38.53   39.29  101.31
I1     3.88    3.86    5.29   23.21    2.30  -12.48   12.68  280.42
I2     4.01    3.91    8.09   23.35    3.56  -24.40   24.66  278.28
I3     4.14    3.99   11.24   23.65    4.19  -34.56   34.81  276.92
I4     4.25    4.02   14.91   23.72    5.43  -44.62   44.94  276.93
I5    13.37   13.74   14.30   43.86    0.80   -8.32    8.36  275.49
I6    13.36   13.66   18.21   43.74    1.31  -17.90   17.94  274.17
I7    13.38   13.52   22.48   43.53    2.24  -27.02   27.12  274.74
I8    13.93   13.88   27.12   44.07    3.51  -34.51   34.68  275.81
I9    36.85   38.42   34.42   68.32   -0.55   -4.09    4.12  262.38
I10   37.93   39.44   39.06   69.07   -0.27   -9.25    9.25  268.34
I11   38.20   39.60   44.21   69.18    0.12  -15.62   15.62  270.45
I12   38.54   39.72   49.19   69.27    0.83  -21.36   21.38  272.23
I13   19.70   29.48   43.52   61.21  -38.24  -28.52   47.70  216.71
I14   30.72   18.89   29.66   50.54   54.69  -27.49   61.22  333.31
I15   57.79   57.63    8.74   80.53    5.55   71.79   72.00   85.58
I16    5.28    5.26    4.51   27.44    2.65   -1.06    2.88  338.80
I17   24.63   16.10    5.02   47.11   45.27   30.10   54.36   33.62
I18   12.85   21.35    7.64   53.33  -43.39   29.03   52.20  146.22
I19    8.36    6.64   21.90   30.98   18.85  -47.57   51.17  291.62
I20   42.38   47.08   18.80   74.24   -8.79   33.42   34.55  104.74
I21   12.32   16.48    4.54   47.60  -22.26   33.58   40.29  123.54
I22   28.96   37.32   19.99   67.51  -25.06   19.26   31.60  142.46
J1     2.03    1.83    3.01   14.55    6.51  -13.62   15.09  295.54
J2     2.28    1.79    4.70   14.36   12.58  -24.61   27.64  297.08
J3     2.80    1.88    7.85   14.88   20.54  -38.06   43.24  298.36
J4     3.05    1.84   10.40   14.64   26.03  -47.49   54.15  298.72
J5    10.83   10.45   11.70   38.64    5.69  -10.11   11.60  299.40
J6    11.65   10.59   15.05   38.87   10.68  -18.83   21.65  299.54
J7    12.10   10.25   19.10   38.29   16.35  -29.23   33.50  299.23
J8    12.88   10.51   22.26   38.74   19.67  -34.87   40.03  299.42
J9    38.70   39.40   35.44   69.04    2.32   -4.32    4.90  298.23
J10   39.93   39.84   39.39   69.35    4.85   -9.19   10.39  297.80
J11   41.32   40.14   44.58   69.57    8.18  -15.41   17.44  297.98
J12   41.91   39.69   49.10   69.25   11.35  -21.28   24.12  298.08
J13   14.35   23.07   38.21   55.14  -41.65  -32.10   52.59  217.62
J14   26.55   15.16   25.49   45.85   58.74  -28.60   65.32  334.04
J15   56.03   55.25    6.68   79.18    6.99   77.55   77.86   84.85
J16    2.72    2.76    2.47   19.06    1.12   -1.66    2.00  303.97
J17   20.50   12.45    3.07   41.93   48.76   33.11   58.94   34.17
J18    7.99   15.17    4.77   45.88  -48.69   29.29   56.82  148.96
J19    5.30    3.80   17.27   22.99   21.99  -51.57   56.06  293.09
J20   30.84   39.58   26.31   69.18  -25.12   10.17   27.10  157.95
J21    4.23    7.91    1.55   33.81  -38.29   32.69   50.35  139.51
J22    1.08    1.75    0.85   14.15  -18.17    8.50   20.06  154.93
K1     4.85    4.03    4.85   23.76   13.17   -9.24   16.10  324.96
K2     6.02    4.14    7.07   24.16   25.29  -18.97   31.61  323.13
K3     7.29    4.24    9.55   24.45   37.08  -27.72   46.29  323.22
K4     8.44    4.40   12.49   24.95   45.50  -36.00   58.03  321.65
K5    14.77   13.65   14.23   43.72   10.13   -8.36   13.14  320.46
K6    16.36   13.26   17.22   43.15   21.85  -16.67   27.49  322.67
K7    18.43   13.40   21.14   43.36   32.17  -24.70   40.56  322.48
K8    21.34   13.89   26.17   44.07   43.56  -32.87   54.57  322.96
K9    40.26   39.89   35.21   69.39    5.72   -3.37    6.64  329.48
K10   43.06   40.12   38.90   69.56   13.44   -8.19   15.75  328.62
K11   46.50   41.21   44.43   70.32   20.10  -13.92   24.45  325.29
K12   48.64   41.32   48.08   70.40   25.68  -18.14   31.43  324.78
K13   11.95   19.90   35.22   51.72  -42.55  -33.86   54.37  218.51
K14   21.99   11.55   20.78   40.49   62.06  -28.92   68.47  335.02
K15   48.48   45.62    2.94   73.31   12.71   88.14   89.06   81.79
K16    1.34    1.38    1.11   11.79    0.41    0.42    0.59   45.41
K17   17.02    9.76    1.46   37.40   50.33   39.97   64.26   38.45
K18    4.78   10.03    2.28   37.90  -48.60   32.51   58.47  146.22
K19    3.46    2.12   13.34   16.12   26.56  -53.60   59.82  296.35
K20    2.55    3.28    2.34   21.15  -11.12    3.06   11.54  164.62
K21    1.28    1.72    1.66   13.94  -10.68   -2.84   11.05  194.88
K22    1.67    2.08    3.41   15.90   -8.15  -14.19   16.36  240.14
L1     3.54    2.88    2.77   19.56   12.94   -3.26   13.34  345.89
L2     4.30    2.92    3.09   19.72   23.31   -5.36   23.92  347.03
L3     5.66    3.35    3.92   21.40   33.23   -7.97   34.17  346.52
L4     6.27    3.61    4.68   22.31   35.90  -10.76   37.48  343.32
L5    12.10   10.40    9.92   38.55   15.20   -4.69   15.91  342.83
L6    14.70   10.82   11.15   39.26   28.92   -7.39   29.85  345.68
L7    17.71   10.90   11.82   39.42   45.34   -9.11   46.25  348.64
L8    19.65   11.36   12.46   40.19   52.10   -9.66   52.99  349.50
L9    41.40   40.33   34.15   69.70    7.85   -1.33    7.96  350.43
L10   43.87   40.49   35.13   69.82   14.72   -2.54   14.94  350.21
L11   47.03   41.14   35.78   70.27   21.80   -2.68   21.97  352.98
L12   48.35   40.38   37.02   69.74   27.74   -5.32   28.26  349.13
L13    7.93   13.74   28.60   43.86  -40.61  -37.32   55.15  222.58
L14   17.38    8.41   16.25   34.83   63.40  -28.75   69.62  335.60
L15   44.56   41.00    2.35   70.18   15.19   87.48   88.79   80.15
L16    0.49    0.50    0.56    4.49    0.37   -2.87    2.89  277.21
L17   13.03    6.95    0.79   31.70   51.00   39.72   64.64   37.92
L18    2.84    6.60    1.54   30.88  -47.65   27.68   55.10  149.85
L19    2.03    0.99    9.11    8.86   30.89  -53.11   61.44  300.18
L20    0.69    0.80    0.81    7.26   -3.33   -2.65    4.25  218.56
L21    0.92    0.83    0.94    7.48    4.77   -4.44    6.51  317.06
L22    2.20    1.70    1.62   13.84   13.41   -2.55   13.65  349.24
GS0    76.00   78.54   67.71   91.02    0.63   -2.78    2.85  282.79
GS1    71.49   73.76   61.86   88.81    0.85   -1.03    1.33  309.29
GS2    61.42   63.40   52.75   83.65    0.75   -0.52    0.91  325.07
GS3    53.03   54.74   44.85   78.90    0.67    0.35    0.76   26.79
GS4    46.59   48.42   39.15   75.10   -0.23    1.01    1.04  102.74
GS5    40.38   42.08   34.04   70.93   -0.52    0.94    1.08  118.50
GS6    33.99   35.40   28.88   66.06   -0.46    0.50    0.69  133.68
GS7    29.62   30.83   25.35   62.36   -0.33    0.13    0.36  159.41
GS8    25.46   26.49   21.93   58.49   -0.31   -0.18    0.35  212.21
GS9    22.14   23.11   19.13   55.19   -0.63   -0.17    0.66  194.70
GS10   19.33   20.23   16.72   52.10   -0.90   -0.08    0.91  185.33
GS11   15.56   16.22   13.60   47.27   -0.42   -0.60    0.74  234.59
GS12   12.73   13.24   11.32   43.12   -0.21   -1.23    1.25  260.32
GS13   10.01   10.35    8.86   38.46    0.31   -1.22    1.25  284.39
GS14    8.21    8.42    7.02   34.86    0.80   -0.31    0.87  338.82
GS15    6.64    6.72    5.60   31.17    1.54   -0.25    1.57  350.98
GS16    5.23    5.30    4.46   27.56    1.50   -0.56    1.61  339.76
GS17    3.82    3.87    3.40   23.24    1.27   -1.46    1.94  311.01
GS18    2.67    2.76    2.43   19.03    0.26   -1.42    1.45  280.38
GS19    1.88    1.94    1.61   15.18    0.17   -0.01    0.17  352.41
GS20    1.29    1.34    0.98   11.53    0.09    1.81    1.81   87.04
GS21    1.04    1.08    0.75    9.62    0.17    2.48    2.49   86.21
GS22    0.82    0.82    0.64    7.47    0.94    0.85    1.26   41.89
GS23    0.44    0.45    0.53    4.11    0.36   -2.91    2.93  277.01
END_DATA
