lprof/data/targets/Agfa/Reflective/C81231XX.it8
IT8.7/2
ORIGINATOR "FotoTune"
DESCRIPTOR "Agfa IT8"
MATERIAL "Agfacolor"
MANUFACTURER "Agfa"
CREATED "Mon Apr 12 10:53:47 1999"
PROD_DATE "1999:04"
SERIAL "5x7 c81231xx"
NUMBER_OF_FIELDS 9
BEGIN_DATA_FORMAT
SAMPLE_ID XYZ_X XYZ_Y XYZ_Z LAB_L LAB_A LAB_B LAB_C LAB_H
END_DATA_FORMAT
NUMBER_OF_SETS 288
BEGIN_DATA
A1     3.21    2.66    2.09   18.64   11.56    1.03   11.60    5.09
A2     3.87    2.66    1.65   18.65   21.83    5.44   22.49   14.01
A3     5.13    3.06    1.69   20.29   31.68    7.86   32.64   13.93
A4     5.31    3.15    1.81   20.64   32.33    7.19   33.12   12.55
A5    11.10    9.72    7.68   37.33   13.38    1.31   13.45    5.59
A6    13.41   10.01    6.60   37.86   26.91    6.66   27.73   13.91
A7    15.86   10.18    5.77   38.17   40.50   11.01   41.97   15.20
A8    18.24   10.45    5.28   38.65   51.50   14.21   53.43   15.42
A9    40.99   40.06   33.17   69.51    7.43   -0.21    7.45  178.32
A10   43.51   40.61   32.06   69.90   13.31    2.13   13.48    9.09
A11   46.92   41.36   30.72   70.43   20.82    5.11   21.44   13.78
A12   47.25   39.91   28.56   69.40   26.15    6.79   27.01   14.55
A13   75.03   77.79   67.33   90.68    0.12   -3.01    3.01  272.22
A14   75.27   77.54   67.18   90.57    1.09   -3.05    3.24  289.64
A15   75.18   77.81   65.28   90.69    0.38   -1.07    1.13  289.34
A16   74.15   76.65   65.04   90.16    0.58   -1.76    1.86  288.07
A17   74.76   77.10   65.15   90.36    0.96   -1.51    1.80  302.39
A18   74.71   77.48   65.50   90.54    0.05   -1.53    1.54  272.05
A19   74.38   76.74   66.88   90.21    0.86   -3.41    3.51  284.13
A20    1.28    1.00    0.61    9.02   10.58    4.05   11.33   20.94
A21    4.76    2.86    0.67   19.44   30.59   20.80   36.99   34.22
A22    8.97    4.88    0.69   26.39   43.80   32.40   54.48   36.49
B1     3.11    2.70    1.59   18.83    8.93    6.51   11.06   36.05
B2     3.74    2.82    0.81   19.28   17.17   17.92   24.82   46.22
B3     4.48    2.99    0.73   19.99   24.74   20.78   32.31   40.03
B4     5.03    3.24    0.73   21.01   27.44   22.53   35.50   39.39
B5    11.61   10.17    5.88   38.15   13.59   10.45   17.15   37.54
B6    13.59   10.39    4.00   38.52   25.26   21.08   32.90   39.85
B7    15.81   10.33    2.32   38.43   39.08   32.97   51.14   40.15
B8    17.41   10.41    1.52   38.58   47.40   41.18   62.79   40.99
B9    41.06   40.53   30.55   69.85    6.19    4.37    7.58   35.10
B10   43.22   40.85   27.59   70.07   11.72    9.55   15.11   39.14
B11   46.72   41.96   25.03   70.85   18.44   15.31   23.97   39.71
B12   47.53   41.48   22.51   70.51   22.14   19.43   29.45   41.26
B13   66.26   71.54   65.49   87.75   -5.90   -6.35    8.66  227.09
B14   70.25   68.97   63.93   86.49    8.20   -7.04   10.81  319.38
B15   72.63   75.63   53.08   89.69   -0.55    9.53    9.54   93.34
B16   58.90   60.65   51.64   82.19    1.10   -1.82    2.14  301.54
B17   67.46   66.81   51.24   85.40    6.86    4.17    8.02   31.28
B18   63.65   69.25   52.58   86.63   -6.94    4.80    8.44  145.39
B19   61.46   62.85   61.86   83.37    2.07  -10.41   10.62  281.23
B20    2.96    2.02    0.67   15.59   20.43   14.18   24.88   34.75
B21    7.94    4.45    0.69   25.10   40.40   30.11   50.40   36.69
B22   29.44   25.28   14.34   57.35   20.57   14.84   25.37   35.79
C1     4.24    4.02    2.30   23.72    5.23    7.81    9.40   56.18
C2     4.60    4.11    1.24   24.01    8.84   19.63   21.53   65.76
C3     5.31    4.40    0.93   24.97   13.68   25.94   29.32   62.19
C4     5.29    4.38    0.92   24.88   13.86   25.74   29.23   61.68
C5    22.69   21.95   10.66   53.97    7.12   19.50   20.76   69.93
C6    25.20   22.25    5.74   54.29   16.75   38.96   42.40   66.74
C7    26.40   21.83    2.43   53.85   23.66   58.65   63.24   68.03
C8    28.58   22.60    1.71   54.65   28.85   66.92   72.87   66.68
C9    47.51   48.16   33.69   74.93    3.05    8.35    8.90   69.93
C10   50.24   49.36   27.87   75.68    7.22   18.76   20.10   68.96
C11   52.76   50.42   23.33   76.32   11.07   27.88   30.00   68.34
C12   52.65   49.14   19.06   75.54   14.15   35.10   37.85   68.04
C13   56.54   64.08   62.96   84.01  -12.51  -10.36   16.24  219.65
C14   64.02   59.24   59.54   81.43   16.33  -11.47   19.95  324.92
C15   70.51   73.56   43.96   88.71   -0.81   18.36   18.39   92.53
C16   44.75   46.27   38.89   73.72    0.44   -0.99    1.12  297.13
C17   59.58   55.94   40.51   79.58   13.93    6.98   15.59   26.63
C18   52.38   60.24   42.43   81.96  -14.23    8.64   16.65  148.78
C19   48.25   48.93   55.49   75.41    3.01  -17.67   17.92  279.67
C20    1.85    1.51    0.68   12.68   10.26    9.09   13.70   41.53
C21   22.91   17.53    5.87   48.93   29.86   29.06   41.67   44.22
C22   36.17   33.65   21.30   64.68   12.94   11.75   17.48   42.21
D1     3.92    4.04    2.30   23.81    0.32    7.91    7.93   87.67
D2     3.99    4.16    1.29   24.20   -0.27   19.28   19.28   90.79
D3     4.38    4.41    1.00   25.00    1.72   24.71   24.77   86.01
D4     4.40    4.47    1.03   25.15    1.28   24.58   24.61   87.00
D5    25.65   27.12   13.68   59.09   -2.07   19.57   19.67   96.06
D6    25.05   26.77    7.92   58.76   -3.18   37.31   37.44   94.89
D7    25.74   27.58    3.92   59.51   -3.47   57.71   57.81   93.44
D8    24.51   25.55    2.06   57.60   -0.51   68.44   68.44   90.43
D9    53.60   56.43   37.93   79.85   -1.98   10.87   11.05  100.34
D10   55.90   58.49   31.90   81.01   -1.17   21.52   21.56   93.12
D11   55.81   58.99   25.89   81.29   -2.62   31.83   31.93   94.71
D12   56.28   59.65   21.72   81.65   -2.98   40.15   40.26   94.25
D13   47.62   56.69   59.83   80.01  -18.55  -14.19   23.35  217.43
D14   57.44   49.86   54.35   75.99   24.30  -15.48   28.81  327.52
D15   68.21   71.10   35.57   87.54   -0.67   27.40   27.40   91.40
D16   32.72   33.90   28.61   64.88    0.19   -1.10    1.12  282.52
D17   51.68   45.85   30.42   73.45   20.66   10.77   23.30   27.53
D18   41.64   50.94   32.99   76.64  -21.33   12.35   24.66  149.95
D19   36.79   36.76   48.65   67.10    4.53  -24.47   24.89  280.49
D20   14.25   10.86    3.46   39.35   25.78   25.94   36.57   45.18
D21   23.15   22.49   14.59   54.55    6.72    9.38   11.53   54.34
D22   39.83   38.80   24.35   68.60    7.75   12.68   14.86   58.56
E1     3.49    3.97    2.34   23.56   -5.01    7.16    8.74  124.94
E2     3.10    3.85    1.34   23.17   -9.88   16.92   19.59  120.26
E3     3.31    4.28    1.08   24.58  -12.36   22.83   25.97  118.44
E4     3.28    4.30    1.10   24.62  -12.99   22.65   26.11  119.83
E5    11.67   13.35    7.31   43.28   -8.15   13.06   15.40  122.01
E6    11.00   13.78    4.97   43.93  -15.80   24.90   29.49  122.40
E7    10.28   14.06    2.76   44.31  -22.85   39.56   45.68  120.01
E8    10.10   14.43    1.89   44.85  -26.57   48.08   54.93  118.93
E9    36.18   39.53   26.86   69.13   -6.27    9.17   11.11  124.39
E10   35.60   40.25   23.77   69.65  -10.45   15.55   18.73  123.93
E11   35.06   40.97   20.32   70.15  -14.41   23.15   27.27  121.93
E12   34.03   41.25   17.00   70.36  -18.83   30.76   36.06  121.47
E13   40.27   50.17   56.64   76.18  -23.51  -17.55   29.34  216.73
E14   52.07   42.76   49.83   71.39   30.53  -18.42   35.67  328.89
E15   65.68   68.08   26.60   86.05    0.15   38.78   38.78   89.78
E16   24.25   25.15   20.65   57.22    0.02    0.20    0.44  182.76
E17   45.19   38.16   22.07   68.13   25.78   16.18   30.44   32.10
E18   32.75   42.63   24.93   71.31  -27.42   16.29   31.89  149.29
E19   28.55   28.15   42.72   60.03    5.60  -29.54   30.08  280.73
E20   22.68   15.63    1.28   46.49   39.33   57.82   69.93   55.78
E21   17.44   14.59    3.35   45.07   19.58   36.56   41.47   61.83
E22   29.80   26.28    9.77   58.30   17.83   29.90   34.81   59.19
F1     1.37    1.71    1.17   13.86   -7.60    3.01    8.17  158.45
F2     1.21    1.87    1.00   14.76  -16.53    7.03   17.96  156.93
F3     1.16    2.09    0.95   15.94  -23.19    9.80   25.17  157.10
F4     1.31    2.49    1.11   17.84  -26.64   10.79   28.74  157.95
F5     6.45    8.01    5.74   34.00  -12.48    3.90   13.08  162.63
F6     5.36    8.16    5.06   34.32  -26.01    7.91   27.19  163.08
F7     4.36    8.20    4.32   34.39  -39.01   12.05   40.82  162.84
F8     3.18    7.62    3.65   33.18  -51.68   14.04   53.56  164.80
F9    35.54   39.22   30.90   68.90   -7.44    2.20    7.77  163.56
F10   34.97   40.35   30.49   69.71  -12.82    4.23   13.51  161.77
F11   33.64   40.68   29.78   69.95  -18.44    5.77   19.33  162.63
F12   32.19   41.01   28.36   70.19  -24.58    8.47   26.01  161.00
F13   34.31   44.62   53.63   72.65  -27.72  -20.45   34.44  216.43
F14   47.37   36.88   45.65   67.18   36.03  -20.80   41.60  330.00
F15   64.08   66.04   21.61   85.02    0.97   46.17   46.18   88.79
F16   18.13   18.74   15.49   50.38    0.38   -0.10    0.57  167.64
F17   40.12   32.33   16.78   63.61   30.18   19.64   36.01   33.05
F18   26.97   36.86   19.26   67.18  -31.51   20.24   37.46  147.29
F19   22.38   21.53   37.61   53.53    7.64  -34.10   34.94  282.64
F20   27.37   26.68   14.53   58.67    6.77   16.62   17.95   67.82
F21   34.58   32.38   13.16   63.65   11.95   28.88   31.25   67.51
F22   38.66   37.28   18.78   67.48    8.92   21.79   23.55   67.73
G1     2.16    2.68    2.62   18.71   -8.70   -3.48    9.38  201.80
G2     1.91    2.84    2.97   19.40  -17.34   -4.97   18.04  195.99
G3     1.75    3.11    3.45   20.46  -25.59   -6.55   26.41  194.35
G4     1.93    3.53    3.82   22.07  -28.18   -6.18   28.85  192.36
G5     8.90   10.82    9.46   39.28  -12.26   -1.88   12.40  188.68
G6     7.64   10.86   10.08   39.35  -23.83   -3.82   24.14  189.10
G7     6.17   10.60   10.39   38.90  -36.61   -5.61   37.03  188.71
G8     5.23   10.80   11.36   39.23  -48.79   -8.09   49.45  189.42
G9    35.25   39.02   32.37   68.77   -7.82   -0.29    7.85  182.10
G10   33.97   39.58   34.21   69.18  -13.94   -2.32   14.15  189.42
G11   32.66   40.00   34.80   69.46  -19.81   -2.66   19.99  187.66
G12   31.53   40.83   36.33   70.06  -26.41   -3.81   26.68  188.21
G13   28.19   38.60   49.96   68.46  -32.17  -23.60   39.90  216.28
G14   41.00   29.48   39.81   61.20   43.27  -23.80   49.38  331.20
G15   61.75   62.92   15.37   83.40    2.59   57.14   57.20   87.40
G16   11.76   12.14   10.10   41.43    0.44   -0.31    0.77  160.04
G17   33.80   25.33   11.51   57.40   36.25   22.81   42.82   32.18
G18   20.74   30.42   14.35   62.01  -36.62   22.85   43.17  148.04
G19   15.73   14.49   31.19   44.92   10.65  -39.62   41.03  285.04
G20   37.22   36.83   17.53   67.14    5.70   23.99   24.65   76.65
G21   35.39   34.88   11.23   65.65    6.07   37.89   38.37   80.89
G22   43.50   40.75    2.90   70.01   12.84   82.71   83.70   81.18
H1     2.37    2.70    3.24   18.77   -4.60   -7.99    9.22  240.02
H2     2.18    2.82    4.26   19.33  -10.84  -13.56   17.35  231.37
H3     1.93    2.76    5.35   19.03  -15.21  -19.99   25.11  232.72
H4     2.28    3.30    6.90   21.23  -16.86  -23.29   28.76  234.08
H5     9.57   10.91   11.61   39.43   -7.38   -8.50   11.26  229.01
H6     8.80   11.12   14.58   39.78  -15.34  -16.08   22.23  226.34
H7     7.69   10.81   18.34   39.25  -22.94  -25.91   34.60  228.48
H8     7.27   10.99   22.19   39.57  -28.33  -33.31   43.72  229.61
H9    35.70   39.08   35.58   68.81   -6.45   -4.93    8.12  217.35
H10   35.14   39.54   39.58   69.14   -9.80   -9.82   13.87  225.04
H11   35.07   40.81   46.27   70.04  -13.90  -16.62   21.67  230.10
H12   34.32   40.82   50.38   70.05  -16.48  -21.35   26.97  232.35
H13   23.36   33.58   46.60   64.62  -35.76  -26.35   44.43  216.38
H14   35.16   23.24   34.21   55.32   49.88  -26.22   56.35  332.27
H15   59.62   60.06   11.23   81.87    4.20   65.84   65.97   86.36
H16    7.66    7.85    6.49   33.65    0.92   -0.11    0.98  173.93
H17   28.47   19.81    7.47   51.63   41.48   26.83   49.40   32.89
H18   15.83   24.94   10.19   57.01  -40.93   26.28   48.65  147.30
H19   11.22    9.71   25.98   37.32   14.30  -44.17   46.42  287.93
H20   41.64   43.00   17.95   71.56    0.58   30.66   30.66   88.91
H21   33.03   34.56   24.24   65.40   -1.02    7.37    7.45   98.01
H22   35.10   38.67   12.86   68.51   -7.23   38.04   38.72  100.75
I1     3.86    3.86    5.32   23.21    2.00  -12.59   12.75  279.03
I2     3.92    3.88    8.12   23.27    2.74  -24.66   24.81  276.34
I3     4.08    3.98   11.35   23.60    3.51  -34.97   35.15  275.72
I4     4.24    4.05   15.08   23.83    4.87  -44.86   45.12  276.20
I5    13.25   13.71   14.24   43.81    0.26   -8.26    8.26  271.85
I6    13.57   13.86   18.60   44.03    1.38  -18.25   18.30  274.31
I7    13.62   13.77   23.16   43.90    2.22  -27.69   27.78  274.60
I8    14.18   14.18   27.95   44.49    3.24  -35.15   35.30  275.26
I9    37.33   38.85   35.84   68.64   -0.36   -5.57    5.58  266.36
I10   38.04   39.49   40.24   69.10   -0.03  -10.74   10.74  269.89
I11   38.85   40.09   45.57   69.54    0.67  -16.65   16.67  272.32
I12   38.98   40.15   49.93   69.58    0.88  -21.66   21.68  272.34
I13   19.51   29.31   43.41   61.05  -38.50  -28.66   48.00  216.66
I14   31.16   19.32   30.23   51.06   54.10  -27.52   60.71  333.04
I15   57.97   57.80    8.77   80.62    5.56   71.84   72.06   85.58
I16    5.21    5.28    4.46   27.51    1.45   -0.62    1.59  337.22
I17   24.84   16.35    5.09   47.43   44.78   30.32   54.08   34.09
I18   12.52   20.96    7.43   52.90  -43.78   29.17   52.61  146.32
I19    8.36    6.74   22.05   31.22   17.84  -47.45   50.69  290.60
I20   41.95   46.42   18.79   73.81   -8.20   32.69   33.71  104.08
I21   12.19   16.33    4.34   47.40  -22.35   34.36   41.00  123.04
I22   28.97   37.10   19.84   67.35  -24.40   19.32   31.12  141.62
J1     1.92    1.73    2.90   13.99    6.38  -13.85   15.24  294.73
J2     2.22    1.75    4.71   14.09   12.61  -25.14   28.12  296.63
J3     2.71    1.82    7.76   14.46   20.70  -38.43   43.65  298.31
J4     2.97    1.78   10.35   14.31   26.10  -47.90   54.55  298.58
J5    10.88   10.58   11.84   38.85    5.20  -10.15   11.40  297.13
J6    11.59   10.57   15.15   38.83   10.39  -19.14   21.78  298.50
J7    12.23   10.41   19.61   38.56   16.03  -29.85   33.89  298.24
J8    13.09   10.71   22.83   39.08   19.55  -35.36   40.40  298.93
J9    39.07   39.88   36.77   69.38    2.03   -5.59    5.95  290.14
J10   40.17   40.10   40.86   69.54    4.76  -10.77   11.79  293.89
J11   41.27   40.05   45.47   69.50    8.31  -16.60   18.56  296.60
J12   42.17   40.14   49.69   69.57   10.76  -21.41   23.97  296.68
J13   14.14   22.84   37.97   54.90  -41.90  -32.21   52.85  217.54
J14   26.67   15.29   25.70   46.03   58.50  -28.67   65.14  333.89
J15   55.99   55.15    6.52   79.13    7.17   78.13   78.46   84.76
J16    2.62    2.67    2.40   18.69    0.72   -1.69    1.84  292.95
J17   20.30   12.31    2.95   41.70   48.79   33.56   59.22   34.51
J18    7.80   14.92    4.65   45.53  -48.86   29.40   57.03  148.96
J19    5.19    3.74   17.12   22.80   21.57  -51.54   55.87  292.71
J20   31.14   39.74   26.53   69.28  -24.49    9.98   26.44  157.84
J21    4.01    7.55    1.49   33.04  -38.08   32.15   49.83  139.82
J22    1.05    1.73    0.82   14.00  -18.31    8.66   20.25  154.67
K1     4.89    4.09    4.94   23.94   12.93   -9.42   16.01  323.93
K2     5.97    4.09    7.07   23.97   25.48  -19.32   31.97  322.83
K3     7.30    4.23    9.72   24.44   37.19  -28.33   46.76  322.71
K4     8.35    4.30   12.51   24.63   46.04  -36.60   58.82  321.52
K5    14.93   13.79   14.38   43.93   10.20   -8.40   13.22  320.58
K6    16.74   13.65   17.79   43.72   21.53  -16.97   27.42  321.76
K7    18.90   13.76   21.94   43.88   32.35  -25.39   41.12  321.88
K8    21.57   14.10   26.70   44.37   43.35  -33.26   54.64  322.49
K9    40.91   40.54   36.90   69.85    5.72   -4.97    7.59  319.02
K10   43.59   40.85   40.62   70.07   12.80   -9.56   15.98  323.24
K11   46.64   41.70   45.87   70.67   18.99  -15.07   24.24  321.57
K12   48.94   41.94   49.02   70.83   24.65  -18.47   30.80  323.16
K13   11.80   19.72   35.01   51.51  -42.74  -33.92   54.56  218.43
K14   21.74   11.36   20.60   40.18   62.17  -29.09   68.63  334.92
K15   48.38   45.53    2.84   73.24   12.72   88.80   89.71   81.85
K16    1.30    1.34    1.04   11.53    0.12    0.89    0.90   81.15
K17   16.82    9.60    1.38   37.13   50.42   40.53   64.69   38.79
K18    4.65    9.82    2.16   37.53  -48.68   32.87   58.74  145.97
K19    3.38    2.06   13.20   15.81   26.66  -53.76   60.00  296.38
K20    2.42    3.18    2.19   20.74  -11.97    3.65   12.51  163.02
K21    1.25    1.72    1.62   13.91  -11.24   -2.37   11.48  191.87
K22    1.68    2.13    3.45   16.19   -8.92  -13.95   16.57  237.41
L1     3.41    2.77    2.69   19.11   12.91   -3.36   13.34  345.43
L2     4.18    2.84    2.96   19.35   23.26   -5.03   23.79  347.82
L3     5.52    3.24    3.76   20.96   33.31   -7.70   34.19  346.98
L4     6.16    3.51    4.53   21.96   36.23  -10.56   37.74  343.76
L5    11.97   10.34    9.79   38.44   14.81   -4.42   15.45  343.39
L6    14.82   10.87   11.09   39.36   29.18   -7.01   30.01  346.51
L7    17.39   10.68   11.74   39.04   45.29   -9.51   46.28  348.15
L8    19.26   11.12   12.54   39.79   51.81  -10.55   52.88  348.48
L9    41.57   40.56   35.21   69.86    7.66   -2.57    8.09  341.44
L10   43.61   40.59   36.07   69.88   13.65   -3.74   14.16  344.65
L11   47.00   41.28   36.80   70.37   21.27   -3.93   21.64  349.54
L12   48.71   40.75   37.99   70.00   27.58   -6.18   28.27  347.35
L13    7.90   13.77   28.52   43.90  -40.94  -37.11   55.26  222.19
L14   16.99    8.15   15.82   34.28   63.63  -28.66   69.79  335.75
L15   44.35   40.79    2.29   70.04   15.17   87.77   89.07   80.19
L16    0.45    0.45    0.52    4.09    0.62   -2.81    2.88  282.27
L17   12.70    6.73    0.74   31.17   51.13   39.80   64.79   37.89
L18    2.80    6.53    1.47   30.72  -47.80   28.28   55.54  149.39
L19    1.95    0.91    8.85    8.29   31.56  -53.17   61.83  300.68
L20    0.65    0.75    0.75    6.82   -2.89   -2.34    3.72  218.88
L21    0.86    0.77    0.86    6.98    4.66   -4.09    6.21  318.71
L22    2.10    1.62    1.51   13.33   13.20   -2.14   13.38  350.79
GS0    76.00   78.57   67.88   91.04    0.55   -2.90    2.95  280.78
GS1    71.04   73.18   62.61   88.54    1.07   -2.22    2.47  295.65
GS2    60.88   62.49   53.74   83.17    1.55   -2.42    2.88  302.67
GS3    52.31   53.84   46.22   78.36    1.09   -2.20    2.46  296.40
GS4    46.82   48.51   40.45   75.14    0.20   -0.59    0.69  294.61
GS5    40.22   41.68   34.90   70.65    0.14   -0.78    0.81  287.17
GS6    34.49   35.82   29.61   66.38   -0.12   -0.12    0.32  161.77
GS7    30.40   31.69   26.17   63.08   -0.52   -0.06    0.63  171.98
GS8    26.12   27.17   22.61   59.13   -0.29   -0.40    0.58  196.15
GS9    22.68   23.65   19.69   55.72   -0.49   -0.42    0.68  209.10
GS10   19.80   20.70   17.33   52.62   -0.75   -0.58    0.99  210.62
GS11   15.93   16.58   14.09   47.73   -0.29   -1.12    1.16  251.74
GS12   12.85   13.42   11.36   43.39   -0.55   -0.91    1.07  235.42
GS13   10.16   10.53    8.97   38.79    0.04   -1.01    1.01  273.27
GS14    8.35    8.65    7.16   35.29    0.12   -0.14    0.38  159.66
GS15    6.76    6.95    5.70   31.69    0.66    0.10    0.74  185.35
GS16    5.20    5.33    4.44   27.65    0.86   -0.26    0.95  340.40
GS17    3.74    3.84    3.35   23.12    0.56   -1.27    1.41  295.04
GS18    2.58    2.68    2.34   18.71   -0.05   -1.13    1.13  268.32
GS19    1.77    1.84    1.50   14.59   -0.02    0.16    0.22   93.07
GS20    1.22    1.26    0.92   10.98    0.10    1.83    1.83   86.82
GS21    0.99    1.02    0.70    9.19    0.05    2.52    2.52   88.74
GS22    0.78    0.79    0.60    7.15    0.88    0.95    1.29   47.15
GS23    0.43    0.43    0.50    3.91    0.52   -2.80    2.86  280.60
END_DATA
