lprof/data/targets/Agfa/Reflective/C81252XX.it8
IT8.7/2
ORIGINATOR "FotoTune"
DESCRIPTOR "Agfa IT8"
MATERIAL "Agfacolor"
MANUFACTURER "Agfa"
CREATED "Mon Apr 12 14:28:32 1999"
PROD_DATE "1999:04"
SERIAL "5x7 c81252xx"
NUMBER_OF_FIELDS 9
BEGIN_DATA_FORMAT
SAMPLE_ID XYZ_X XYZ_Y XYZ_Z LAB_L LAB_A LAB_B LAB_C LAB_H
END_DATA_FORMAT
NUMBER_OF_SETS 288
BEGIN_DATA
A1     3.36    2.78    2.19   19.14   11.81    0.94   11.84    4.54
A2     3.89    2.68    1.71   18.72   21.86    4.95   22.41   12.77
A3     5.14    3.10    1.74   20.43   31.12    7.51   32.02   13.56
A4     5.41    3.24    1.89   20.97   32.11    6.90   32.85   12.13
A5    11.16    9.68    7.73   37.26   14.16    0.98   14.20    3.96
A6    13.25    9.85    6.68   37.58   27.11    5.86   27.74   12.19
A7    16.14   10.36    5.83   38.49   40.71   11.26   42.24   15.45
A8    18.62   10.73    5.44   39.11   51.54   14.20   53.46   15.40
A9    40.89   40.01   32.19   69.47    7.27    1.19    7.36    9.30
A10   43.67   40.45   31.18   69.79   14.26    3.27   14.64   12.92
A11   46.45   40.70   29.65   69.97   21.47    5.99   22.28   15.59
A12   46.73   39.32   27.84   68.98   26.51    7.24   27.49   15.28
A13   74.75   77.55   67.07   90.57    0.03   -2.96    2.96  270.58
A14   75.26   77.56   66.96   90.58    1.05   -2.85    3.03  290.26
A15   75.04   77.68   64.58   90.63    0.34   -0.52    0.62  303.66
A16   73.97   76.56   64.25   90.12    0.38   -1.08    1.14  289.35
A17   74.85   77.24   64.73   90.43    0.83   -0.99    1.30  309.93
A18   74.54   77.35   64.92   90.48   -0.02   -1.09    1.09  268.81
A19   74.35   76.75   66.78   90.21    0.78   -3.32    3.40  283.20
A20    1.41    1.11    0.63    9.85   11.02    5.01   12.10   24.42
A21    4.95    3.00    0.71   20.03   30.55   21.12   37.14   34.67
A22    9.27    5.08    0.73   26.96   43.85   32.68   54.69   36.70
B1     3.20    2.78    1.66   19.17    9.09    6.14   10.97   34.03
B2     3.82    2.88    0.86   19.54   17.35   17.62   24.74   45.43
B3     4.55    3.03    0.76   20.18   24.67   20.41   32.01   39.60
B4     5.09    3.30    0.75   21.18   27.25   22.24   35.18   39.22
B5    11.61   10.08    5.86   37.99   14.23   10.25   17.54   35.76
B6    13.42   10.23    4.07   38.25   25.29   20.17   32.35   38.57
B7    15.90   10.41    2.45   38.56   39.04   32.12   50.57   39.46
B8    17.72   10.61    1.58   38.92   47.57   41.22   62.94   40.91
B9    40.78   40.17   29.78   69.59    6.43    5.14    8.23   38.65
B10   43.50   40.92   26.90   70.12   12.35   10.80   16.41   41.15
B11   46.40   41.47   24.41   70.51   19.00   15.84   24.74   39.84
B12   47.03   40.90   22.07   70.10   22.51   19.56   29.81   41.00
B13   66.99   72.01   65.54   87.97   -5.27   -6.01    7.99  228.76
B14   70.68   69.77   64.11   86.88    7.43   -6.53    9.89  318.71
B15   72.13   75.11   51.52   89.44   -0.55   10.82   10.84   92.90
B16   59.89   61.77   50.49   82.79    0.85    0.50    0.99   30.25
B17   67.68   67.43   50.10   85.72    5.95    5.99    8.44   45.17
B18   64.21   69.57   51.57   86.79   -6.36    6.19    8.87  135.76
B19   62.49   64.07   62.28   84.00    1.73   -9.72    9.87  280.08
B20    3.08    2.12    0.70   16.08   20.36   14.35   24.92   35.18
B21    8.02    4.53    0.73   25.34   40.06   29.89   49.97   36.73
B22   29.62   25.41   14.37   57.47   20.72   14.95   25.56   35.83
C1     4.23    3.99    2.30   23.63    5.59    7.69    9.51   54.03
C2     4.66    4.14    1.28   24.14    9.18   19.34   21.40   64.62
C3     5.41    4.47    0.95   25.14   14.15   25.73   29.37   61.18
C4     5.43    4.47    0.95   25.17   14.32   25.74   29.44   60.90
C5    22.57   21.90   10.82   53.92    6.82   18.92   20.10   70.18
C6    25.31   22.30    5.82   54.34   16.97   38.61   42.18   66.29
C7    26.57   21.86    2.50   53.89   24.16   58.14   62.96   67.43
C8    28.90   22.82    1.76   54.88   29.11   66.75   72.82   66.44
C9    47.88   48.44   32.68   75.10    3.32   10.16   10.69   71.90
C10   50.47   49.57   27.29   75.80    7.30   19.93   21.22   69.88
C11   52.89   50.45   22.94   76.35   11.30   28.65   30.80   68.49
C12   52.67   49.27   18.57   75.61   13.88   36.28   38.84   69.07
C13   56.53   64.01   62.70   83.97  -12.37  -10.19   16.02  219.49
C14   64.04   59.34   59.43   81.47   16.15  -11.25   19.68  325.12
C15   69.95   72.96   42.42   88.43   -0.78   19.78   19.80   92.25
C16   44.53   46.21   37.67   73.68   -0.00    0.58    0.58   88.94
C17   59.32   55.81   39.28   79.51   13.64    8.47   16.05   31.83
C18   52.04   59.85   41.10   81.76  -14.22    9.97   17.36  144.97
C19   48.26   48.92   55.44   75.40    3.05  -17.63   17.89  279.79
C20    1.93    1.59    0.70   13.11   10.44    9.24   13.93   41.49
C21   22.91   17.44    5.80   48.82   30.33   29.18   42.09   43.89
C22   36.05   33.37   21.03   64.46   13.45   11.88   17.94   41.43
D1     3.98    4.03    2.36   23.77    1.40    7.41    7.55   79.26
D2     4.03    4.16    1.34   24.22    0.28   18.64   18.64   89.11
D3     4.43    4.40    1.03   24.97    2.41   24.12   24.24   84.28
D4     4.39    4.41    1.04   25.01    1.86   24.06   24.14   85.59
D5    25.18   26.67   13.48   58.68   -2.20   19.38   19.51   96.49
D6    24.78   26.62    7.89   58.62   -3.70   37.19   37.37   95.68
D7    25.84   27.82    4.06   59.72   -3.99   57.26   57.40   93.99
D8    24.73   25.97    2.10   58.01   -1.26   68.75   68.76   91.06
D9    54.53   57.48   36.80   80.45   -2.19   13.44   13.62   99.26
D10   56.49   59.19   31.04   81.40   -1.38   23.53   23.56   93.36
D11   56.14   59.42   25.36   81.52   -2.76   33.13   33.24   94.78
D12   56.69   59.97   21.26   81.82   -2.70   41.35   41.44   93.72
D13   46.97   56.07   59.46   79.65  -18.81  -14.43   23.70  217.49
D14   57.30   49.66   54.09   75.86   24.47  -15.40   28.92  327.82
D15   67.82   70.61   34.20   87.29   -0.50   28.94   28.94   90.99
D16   32.38   33.58   27.84   64.63    0.04   -0.26    0.26  281.26
D17   51.33   45.51   29.58   73.22   20.70   11.72   23.79   29.51
D18   41.11   50.40   32.19   76.31  -21.51   12.99   25.12  148.89
D19   36.43   36.41   48.40   66.84    4.49  -24.65   25.06  280.30
D20   14.01   10.66    3.47   39.00   25.84   25.30   36.17   44.40
D21   22.79   22.19   14.43   54.24    6.47    9.24   11.28   55.04
D22   40.11   38.93   24.31   68.71    8.21   12.93   15.32   57.58
E1     3.61    4.01    2.40   23.72   -3.91    6.96    7.99  119.36
E2     3.24    3.94    1.38   23.47   -8.86   16.85   19.04  117.75
E3     3.44    4.41    1.13   24.99  -11.99   22.81   25.76  117.71
E4     3.46    4.46    1.14   25.13  -12.38   22.94   26.07  118.35
E5    11.84   13.49    7.49   43.49   -7.93   12.65   14.93  122.09
E6    11.34   14.12    5.18   44.42  -15.44   24.67   29.10  122.04
E7    10.57   14.43    2.89   44.84  -22.92   39.40   45.58  120.19
E8    10.47   14.94    1.96   45.55  -26.71   48.61   55.47  118.79
E9    36.04   39.56   26.35   69.15   -6.82   10.06   12.16  124.12
E10   35.52   40.32   23.55   69.69  -10.88   16.02   19.38  124.18
E11   34.98   41.12   20.05   70.26  -15.14   23.89   28.28  122.37
E12   33.95   41.35   16.91   70.42  -19.37   31.07   36.61  121.94
E13   40.06   49.93   56.43   76.02  -23.53  -17.58   29.38  216.76
E14   51.59   42.14   49.30   70.97   31.10  -18.54   36.20  329.20
E15   65.39   67.73   25.99   85.87    0.28   39.53   39.53   89.60
E16   23.83   24.69   20.11   56.78    0.13    0.51    0.53   75.36
E17   44.83   37.74   21.74   67.82   26.08   16.28   30.75   31.98
E18   32.40   42.24   24.46   71.03  -27.49   16.67   32.15  148.78
E19   28.17   27.69   42.38   59.61    5.90  -29.85   30.44  281.18
E20   22.88   15.73    1.34   46.61   39.69   57.29   69.69   55.29
E21   17.50   14.60    3.45   45.08   19.85   35.93   41.06   61.08
E22   30.06   26.44    9.88   58.46   18.15   29.78   34.86   58.64
F1     1.42    1.75    1.23   14.16   -7.24    2.79    7.76  158.93
F2     1.23    1.88    1.03   14.85  -16.13    6.72   17.47  157.38
F3     1.18    2.11    1.00   16.08  -22.92    9.38   24.76  157.74
F4     1.34    2.52    1.15   18.01  -26.42   10.46   28.42  158.40
F5     6.68    8.23    5.88   34.46  -12.09    4.05   12.75  161.51
F6     5.68    8.48    5.22   34.96  -25.07    8.17   26.36  161.95
F7     4.57    8.45    4.49   34.90  -38.51   11.98   40.33  162.73
F8     3.24    7.77    3.78   33.49  -51.93   13.77   53.73  165.15
F9    35.33   39.12   30.36   68.84   -7.85    2.93    8.37  159.57
F10   34.78   40.33   29.80   69.71  -13.48    5.31   14.48  158.49
F11   33.35   40.75   29.25   69.99  -19.65    6.70   20.76  161.17
F12   31.87   40.90   27.74   70.10  -25.39    9.35   27.05  159.79
F13   34.03   44.31   53.29   72.43  -27.80  -20.44   34.51  216.34
F14   47.14   36.63   45.39   67.00   36.20  -20.81   41.76  330.10
F15   63.93   65.84   21.24   84.92    1.07   46.75   46.75   88.69
F16   18.01   18.61   15.32   50.23    0.40    0.06    0.41    9.47
F17   40.08   32.28   16.58   63.58   30.20   20.05   36.25   33.57
F18   27.08   36.94   19.24   67.24  -31.28   20.36   37.32  146.94
F19   22.43   21.53   37.63   53.53    7.89  -34.11   35.01  283.02
F20   27.33   26.57   14.50   58.58    7.03   16.53   17.97   66.96
F21   34.72   32.33   13.02   63.61   12.61   29.16   31.77   66.61
F22   39.43   37.86   19.02   67.92    9.45   22.02   23.97   66.78
G1     2.24    2.73    2.70   18.94   -7.77   -3.72    8.61  205.64
G2     1.95    2.86    2.97   19.46  -16.53   -4.97   17.26  196.74
G3     1.78    3.14    3.48   20.58  -25.49   -6.57   26.33  194.46
G4     1.97    3.58    3.89   22.24  -28.15   -6.36   28.85  192.74
G5     9.02   10.89    9.48   39.39  -11.67   -1.73   11.80  188.48
G6     7.91   11.12   10.09   39.78  -23.12   -3.12   23.33  187.70
G7     6.48   10.94   10.59   39.48  -35.83   -5.23   36.21  188.30
G8     5.36   11.07   11.40   39.69  -49.12   -7.39   49.68  188.55
G9    35.08   38.97   31.45   68.73   -8.21    1.03    8.27  172.84
G10   33.54   39.35   33.05   69.01  -14.72   -0.89   14.75  183.49
G11   32.48   40.13   33.78   69.57  -20.86   -1.02   20.89  182.81
G12   31.27   40.71   35.14   69.97  -26.99   -2.28   27.08  184.82
G13   28.31   38.68   49.96   68.52  -31.97  -23.52   39.68  216.35
G14   40.72   29.17   39.49   60.93   43.58  -23.83   49.67  331.33
G15   61.61   62.78   15.33   83.32    2.59   57.10   57.15   87.40
G16   11.79   12.09   10.10   41.36    1.00   -0.47    1.12  335.43
G17   33.85   25.33   11.66   57.40   36.42   22.33   42.72   31.51
G18   20.90   30.56   14.44   62.13  -36.38   22.82   42.95  147.90
G19   15.68   14.40   31.15   44.80   10.86  -39.75   41.21  285.28
G20   37.47   36.90   17.44   67.20    6.28   24.28   25.08   75.49
G21   35.65   35.01   11.36   65.75    6.54   37.65   38.22   80.15
G22   44.50   41.81    3.09   70.74   12.57   82.65   83.60   81.35
H1     2.47    2.76    3.28   19.08   -3.72   -7.84    8.68  244.62
H2     2.23    2.84    4.25   19.41  -10.14  -13.38   16.78  232.83
H3     1.94    2.75    5.37   19.01  -14.68  -20.13   24.92  233.89
H4     2.30    3.30    6.85   21.18  -16.47  -23.15   28.40  234.56
H5     9.59   10.88   11.36   39.38   -6.93   -7.82   10.45  228.44
H6     8.94   11.24   14.40   39.97  -14.91  -15.30   21.36  225.71
H7     7.82   10.93   18.06   39.46  -22.53  -24.96   33.63  227.92
H8     7.25   10.93   21.61   39.47  -28.06  -32.36   42.83  229.08
H9    35.23   38.76   34.21   68.57   -7.06   -3.35    7.82  205.39
H10   34.51   39.08   38.35   68.82  -10.50   -8.74   13.66  219.74
H11   34.49   40.40   44.94   69.75  -14.65  -15.52   21.35  226.65
H12   34.09   40.93   49.84   70.12  -17.64  -20.61   27.12  229.45
H13   23.47   33.64   46.56   64.68  -35.55  -26.21   44.17  216.40
H14   34.45   22.56   33.38   54.61   50.49  -26.22   56.89  332.55
H15   59.46   59.89   11.25   81.77    4.18   65.62   65.75   86.36
H16    7.64    7.71    6.42   33.38    1.95   -0.26    1.98  352.33
H17   28.16   19.48    7.35   51.25   41.94   26.59   49.65   32.38
H18   16.02   25.12   10.27   57.19  -40.57   26.34   48.38  147.01
H19   11.27    9.65   25.90   37.21   15.16  -44.22   46.75  288.92
H20   41.74   43.19   17.72   71.68    0.32   31.39   31.39   89.41
H21   32.76   34.35   23.82   65.23   -1.20    7.84    7.93   98.68
H22   35.65   39.42   13.01   69.06   -7.69   38.57   39.33  101.28
I1     3.91    3.89    5.25   23.30    2.43  -12.10   12.35  281.38
I2     4.04    3.95    8.05   23.51    3.38  -23.94   24.18  278.04
I3     4.18    4.03   11.30   23.77    4.19  -34.51   34.76  276.92
I4     4.30    4.08   14.98   23.94    5.23  -44.42   44.72  276.71
I5    13.40   13.80   14.22   43.95    0.59   -7.94    7.97  274.24
I6    13.43   13.73   18.33   43.85    1.31  -17.97   18.01  274.15
I7    13.51   13.69   22.67   43.79    2.05  -26.97   27.04  274.35
I8    14.08   14.04   27.24   44.29    3.44  -34.32   34.49  275.73
I9    37.03   38.60   34.63   68.46   -0.56   -4.17    4.20  262.25
I10   37.96   39.50   39.03   69.11   -0.34   -9.12    9.14  267.85
I11   38.22   39.65   44.39   69.21    0.03  -15.77   15.77  270.11
I12   38.67   39.90   49.35   69.40    0.67  -21.31   21.32  271.81
I13   19.76   29.55   43.48   61.26  -38.19  -28.38   47.58  216.62
I14   30.74   18.92   29.71   50.59   54.61  -27.51   61.15  333.27
I15   57.86   57.70    8.77   80.57    5.55   71.75   71.96   85.58
I16    5.34    5.31    4.51   27.60    2.62   -0.76    2.72  343.86
I17   24.69   16.17    5.06   47.21   45.11   30.08   54.22   33.69
I18   12.85   21.33    7.60   53.32  -43.28   29.17   52.19  146.01
I19    8.49    6.78   22.12   31.30   18.62  -47.44   50.97  291.44
I20   42.46   47.17   18.78   74.30   -8.80   33.56   34.70  104.69
I21   12.29   16.42    4.45   47.52  -22.13   33.91   40.50  123.13
I22   29.06   37.43   20.10   67.60  -25.09   19.19   31.58  142.58
J1     2.06    1.85    2.99   14.66    6.59  -13.35   14.89  296.26
J2     2.34    1.84    4.77   14.61   12.70  -24.56   27.65  297.35
J3     2.82    1.90    7.86   14.94   20.78  -38.02   43.33  298.66
J4     3.10    1.88   10.49   14.84   25.94  -47.40   54.03  298.69
J5    10.95   10.59   11.77   38.88    5.64   -9.88   11.37  299.72
J6    11.72   10.66   15.08   38.99   10.70  -18.72   21.56  299.77
J7    12.19   10.32   19.17   38.41   16.44  -29.17   33.49  299.40
J8    12.94   10.59   22.28   38.87   19.58  -34.72   39.85  299.42
J9    38.96   39.68   35.59   69.24    2.26   -4.18    4.75  298.40
J10   40.07   39.99   39.57   69.46    4.83   -9.25   10.43  297.58
J11   41.26   40.07   44.55   69.51    8.24  -15.46   17.51  298.04
J12   41.78   39.56   49.08   69.15   11.37  -21.43   24.26  297.95
J13   14.48   23.23   38.36   55.31  -41.60  -32.02   52.49  217.58
J14   26.53   15.15   25.46   45.83   58.73  -28.59   65.32  334.04
J15   55.97   55.18    6.72   79.15    7.03   77.36   77.68   84.81
J16    2.80    2.84    2.50   19.39    1.18   -1.37    1.81  310.85
J17   20.65   12.61    3.07   42.17   48.47   33.47   58.90   34.63
J18    8.12   15.32    4.77   46.07  -48.31   29.65   56.68  148.46
J19    5.40    3.89   17.45   23.32   21.89  -51.42   55.88  293.07
J20   31.01   39.76   26.33   69.30  -25.07   10.35   27.13  157.57
J21    4.23    7.88    1.54   33.73  -38.06   32.68   50.15  139.35
J22    1.11    1.79    0.86   14.34  -17.95    8.63   19.92  154.32
K1     5.01    4.18    4.98   24.24   13.26   -9.11   16.09  325.49
K2     6.11    4.22    7.11   24.36   25.42  -18.78   31.61  323.54
K3     7.42    4.32    9.73   24.70   37.28  -27.92   46.58  323.17
K4     8.48    4.42   12.54   25.00   45.68  -36.06   58.19  321.72
K5    15.06   13.92   14.45   44.11   10.19   -8.28   13.13  320.92
K6    16.59   13.47   17.42   43.47   21.84  -16.61   27.44  322.74
K7    18.68   13.62   21.44   43.68   32.10  -24.74   40.53  322.38
K8    21.59   14.07   26.44   44.33   43.61  -32.88   54.61  322.99
K9    40.68   40.33   35.75   69.70    5.64   -3.61    6.70  327.43
K10   43.38   40.46   39.20   69.79   13.36   -8.18   15.66  328.52
K11   46.55   41.25   44.47   70.35   20.08  -13.91   24.44  325.29
K12   49.02   41.74   48.43   70.68   25.48  -18.03   31.22  324.70
K13   12.16   20.16   35.51   52.01  -42.46  -33.78   54.25  218.50
K14   21.95   11.52   20.79   40.44   62.06  -29.05   68.52  334.92
K15   48.46   45.59    2.95   73.28   12.77   88.07   88.99   81.74
K16    1.39    1.42    1.12   12.12    0.53    0.85    1.00   57.38
K17   17.13    9.85    1.46   37.58   50.19   40.23   64.33   38.72
K18    4.86   10.12    2.26   38.07  -48.21   32.85   58.34  145.73
K19    3.55    2.18   13.52   16.43   26.48  -53.56   59.74  296.30
K20    2.59    3.32    2.31   21.28  -10.97    3.55   11.53  162.05
K21    1.33    1.78    1.68   14.28  -10.70   -2.46   10.98  192.92
K22    1.75    2.18    3.49   16.43   -8.40  -13.79   16.15  238.64
L1     3.67    2.99    2.84   19.97   13.20   -3.05   13.55  346.95
L2     4.36    2.95    3.07   19.85   23.66   -4.96   24.17  348.17
L3     5.73    3.38    3.90   21.49   33.52   -7.73   34.40  347.01
L4     6.36    3.65    4.70   22.49   36.11  -10.60   37.64  343.65
L5    12.30   10.58   10.09   38.85   15.26   -4.73   15.98  342.82
L6    14.72   10.82   11.13   39.28   29.01   -7.30   29.91  345.89
L7    17.84   11.02   11.92   39.62   45.27   -9.07   46.17  348.67
L8    19.80   11.47   12.66   40.36   52.06   -9.93   53.00  349.20
L9    41.78   40.76   34.44   70.00    7.71   -1.22    7.80  351.01
L10   44.06   40.66   35.17   69.94   14.76   -2.38   14.95  350.81
L11   47.07   41.18   35.81   70.31   21.74   -2.66   21.90  353.02
L12   48.46   40.49   37.16   69.82   27.66   -5.38   28.17  349.00
L13    7.97   13.80   28.63   43.94  -40.57  -37.23   55.06  222.54
L14   17.26    8.35   16.17   34.71   63.28  -28.77   69.52  335.55
L15   44.51   40.92    2.36   70.12   15.25   87.26   88.58   80.08
L16    0.50    0.50    0.56    4.53    0.47   -2.89    2.93  279.30
L17   12.99    6.95    0.80   31.69   50.81   39.66   64.46   37.97
L18    2.87    6.63    1.54   30.95  -47.41   27.81   54.97  149.60
L19    2.05    0.99    9.15    8.93   30.94  -53.10   61.46  300.23
L20    0.70    0.81    0.80    7.35   -3.18   -2.38    3.97  216.92
L21    0.94    0.85    0.94    7.65    4.97   -4.15    6.47  320.11
L22    2.28    1.75    1.63   14.15   13.49   -2.15   13.66  350.95
GS0    76.08   78.62   67.86   91.07    0.62   -2.84    2.91  282.23
GS1    71.87   74.18   62.34   89.00    0.79   -1.15    1.40  304.52
GS2    61.76   63.74   52.90   83.83    0.77   -0.38    0.87  333.74
GS3    53.56   55.35   45.35   79.24    0.55    0.34    0.64   31.45
GS4    47.15   49.06   39.71   75.49   -0.37    0.97    1.04  110.88
GS5    40.89   42.57   34.46   71.26   -0.43    0.91    1.01  115.08
GS6    34.53   35.99   29.15   66.51   -0.54    0.85    1.01  122.54
GS7    30.11   31.35   25.69   62.81   -0.40    0.28    0.49  144.43
GS8    25.95   27.04   22.30   59.01   -0.47    0.00    0.47  179.61
GS9    22.52   23.53   19.56   55.61   -0.71   -0.34    0.80  206.01
GS10   19.74   20.67   17.15   52.59   -0.96   -0.25    0.99  194.03
GS11   15.89   16.57   13.85   47.71   -0.50   -0.50    0.71  224.94
GS12   12.90   13.42   11.33   43.40   -0.22   -0.78    0.81  254.59
GS13   10.32   10.69    9.04   39.04    0.18   -0.81    0.83  282.46
GS14    8.51    8.75    7.16   35.50    0.63    0.20    0.68   17.34
GS15    6.89    6.99    5.74   31.80    1.52    0.12    1.52    4.32
GS16    5.40    5.47    4.45   28.06    1.42    0.34    1.47   13.41
GS17    4.00    4.07    3.45   23.90    1.15   -0.60    1.31  332.55
GS18    2.82    2.90    2.47   19.67    0.32   -0.60    0.68  298.22
GS19    1.98    2.05    1.63   15.73    0.22    0.62    0.65   70.07
GS20    1.35    1.39    1.00   11.89    0.28    2.13    2.15   82.57
GS21    1.09    1.12    0.76    9.95    0.22    2.82    2.83   85.36
GS22    0.87    0.87    0.64    7.85    1.03    1.34    1.69   52.40
GS23    0.45    0.46    0.53    4.15    0.38   -2.86    2.89  277.67
END_DATA
