lprof/data/targets/Agfa/Reflective/C81230XX.it8
IT8.7/2
ORIGINATOR "FotoTune"
DESCRIPTOR "Agfa IT8"
MATERIAL "Agfacolor"
MANUFACTURER "Agfa"
CREATED "Mon Apr 12 10:50:21 1999"
PROD_DATE "1999:04"
SERIAL "5x7 c81230xx"
NUMBER_OF_FIELDS 9
BEGIN_DATA_FORMAT
SAMPLE_ID XYZ_X XYZ_Y XYZ_Z LAB_L LAB_A LAB_B LAB_C LAB_H
END_DATA_FORMAT
NUMBER_OF_SETS 288
BEGIN_DATA
A1     3.15    2.61    2.05   18.40   11.61    0.89   11.64    4.41
A2     3.76    2.58    1.61   18.28   21.80    5.34   22.44   13.75
A3     5.11    3.05    1.68   20.27   31.45    7.90   32.43   14.10
A4     5.26    3.12    1.77   20.51   32.25    7.35   33.08   12.84
A5    11.01    9.61    7.64   37.15   13.53    1.14   13.59    4.80
A6    13.35    9.97    6.61   37.79   26.85    6.49   27.62   13.59
A7    15.76   10.10    5.68   38.03   40.53   11.18   42.04   15.41
A8    18.15   10.38    5.21   38.51   51.61   14.35   53.57   15.53
A9    40.87   39.96   33.28   69.44    7.37   -0.50    7.39  356.18
A10   43.49   40.54   32.14   69.85   13.45    1.93   13.59    8.16
A11   46.83   41.19   30.81   70.32   21.05    4.76   21.58   12.73
A12   47.28   39.85   28.83   69.36   26.39    6.26   27.12   13.35
A13   75.24   78.02   67.50   90.79    0.09   -2.99    2.99  271.71
A14   75.50   77.81   67.38   90.69    1.02   -3.03    3.20  288.66
A15   75.32   77.98   65.54   90.77    0.32   -1.18    1.23  285.54
A16   74.36   76.86   65.21   90.26    0.58   -1.76    1.86  288.29
A17   75.01   77.38   65.33   90.50    0.89   -1.47    1.72  301.35
A18   74.83   77.65   65.66   90.62    0.00   -1.56    1.56  270.00
A19   74.65   77.04   67.12   90.35    0.81   -3.40    3.49  283.37
A20    1.31    1.02    0.60    9.14   10.73    4.49   11.64   22.73
A21    4.77    2.86    0.66   19.46   30.61   21.11   37.19   34.59
A22    9.00    4.89    0.68   26.44   43.85   32.71   54.72   36.72
B1     2.99    2.61    1.55   18.40    8.79    6.14   10.72   34.94
B2     3.62    2.72    0.80   18.90   16.96   17.47   24.35   45.85
B3     4.36    2.91    0.71   19.65   24.53   20.47   31.94   39.84
B4     4.93    3.18    0.72   20.74   27.15   22.22   35.08   39.29
B5    11.31    9.88    5.78   37.62   13.65    9.99   16.92   36.18
B6    13.26   10.11    3.90   38.03   25.22   20.82   32.71   39.53
B7    15.56   10.14    2.27   38.08   39.10   32.85   51.07   40.03
B8    17.24   10.28    1.50   38.35   47.46   41.16   62.82   40.93
B9    40.69   40.15   30.44   69.57    6.24    4.07    7.45   33.15
B10   42.93   40.50   27.52   69.82   11.93    9.24   15.09   37.75
B11   46.40   41.56   24.95   70.57   18.76   14.99   24.01   38.61
B12   47.31   41.19   22.52   70.31   22.43   19.03   29.42   40.32
B13   66.30   71.63   65.57   87.79   -6.01   -6.36    8.74  226.60
B14   70.29   68.97   64.03   86.49    8.29   -7.12   10.93  319.35
B15   72.76   75.78   53.34   89.76   -0.58    9.37    9.39   93.52
B16   58.81   60.53   51.67   82.13    1.11   -1.96    2.25  299.35
B17   67.46   66.75   51.50   85.38    6.97    3.82    7.95   28.74
B18   63.72   69.38   52.81   86.69   -7.06    4.65    8.45  146.58
B19   61.28   62.67   61.81   83.27    2.06  -10.53   10.73  281.07
B20    2.91    2.00    0.66   15.47   20.20   14.20   24.69   35.11
B21    7.85    4.40    0.69   24.98   40.12   30.02   50.11   36.80
B22   28.83   24.64   13.96   56.72   20.92   14.73   25.59   35.15
C1     4.03    3.82    2.22   23.06    5.12    7.38    8.98   55.18
C2     4.32    3.85    1.21   23.17    8.75   18.68   20.64   64.91
C3     5.05    4.17    0.89   24.22   13.64   25.07   28.54   61.46
C4     5.16    4.27    0.91   24.54   13.72   25.41   28.88   61.64
C5    22.26   21.53   10.55   53.53    7.10   19.10   20.38   69.62
C6    24.76   21.81    5.57   53.82   16.90   38.91   42.42   66.52
C7    25.89   21.31    2.37   53.29   23.97   58.22   62.96   67.62
C8    28.07   22.09    1.68   54.13   29.15   66.19   72.33   66.24
C9    46.97   47.61   33.22   74.58    3.07    8.46    8.99   70.10
C10   49.79   48.84   27.69   75.35    7.44   18.49   19.93   68.07
C11   52.60   50.21   23.14   76.19   11.23   28.01   30.17   68.14
C12   52.26   48.60   18.80   75.20   14.61   35.06   37.99   67.38
C13   56.26   63.86   62.89   83.90  -12.70  -10.50   16.47  219.59
C14   63.88   59.01   59.38   81.30   16.56  -11.52   20.17  325.17
C15   70.48   73.54   43.67   88.70   -0.86   18.70   18.72   92.63
C16   44.41   45.93   38.75   73.50    0.41   -1.18    1.25  289.06
C17   59.29   55.56   40.25   79.36   14.20    6.94   15.81   26.06
C18   52.10   60.05   42.35   81.86  -14.53    8.57   16.87  149.49
C19   47.77   48.37   55.29   75.06    3.20  -18.07   18.35  280.05
C20    1.80    1.48    0.68   12.48   10.03    8.74   13.31   41.07
C21   22.42   17.08    5.66   48.36   30.07   29.06   41.82   44.02
C22   35.53   32.91   20.78   64.09   13.31   11.76   17.76   41.46
D1     3.72    3.84    2.22   23.14    0.33    7.61    7.61   87.46
D2     3.82    3.98    1.25   23.59   -0.27   18.70   18.70   90.82
D3     4.21    4.24    0.98   24.46    1.67   24.14   24.19   86.04
D4     4.27    4.34    0.99   24.76    1.28   24.51   24.55   87.02
D5    25.40   26.85   13.61   58.84   -2.03   19.32   19.42   96.01
D6    24.83   26.56    7.85   58.56   -3.27   37.25   37.40   95.02
D7    25.59   27.45    3.93   59.39   -3.58   57.46   57.57   93.57
D8    24.31   25.34    2.01   57.41   -0.50   68.56   68.56   90.42
D9    53.51   56.33   37.94   79.81   -2.01   10.76   10.94  100.55
D10   55.93   58.52   31.92   81.03   -1.17   21.53   21.56   93.11
D11   55.72   58.94   25.99   81.26   -2.70   31.59   31.71   94.89
D12   56.19   59.61   21.72   81.62   -3.11   40.12   40.25   94.43
D13   47.22   56.40   59.83   79.84  -18.92  -14.47   23.83  217.41
D14   57.39   49.69   54.32   75.88   24.60  -15.61   29.13  327.59
D15   68.40   71.31   35.64   87.63   -0.71   27.46   27.47   91.47
D16   32.55   33.71   28.56   64.73    0.21   -1.26    1.28  279.39
D17   51.58   45.69   30.40   73.35   20.85   10.62   23.40   26.99
D18   41.47   50.87   33.18   76.60  -21.65   11.99   24.75  151.01
D19   36.35   36.25   48.40   66.71    4.73  -24.85   25.31  280.77
D20   14.05   10.70    3.40   39.07   25.77   25.85   36.50   45.10
D21   22.79   22.11   14.37   54.15    6.84    9.22   11.48   53.46
D22   39.56   38.46   24.19   68.35    7.97   12.55   14.87   57.60
E1     3.44    3.91    2.32   23.36   -4.95    7.09    8.66  124.90
E2     3.08    3.85    1.31   23.14  -10.00   17.19   19.90  120.19
E3     3.30    4.27    1.06   24.52  -12.44   23.06   26.19  118.37
E4     3.33    4.35    1.07   24.78  -12.97   23.26   26.63  119.15
E5    11.76   13.44    7.49   43.42   -8.12   12.57   14.97  122.89
E6    11.09   13.92    5.07   44.12  -15.93   24.69   29.38  122.83
E7    10.32   14.14    2.77   44.43  -22.99   39.69   45.86  120.09
E8    10.13   14.48    1.86   44.93  -26.65   48.57   55.40  118.76
E9    36.17   39.57   27.16   69.16   -6.44    8.71   10.84  126.49
E10   35.66   40.33   23.93   69.71  -10.49   15.35   18.59  124.34
E11   35.11   41.09   20.58   70.24  -14.65   22.76   27.06  122.76
E12   34.01   41.33   17.19   70.40  -19.11   30.37   35.88  122.18
E13   40.46   50.42   56.94   76.32  -23.59  -17.60   29.43  216.73
E14   52.18   42.82   49.94   71.43   30.65  -18.47   35.78  328.91
E15   65.93   68.38   26.81   86.19    0.07   38.65   38.65   89.90
E16   24.30   25.17   20.83   57.25    0.12   -0.14    0.25  161.10
E17   45.29   38.25   22.33   68.21   25.80   15.78   30.24   31.45
E18   32.77   42.72   25.07   71.36  -27.58   16.14   31.97  149.68
E19   28.40   27.97   42.71   59.86    5.73  -29.82   30.37  280.87
E20   22.64   15.59    1.27   46.43   39.38   57.82   69.96   55.74
E21   17.36   14.52    3.34   44.97   19.59   36.46   41.39   61.74
E22   29.73   26.18    9.87   58.21   17.97   29.37   34.43   58.54
F1     1.38    1.72    1.16   13.91   -7.60    3.20    8.24  157.14
F2     1.21    1.87    1.00   14.80  -16.67    7.28   18.20  156.40
F3     1.16    2.11    0.95   16.03  -23.37   10.07   25.44  156.69
F4     1.32    2.51    1.11   17.97  -26.93   10.97   29.08  157.85
F5     6.51    8.06    5.89   34.11  -12.40    3.45   12.86  164.46
F6     5.43    8.24    5.14   34.48  -25.97    7.77   27.11  163.35
F7     4.38    8.23    4.35   34.47  -39.10   12.01   40.90  162.92
F8     3.18    7.63    3.70   33.19  -51.74   13.74   53.54  165.14
F9    35.66   39.30   31.40   68.96   -7.31    1.54    7.47  168.11
F10   35.10   40.50   30.96   69.82  -12.85    3.68   13.38  164.04
F11   33.94   41.01   30.39   70.19  -18.41    5.19   19.12  164.23
F12   32.51   41.42   28.92   70.48  -24.69    8.05   25.97  161.96
F13   34.61   44.97   53.97   72.88  -27.68  -20.42   34.40  216.42
F14   47.28   36.74   45.65   67.08   36.24  -20.98   41.88  329.93
F15   64.35   66.38   21.96   85.19    0.86   45.78   45.78   88.92
F16   18.15   18.74   15.66   50.39    0.47   -0.51    0.69  312.37
F17   40.22   32.40   16.99   63.68   30.24   19.23   35.83   32.44
F18   27.11   37.11   19.53   67.35  -31.68   19.97   37.45  147.79
F19   22.30   21.40   37.60   53.38    7.89  -34.32   35.22  282.96
F20   27.40   26.67   14.56   58.67    6.94   16.53   17.93   67.21
F21   34.63   32.39   13.17   63.66   12.09   28.81   31.24   67.22
F22   38.74   37.32   18.99   67.51    8.99   21.41   23.22   67.21
G1     2.12    2.62    2.57   18.47   -8.43   -3.49    9.12  202.51
G2     1.89    2.82    2.95   19.28  -17.14   -5.09   17.88  196.55
G3     1.74    3.07    3.43   20.33  -25.47   -6.63   26.31  194.60
G4     1.91    3.49    3.78   21.93  -28.06   -6.15   28.72  192.38
G5     8.80   10.69    9.47   39.06  -12.16   -2.28   12.38  190.58
G6     7.59   10.78   10.11   39.22  -23.76   -4.15   24.12  189.92
G7     6.14   10.56   10.34   38.82  -36.61   -5.59   37.04  188.67
G8     5.20   10.76   11.30   39.17  -48.82   -7.99   49.47  189.29
G9    34.92   38.66   32.33   68.50   -7.78   -0.69    7.82  185.11
G10   33.81   39.39   34.18   69.04  -13.91   -2.53   14.14  190.29
G11   32.69   40.08   34.99   69.54  -19.94   -2.83   20.15  188.07
G12   31.56   40.91   36.60   70.11  -26.52   -4.10   26.84  188.77
G13   28.26   38.71   50.13   68.54  -32.21  -23.67   39.97  216.32
G14   40.83   29.26   39.67   61.01   43.54  -23.93   49.68  331.20
G15   61.83   63.03   15.39   83.46    2.57   57.18   57.24   87.43
G16   11.73   12.09   10.19   41.35    0.56   -0.73    0.92  307.91
G17   33.75   25.22   11.61   57.29   36.52   22.32   42.79   31.42
G18   20.68   30.40   14.31   62.00  -36.86   22.93   43.41  148.12
G19   15.67   14.40   31.15   44.79   10.89  -39.76   41.22  285.31
G20   37.11   36.64   17.60   67.01    5.95   23.58   24.33   75.83
G21   35.24   34.69   11.27   65.51    6.20   37.50   38.01   80.61
G22   43.39   40.59    2.91   69.89   12.99   82.51   83.54   81.05
H1     2.32    2.63    3.20   18.53   -4.43   -8.20    9.32  241.57
H2     2.14    2.76    4.26   19.08  -10.55  -13.98   17.51  232.96
H3     1.90    2.69    5.35   18.78  -14.69  -20.42   25.16  234.27
H4     2.28    3.28    6.96   21.12  -16.49  -23.73   28.90  235.21
H5     9.48   10.79   11.68   39.22   -7.22   -9.06   11.58  231.45
H6     8.76   11.02   14.64   39.62  -15.01  -16.52   22.33  227.73
H7     7.69   10.75   18.40   39.17  -22.54  -26.22   34.57  229.30
H8     7.28   10.97   22.23   39.53  -28.06  -33.47   43.67  230.02
H9    35.60   39.00   35.69   68.75   -6.52   -5.18    8.34  218.44
H10   35.00   39.42   39.69   69.05   -9.87  -10.11   14.13  225.70
H11   35.08   40.86   46.61   70.08  -14.03  -16.96   22.01  230.41
H12   34.28   40.81   50.47   70.04  -16.63  -21.45   27.14  232.21
H13   23.39   33.61   46.70   64.65  -35.76  -26.42   44.47  216.46
H14   34.97   23.05   34.03   55.12   50.10  -26.28   56.57  332.32
H15   59.72   60.15   11.23   81.92    4.21   65.94   66.07   86.35
H16    7.60    7.77    6.53   33.49    1.11   -0.57    1.25  332.71
H17   28.28   19.63    7.44   51.42   41.69   26.51   49.41   32.45
H18   15.81   24.94   10.22   57.02  -41.03   26.19   48.68  147.45
H19   11.16    9.64   25.93   37.17   14.50  -44.33   46.64  288.11
H20   41.51   42.89   18.00   71.48    0.55   30.40   30.41   88.98
H21   32.95   34.47   24.34   65.34   -1.00    7.07    7.14   98.00
H22   35.03   38.58   12.81   68.44   -7.18   38.08   38.75  100.69
I1     3.81    3.80    5.23   23.02    2.12  -12.52   12.70  279.57
I2     3.94    3.88    8.20   23.27    2.98  -24.95   25.13  276.82
I3     4.12    4.01   11.53   23.69    3.75  -35.39   35.58  276.05
I4     4.30    4.06   15.34   23.87    5.50  -45.46   45.79  276.90
I5    13.36   13.81   14.61   43.97    0.30   -8.97    8.97  271.90
I6    13.60   13.84   18.88   44.01    1.68  -18.90   18.97  275.09
I7    13.63   13.73   23.42   43.83    2.56  -28.29   28.40  275.15
I8    14.13   14.07   28.07   44.33    3.58  -35.62   35.81  275.73
I9    37.36   38.88   36.24   68.66   -0.35   -6.10    6.11  266.74
I10   38.18   39.65   40.89   69.21   -0.09  -11.38   11.38  269.54
I11   38.89   40.11   45.94   69.55    0.73  -17.07   17.08  272.43
I12   39.09   40.18   50.14   69.60    1.14  -21.85   21.89  272.99
I13   19.65   29.49   43.69   61.21  -38.53  -28.72   48.05  216.71
I14   31.24   19.36   30.35   51.11   54.22  -27.63   60.86  333.00
I15   58.18   58.07    8.91   80.77    5.43   71.60   71.81   85.66
I16    5.29    5.34    4.60   27.68    1.72   -1.10    2.05  327.61
I17   24.89   16.37    5.17   47.46   44.88   29.95   53.95   33.72
I18   12.73   21.26    7.59   53.24  -43.83   29.09   52.61  146.43
I19    8.41    6.76   22.15   31.24   18.14  -47.60   50.93  290.86
I20   42.28   46.76   19.08   74.04   -8.18   32.45   33.47  104.14
I21   12.27   16.44    4.40   47.54  -22.33   34.25   40.89  123.10
I22   29.11   37.35   20.15   67.54  -24.58   19.01   31.08  142.29
J1     1.92    1.73    2.90   13.99    6.36  -13.84   15.24  294.68
J2     2.22    1.74    4.74   14.06   12.84  -25.41   28.47  296.82
J3     2.74    1.82    7.89   14.53   21.00  -38.82   44.13  298.41
J4     3.02    1.81   10.56   14.44   26.44  -48.33   55.09  298.68
J5    10.86   10.52   11.95   38.78    5.43  -10.62   11.92  297.07
J6    11.52   10.47   15.28   38.67   10.65  -19.77   22.45  298.30
J7    12.15   10.32   19.71   38.40   16.19  -30.32   34.38  298.11
J8    12.93   10.54   22.73   38.79   19.84  -35.69   40.84  299.07
J9    38.97   39.78   36.99   69.32    1.99   -6.01    6.33  288.31
J10   40.08   40.03   41.14   69.49    4.70  -11.23   12.17  292.71
J11   41.23   40.03   45.80   69.49    8.27  -17.02   18.92  295.92
J12   42.02   39.94   49.74   69.43   10.90  -21.69   24.27  296.66
J13   14.16   22.86   38.10   54.93  -41.91  -32.33   52.94  217.64
J14   26.56   15.18   25.61   45.88   58.64  -28.75   65.31  333.88
J15   56.16   55.35    6.67   79.24    7.09   77.71   78.03   84.79
J16    2.63    2.68    2.42   18.74    0.92   -1.78    2.01  297.32
J17   20.32   12.32    2.95   41.73   48.75   33.57   59.19   34.55
J18    7.85   14.99    4.65   45.62  -48.88   29.53   57.10  148.86
J19    5.20    3.74   17.18   22.77   21.80  -51.72   56.12  292.85
J20   31.17   39.81   26.77   69.33  -24.63    9.66   26.46  158.58
J21    4.09    7.62    1.48   33.19  -37.76   32.47   49.80  139.30
J22    1.08    1.75    0.81   14.09  -17.99    8.98   20.11  153.51
K1     4.78    3.98    4.89   23.61   13.02   -9.68   16.22  323.39
K2     5.91    4.05    7.18   23.83   25.46  -19.95   32.34  321.92
K3     7.28    4.21    9.81   24.35   37.35  -28.77   47.15  322.40
K4     8.34    4.29   12.61   24.60   46.07  -36.94   59.04  321.27
K5    14.95   13.79   14.68   43.93   10.34   -9.19   13.83  318.34
K6    16.59   13.44   17.88   43.42   22.03  -17.72   28.26  321.19
K7    18.80   13.65   22.01   43.72   32.56  -25.82   41.56  321.59
K8    21.46   13.98   26.66   44.21   43.51  -33.45   54.88  322.45
K9    40.91   40.54   37.19   69.85    5.70   -5.36    7.83  316.75
K10   43.64   40.87   40.93   70.08   12.90   -9.94   16.29  322.36
K11   46.75   41.79   46.15   70.73   19.03  -15.30   24.42  321.21
K12   48.79   41.69   49.00   70.67   24.97  -18.74   31.22  323.10
K13   11.88   19.83   35.21   51.65  -42.73  -33.97   54.59  218.49
K14   21.77   11.41   20.67   40.25   62.04  -29.13   68.54  334.85
K15   48.28   45.35    2.82   73.12   12.92   88.76   89.69   81.72
K16    1.28    1.33    1.03   11.43    0.20    0.86    0.88   76.42
K17   16.78    9.59    1.37   37.10   50.35   40.53   64.64   38.84
K18    4.65    9.81    2.15   37.49  -48.47   32.97   58.61  145.78
K19    3.38    2.05   13.21   15.79   26.73  -53.81   60.08  296.42
K20    2.40    3.14    2.17   20.60  -11.69    3.59   12.23  162.96
K21    1.25    1.69    1.60   13.80  -11.01   -2.35   11.27  192.08
K22    1.68    2.12    3.42   16.10   -8.73  -13.90   16.42  237.89
L1     3.53    2.88    2.77   19.52   12.95   -3.30   13.37  345.71
L2     4.32    2.93    3.06   19.78   23.49   -5.01   24.02  347.96
L3     5.68    3.34    3.93   21.33   33.71   -8.11   34.67  346.47
L4     6.35    3.62    4.79   22.37   36.53  -11.30   38.24  342.83
L5    12.35   10.67   10.25   39.03   14.89   -4.94   15.68  341.64
L6    15.18   11.15   11.61   39.82   29.37   -7.82   30.40  345.08
L7    17.81   10.97   12.30   39.53   45.47  -10.35   46.63  347.17
L8    19.53   11.29   12.99   40.06   52.06  -11.36   53.28  347.68
L9    42.18   41.22   36.04   70.33    7.52   -2.93    8.07  338.67
L10   44.54   41.50   37.22   70.52   13.64   -4.25   14.28  342.70
L11   47.81   42.04   38.03   70.90   21.23   -4.70   21.74  347.49
L12   49.53   41.60   39.25   70.59   27.27   -6.88   28.13  345.85
L13    8.07   14.00   28.95   44.24  -40.88  -37.24   55.29  222.34
L14   17.03    8.22   16.02   34.42   63.29  -28.92   69.58  335.45
L15   44.68   41.17    2.28   70.29   15.02   88.35   89.61   80.35
L16    0.48    0.49    0.53    4.36    0.50   -2.54    2.59  281.07
L17   12.81    6.81    0.73   31.37   51.00   40.29   64.99   38.31
L18    2.88    6.68    1.48   31.05  -47.79   28.81   55.81  148.93
L19    1.99    0.94    8.99    8.49   31.55  -53.32   61.96  300.61
L20    0.68    0.78    0.74    7.07   -3.14   -1.80    3.62  209.78
L21    0.88    0.80    0.87    7.15    4.85   -3.93    6.23  320.96
L22    2.17    1.67    1.52   13.66   13.33   -1.75   13.44  352.51
GS0    76.02   78.60   67.89   91.05    0.55   -2.88    2.93  280.68
GS1    71.22   73.38   62.82   88.62    1.05   -2.28    2.51  294.66
GS2    60.76   62.37   53.89   83.11    1.51   -2.68    3.08  299.45
GS3    52.35   53.94   46.53   78.43    0.95   -2.47    2.64  291.03
GS4    46.72   48.44   40.78   75.10    0.10   -1.09    1.10  275.31
GS5    40.26   41.75   35.33   70.70    0.08   -1.31    1.31  273.38
GS6    34.52   35.92   29.95   66.46   -0.36   -0.55    0.65  236.24
GS7    30.15   31.41   26.41   62.85   -0.48   -0.89    1.01  241.36
GS8    26.01   27.08   22.76   59.05   -0.37   -0.83    0.91  246.12
GS9    22.51   23.51   19.86   55.60   -0.65   -1.00    1.20  237.17
GS10   19.67   20.59   17.38   52.50   -0.88   -0.94    1.28  226.73
GS11   15.76   16.37   14.13   47.46   -0.14   -1.67    1.68  265.11
GS12   12.73   13.31   11.31   43.22   -0.67   -1.03    1.23  236.68
GS13   10.11   10.51    9.03   38.75   -0.11   -1.32    1.33  264.85
GS14    8.23    8.53    7.14   35.07    0.06   -0.45    0.46  275.79
GS15    6.71    6.91    5.72   31.60    0.47   -0.08    0.49  171.61
GS16    5.22    5.35    4.44   27.69    0.77   -0.17    0.79  349.58
GS17    3.76    3.87    3.35   23.22    0.44   -1.08    1.16  291.53
GS18    2.61    2.70    2.32   18.81   -0.12   -0.82    0.88  253.01
GS19    1.79    1.87    1.50   14.75   -0.12    0.45    0.48  104.49
GS20    1.23    1.27    0.91   11.05    0.00    2.15    2.16   89.90
GS21    0.99    1.01    0.69    9.15    0.08    2.80    2.80   88.44
GS22    0.78    0.78    0.59    7.10    0.90    1.04    1.38   49.14
GS23    0.44    0.44    0.50    3.94    0.50   -2.69    2.74  280.64
END_DATA
