lprof/data/targets/Agfa/Reflective/C81239XX.it8
IT8.7/2
ORIGINATOR "FotoTune"
DESCRIPTOR "Agfa IT8"
MATERIAL "Agfacolor"
MANUFACTURER "Agfa"
CREATED "Mon Apr 12 11:46:10 1999"
PROD_DATE "1999:04"
SERIAL "5x7 c81239xx"
NUMBER_OF_FIELDS 9
BEGIN_DATA_FORMAT
SAMPLE_ID XYZ_X XYZ_Y XYZ_Z LAB_L LAB_A LAB_B LAB_C LAB_H
END_DATA_FORMAT
NUMBER_OF_SETS 288
BEGIN_DATA
A1     3.21    2.66    2.02   18.60   11.75    1.60   11.86    7.72
A2     3.83    2.63    1.60   18.49   21.95    5.81   22.71   14.83
A3     5.04    2.99    1.59   20.03   31.65    8.57   32.78   15.16
A4     5.32    3.12    1.72   20.56   32.78    8.02   33.74   13.75
A5    11.32    9.84    7.72   37.56   13.97    1.53   14.06    6.23
A6    13.53   10.05    6.47   37.93   27.40    7.39   28.38   15.10
A7    16.02   10.24    5.60   38.28   40.92   12.00   42.65   16.34
A8    18.43   10.55    5.11   38.82   51.81   15.35   54.03   16.51
A9    41.23   40.21   32.97   69.61    7.72    0.27    7.73    2.01
A10   43.47   40.29   31.66   69.68   14.15    2.36   14.34    9.46
A11   46.75   40.98   30.26   70.16   21.47    5.36   22.12   14.02
A12   47.14   39.58   28.15   69.17   26.85    7.06   27.76   14.74
A13   75.50   78.29   67.68   90.91    0.11   -2.93    2.93  272.10
A14   75.71   78.04   67.57   90.80    1.01   -3.03    3.18  288.42
A15   75.49   78.16   65.39   90.85    0.34   -0.90    0.97  290.72
A16   74.57   77.15   65.21   90.39    0.43   -1.52    1.58  285.67
A17   75.34   77.74   65.67   90.66    0.85   -1.50    1.72  299.57
A18   74.97   77.79   65.62   90.68   -0.01   -1.40    1.40  269.59
A19   74.90   77.35   67.36   90.48    0.74   -3.38    3.46  282.34
A20    1.32    1.01    0.60    9.12   11.27    4.32   12.07   20.98
A21    4.78    2.86    0.69   19.47   30.83   20.67   37.11   33.83
A22    9.06    4.91    0.69   26.47   44.24   32.46   54.86   36.27
B1     3.07    2.66    1.54   18.64    9.17    6.68   11.34   36.01
B2     3.68    2.74    0.82   18.99   17.44   17.24   24.51   44.67
B3     4.43    2.94    0.74   19.80   24.84   20.16   31.99   39.07
B4     4.99    3.22    0.74   20.88   27.40   22.03   35.16   38.79
B5    11.66   10.12    5.73   38.05   14.34   10.94   18.03   37.35
B6    13.60   10.32    3.87   38.42   25.77   21.69   33.68   40.09
B7    15.84   10.31    2.27   38.40   39.38   33.42   51.65   40.32
B8    17.40   10.35    1.49   38.47   47.80   41.43   63.26   40.92
B9    41.00   40.43   30.16   69.77    6.31    4.86    7.96   37.61
B10   43.30   40.77   27.03   70.01   12.18   10.39   16.01   40.46
B11   46.31   41.35   24.49   70.42   19.15   15.55   24.67   39.07
B12   47.30   41.06   21.93   70.21   22.76   20.02   30.32   41.34
B13   66.56   71.86   65.83   87.90   -5.93   -6.39    8.72  227.18
B14   70.90   69.81   64.44   86.90    7.82   -6.81   10.38  318.96
B15   72.88   75.90   52.82   89.82   -0.57   10.03   10.05   93.25
B16   59.26   61.07   51.23   82.41    0.96   -0.98    1.37  314.43
B17   67.88   67.41   50.96   85.71    6.44    5.01    8.16   37.84
B18   63.94   69.56   52.33   86.78   -6.93    5.32    8.73  142.44
B19   62.01   63.58   62.36   83.75    1.71  -10.24   10.39  279.49
B20    2.95    2.01    0.69   15.55   20.44   13.84   24.68   34.10
B21    7.99    4.45    0.70   25.12   40.75   29.99   50.60   36.36
B22   29.12   24.78   13.76   56.86   21.43   15.52   26.47   35.92
C1     4.20    3.95    2.16   23.52    5.57    8.73   10.36   57.45
C2     4.52    4.02    1.25   23.74    9.03   19.00   21.04   64.57
C3     5.28    4.36    0.97   24.85   13.87   25.01   28.60   61.00
C4     5.28    4.35    0.96   24.78   14.12   25.05   28.76   60.60
C5    22.70   21.77   10.39   53.78    7.97   20.06   21.59   68.32
C6    24.97   21.89    5.56   53.91   17.37   39.15   42.83   66.07
C7    26.02   21.30    2.36   53.26   24.60   58.26   63.24   67.12
C8    28.13   22.02    1.73   54.05   29.72   65.58   71.99   65.62
C9    47.52   48.19   32.95   74.94    3.01    9.48    9.94   72.35
C10   50.42   49.48   27.42   75.75    7.39   19.63   20.97   69.38
C11   52.68   50.23   22.71   76.21   11.37   28.86   31.02   68.50
C12   52.85   49.32   18.51   75.65   14.23   36.47   39.15   68.68
C13   56.77   64.34   63.26   84.14  -12.51  -10.43   16.30  219.83
C14   64.40   59.53   59.79   81.58   16.49  -11.44   20.07  325.26
C15   70.72   73.78   43.41   88.82   -0.83   19.22   19.24   92.46
C16   44.72   46.26   38.17   73.71    0.42   -0.05    0.44  174.96
C17   59.71   56.09   39.84   79.67   13.90    7.99   16.03   29.91
C18   52.56   60.44   41.94   82.08  -14.26    9.44   17.10  146.49
C19   48.56   49.13   55.78   75.54    3.31  -17.76   18.07  280.55
C20    1.89    1.54    0.70   12.86   10.49    8.91   13.76   40.37
C21   22.79   17.35    5.61   48.69   30.35   29.91   42.61   44.58
C22   35.86   33.14   20.45   64.27   13.64   12.74   18.66   43.04
D1     3.91    4.00    2.22   23.65    0.88    8.40    8.44   84.05
D2     3.96    4.09    1.30   23.94    0.30   18.74   18.74   89.08
D3     4.30    4.28    1.03   24.58    2.37   23.45   23.58   84.25
D4     4.37    4.39    1.04   24.92    1.92   24.00   24.08   85.43
D5    25.74   27.01   13.35   58.99   -1.23   20.28   20.33   93.48
D6    25.11   26.76    7.82   58.75   -2.86   37.67   37.78   94.33
D7    26.01   27.72    3.81   59.64   -2.91   58.64   58.72   92.85
D8    24.67   25.67    2.11   57.72   -0.28   68.24   68.24   90.24
D9    54.12   57.04   37.43   80.20   -2.16   12.15   12.34  100.10
D10   56.36   59.07   31.41   81.33   -1.40   22.83   22.88   93.52
D11   56.04   59.30   25.48   81.46   -2.76   32.82   32.93   94.80
D12   56.53   59.96   21.26   81.82   -3.07   41.34   41.46   94.25
D13   48.03   57.12   60.33   80.25  -18.44  -14.28   23.33  217.74
D14   57.66   49.89   54.50   76.00   24.75  -15.60   29.26  327.79
D15   68.44   71.31   34.81   87.64   -0.62   28.65   28.65   91.24
D16   32.85   33.87   28.18   64.86    0.71   -0.41    0.84  329.40
D17   51.72   45.79   29.90   73.40   20.93   11.52   23.90   28.83
D18   41.76   51.08   32.57   76.73  -21.36   13.13   25.08  148.43
D19   37.03   36.77   48.85   67.10    5.28  -24.69   25.24  282.07
D20   14.36   10.91    3.32   39.42   26.19   27.01   37.62   45.88
D21   23.07   22.23   14.25   54.26    7.60    9.74   12.35   52.04
D22   39.97   38.83   24.09   68.63    8.09   13.19   15.48   58.47
E1     3.47    3.90    2.21   23.35   -4.49    8.00    9.17  119.35
E2     3.11    3.81    1.32   23.02   -9.06   16.97   19.24  118.10
E3     3.28    4.22    1.11   24.38  -12.05   22.08   25.15  118.63
E4     3.27    4.23    1.12   24.42  -12.26   22.04   25.23  119.10
E5    11.77   13.40    7.33   43.35   -7.77   13.09   15.23  120.69
E6    10.90   13.56    4.85   43.60  -15.14   25.01   29.23  121.20
E7    10.19   13.90    2.68   44.08  -22.57   39.80   45.75  119.56
E8     9.98   14.34    1.92   44.71  -26.89   47.53   54.61  119.49
E9    36.43   39.79   26.42   69.32   -6.26   10.26   12.01  121.39
E10   35.77   40.39   23.35   69.74  -10.25   16.48   19.41  121.89
E11   35.40   41.35   19.98   70.42  -14.43   24.31   28.27  120.71
E12   34.10   41.38   16.61   70.44  -18.96   31.79   37.01  120.82
E13   40.88   50.77   57.22   76.54  -23.20  -17.52   29.08  217.07
E14   51.96   42.35   49.66   71.11   31.48  -18.71   36.62  329.27
E15   65.92   68.29   25.96   86.15    0.22   40.06   40.06   89.68
E16   24.22   24.94   20.20   57.01    0.78    0.74    1.08   43.51
E17   44.92   37.67   21.53   67.78   26.52   16.60   31.30   32.04
E18   32.82   42.72   24.32   71.36  -27.40   17.50   32.52  147.44
E19   28.35   27.67   42.54   59.59    6.72  -30.08   30.83  282.60
E20   22.56   15.42    1.32   46.21   39.97   56.93   69.56   54.92
E21   17.46   14.43    3.20   44.85   20.56   37.24   42.54   61.09
E22   29.63   25.92    9.56   57.96   18.69   30.01   35.35   58.08
F1     1.37    1.69    1.17   13.77   -7.28    2.90    7.84  158.26
F2     1.19    1.83    1.01   14.53  -16.08    6.51   17.34  157.97
F3     1.13    2.05    0.97   15.70  -22.89    9.20   24.67  158.08
F4     1.27    2.41    1.11   17.53  -26.31   10.27   28.24  158.67
F5     6.52    8.05    5.72   34.08  -12.14    4.19   12.84  160.94
F6     5.43    8.14    4.96   34.26  -25.00    8.31   26.35  161.61
F7     4.35    8.12    4.22   34.23  -38.54   12.32   40.47  162.29
F8     3.12    7.55    3.55   33.01  -51.90   14.35   53.85  164.55
F9    35.85   39.49   30.71   69.10   -7.25    2.83    7.78  158.68
F10   35.34   40.81   30.24   70.04  -13.00    5.18   13.99  158.24
F11   33.83   41.01   29.44   70.19  -18.82    6.70   19.98  160.40
F12   32.39   41.25   28.05   70.35  -24.55    9.26   26.24  159.33
F13   34.62   44.97   54.11   72.88  -27.64  -20.58   34.46  216.66
F14   47.30   36.58   45.49   66.96   36.80  -21.00   42.37  330.29
F15   64.40   66.35   21.17   85.18    1.06   47.32   47.33   88.72
F16   17.99   18.58   15.20   50.18    0.51    0.27    0.58   26.18
F17   39.94   31.98   16.18   63.33   30.84   20.55   37.07   33.67
F18   27.10   37.03   19.01   67.29  -31.45   20.97   37.81  146.31
F19   22.27   21.26   37.53   53.24    8.40  -34.48   35.49  283.68
F20   27.33   26.42   14.15   58.43    7.68   17.18   18.82   65.93
F21   34.32   31.85   12.58   63.22   12.93   29.72   32.41   66.49
F22   38.61   37.10   18.35   67.36    9.30   22.53   24.38   67.58
G1     2.20    2.68    2.55   18.70   -7.89   -2.99    8.43  200.71
G2     1.92    2.84    2.91   19.40  -17.08   -4.62   17.70  195.14
G3     1.71    3.02    3.33   20.12  -25.33   -6.30   26.10  193.95
G4     1.90    3.49    3.74   21.88  -28.20   -6.02   28.84  192.05
G5     8.74   10.56    9.10   38.82  -11.68   -1.45   11.77  187.08
G6     7.66   10.77    9.85   39.19  -22.97   -3.35   23.22  188.30
G7     6.26   10.62   10.23   38.94  -35.85   -5.03   36.19  187.98
G8     5.21   10.82   11.11   39.28  -49.26   -7.21   49.78  188.33
G9    35.41   39.15   31.75   68.87   -7.68    0.80    7.72  174.00
G10   34.19   39.86   33.60   69.37  -14.01   -1.09   14.06  184.45
G11   33.11   40.61   34.50   69.90  -20.08   -1.47   20.14  184.21
G12   31.77   41.19   36.14   70.31  -26.64   -3.10   26.82  186.64
G13   28.44   38.89   50.36   68.67  -32.06  -23.73   39.88  216.50
G14   40.94   29.21   39.62   60.97   44.11  -23.95   50.21  331.49
G15   61.94   63.08   15.06   83.49    2.68   58.06   58.12   87.35
G16   11.65   11.89    9.82   41.04    1.34   -0.06    1.36  176.65
G17   33.75   25.11   11.23   57.18   36.98   23.27   43.69   32.19
G18   20.94   30.65   14.26   62.21  -36.56   23.42   43.41  147.35
G19   15.66   14.32   31.14   44.69   11.27  -39.94   41.50  285.76
G20   37.35   36.77   17.14   67.10    6.30   24.81   25.60   75.75
G21   35.42   34.76   10.99   65.56    6.57   38.47   39.02   80.32
G22   43.55   40.72    2.93   69.99   13.06   82.50   83.53   81.01
H1     2.41    2.71    3.18   18.84   -3.95   -7.51    8.49  242.29
H2     2.19    2.82    4.22   19.28  -10.40  -13.41   16.97  232.18
H3     1.89    2.68    5.24   18.70  -14.59  -20.00   24.76  233.90
H4     2.24    3.22    6.70   20.90  -16.49  -23.01   28.31  234.37
H5     9.34   10.62   11.15   38.94   -7.11   -7.94   10.66  228.12
H6     8.70   10.93   14.24   39.46  -14.74  -15.74   21.57  226.88
H7     7.65   10.64   17.94   38.97  -22.02  -25.54   33.72  229.24
H8     7.22   10.85   21.86   39.31  -27.64  -33.11   43.14  230.16
H9    36.01   39.37   35.25   69.01   -6.32   -4.09    7.53  212.92
H10   35.35   39.76   39.28   69.30   -9.76   -9.14   13.38  223.13
H11   35.31   41.17   46.39   70.29  -14.22  -16.32   21.65  228.94
H12   34.46   41.07   50.58   70.23  -16.80  -21.27   27.11  231.71
H13   23.42   33.61   46.83   64.66  -35.67  -26.58   44.48  216.68
H14   35.10   23.03   33.93   55.10   50.61  -26.19   56.98  332.64
H15   59.89   60.26   11.02   81.98    4.34   66.65   66.79   86.27
H16    7.57    7.70    6.36   33.35    1.42   -0.07    1.42  356.96
H17   28.49   19.74    7.27   51.54   41.94   27.42   50.11   33.18
H18   15.74   24.85    9.98   56.92  -41.05   26.83   49.03  146.84
H19   11.14    9.59   25.91   37.10   14.72  -44.44   46.81  288.32
H20   41.85   43.24   17.55   71.71    0.51   31.83   31.83   89.08
H21   32.88   34.37   23.56   65.26   -0.87    8.36    8.41   95.90
H22   35.25   38.83   12.61   68.63   -7.23   38.97   39.63  100.52
I1     3.88    3.88    5.20   23.28    2.15  -11.90   12.09  280.26
I2     3.95    3.87    7.96   23.23    3.34  -24.11   24.35  277.88
I3     4.11    4.01   11.15   23.68    3.59  -34.25   34.44  275.98
I4     4.28    4.05   15.07   23.84    5.38  -44.81   45.13  276.84
I5    13.34   13.76   14.05   43.88    0.60   -7.64    7.66  274.52
I6    13.34   13.60   18.07   43.64    1.58  -17.76   17.83  275.07
I7    13.46   13.51   22.67   43.53    2.86  -27.43   27.58  275.95
I8    14.20   14.09   27.73   44.36    3.91  -35.02   35.24  276.38
I9    37.62   39.14   35.47   68.85   -0.32   -4.69    4.70  266.10
I10   38.43   39.82   40.24   69.35    0.15  -10.31   10.31  270.85
I11   39.12   40.37   45.49   69.73    0.67  -16.22   16.24  272.36
I12   39.40   40.51   50.22   69.83    1.14  -21.56   21.59  273.03
I13   19.62   29.41   43.72   61.14  -38.37  -28.87   48.02  216.96
I14   31.35   19.36   30.21   51.11   54.58  -27.40   61.07  333.35
I15   58.14   57.92    8.55   80.69    5.70   72.76   72.99   85.51
I16    5.24    5.28    4.40   27.51    1.86   -0.31    1.89  350.32
I17   24.92   16.35    4.93   47.42   45.17   31.19   54.89   34.62
I18   12.60   21.07    7.38   53.01  -43.68   29.56   52.74  145.91
I19    8.38    6.70   22.07   31.12   18.35  -47.63   51.05  291.07
I20   42.25   46.76   18.38   74.04   -8.27   33.97   34.96  103.68
I21   12.02   16.01    4.16   46.99  -21.68   34.68   40.90  122.02
I22   29.21   37.39   19.62   67.57  -24.35   20.12   31.59  140.42
J1     1.97    1.76    2.87   14.15    6.61  -13.30   14.85  296.43
J2     2.26    1.77    4.65   14.23   12.76  -24.59   27.70  297.41
J3     2.75    1.85    7.68   14.65   20.69  -37.83   43.12  298.67
J4     3.01    1.81   10.34   14.44   26.27  -47.61   54.38  298.89
J5    10.88   10.52   11.60   38.76    5.60   -9.61   11.12  300.23
J6    11.47   10.41   14.74   38.57   10.74  -18.59   21.48  300.01
J7    12.11   10.27   19.31   38.33   16.23  -29.60   33.76  298.73
J8    12.96   10.56   22.43   38.83   19.83  -35.06   40.28  299.49
J9    39.15   39.81   36.39   69.33    2.44   -5.14    5.69  295.40
J10   40.31   40.11   40.60   69.55    5.16  -10.42   11.63  296.38
J11   41.56   40.21   45.42   69.62    8.68  -16.33   18.49  298.02
J12   42.07   39.75   49.51   69.29   11.64  -21.68   24.60  298.23
J13   14.51   23.27   38.59   55.35  -41.61  -32.26   52.65  217.79
J14   26.83   15.32   25.65   46.06   58.94  -28.51   65.47  334.19
J15   56.22   55.32    6.44   79.23    7.32   78.68   79.02   84.69
J16    2.66    2.69    2.36   18.76    1.24   -1.21    1.73  315.58
J17   20.49   12.41    2.84   41.87   48.98   34.69   60.02   35.31
J18    7.89   15.00    4.52   45.65  -48.61   30.26   57.26  148.10
J19    5.28    3.78   17.28   22.94   21.99  -51.64   56.12  293.06
J20   31.35   39.95   26.08   69.43  -24.39   11.02   26.76  155.67
J21    4.12    7.69    1.53   33.33  -37.68   32.12   49.51  139.55
J22    1.05    1.70    0.84   13.82  -17.61    8.05   19.37  155.43
K1     4.80    4.02    4.75   23.72   12.77   -8.75   15.49  325.59
K2     5.83    4.02    6.77   23.74   24.99  -18.41   31.03  323.63
K3     7.28    4.22    9.47   24.40   37.28  -27.58   46.37  323.50
K4     8.41    4.33   12.36   24.74   46.17  -36.01   58.56  322.05
K5    14.94   13.71   14.12   43.81   10.81   -7.94   13.41  323.72
K6    16.70   13.52   17.45   43.54   22.13  -16.53   27.62  323.24
K7    18.99   13.80   21.68   43.94   32.54  -24.78   40.90  322.70
K8    21.69   14.09   26.60   44.36   43.94  -33.11   55.02  323.00
K9    40.94   40.38   36.43   69.74    6.31   -4.49    7.74  324.51
K10   43.33   40.37   39.96   69.73   13.51   -9.28   16.40  325.54
K11   46.64   41.44   45.46   70.49   19.77  -14.89   24.76  323.03
K12   48.92   41.60   48.78   70.59   25.60  -18.61   31.65  323.99
K13   12.09   20.08   35.59   51.92  -42.50  -34.04   54.46  218.70
K14   22.02   11.51   20.66   40.42   62.47  -28.80   68.79  335.26
K15   48.46   45.49    2.84   73.21   13.05   88.79   89.75   81.64
K16    1.31    1.33    1.03   11.49    0.78    1.02    1.30   52.57
K17   16.88    9.62    1.35   37.15   50.64   40.93   65.11   38.94
K18    4.74    9.94    2.18   37.74  -48.44   33.01   58.62  145.73
K19    3.46    2.11   13.33   16.03   26.95  -53.72   60.10  296.64
K20    2.54    3.28    2.22   21.12  -11.18    4.10   11.91  159.90
K21    1.28    1.72    1.59   13.95  -10.82   -2.01   11.00  190.54
K22    1.66    2.11    3.31   16.04   -8.84  -13.24   15.92  236.28
L1     3.41    2.78    2.64   19.12   12.90   -2.97   13.24  347.08
L2     4.12    2.80    2.87   19.20   23.12   -4.62   23.58  348.71
L3     5.59    3.28    3.74   21.12   33.47   -7.32   34.27  347.67
L4     6.15    3.51    4.42   21.99   36.05   -9.89   37.39  344.66
L5    12.02   10.32    9.64   38.42   15.26   -3.96   15.77  345.47
L6    14.80   10.83   10.82   39.28   29.44   -6.35   30.12  347.83
L7    17.70   10.89   11.62   39.39   45.43   -8.57   46.24  349.32
L8    19.42   11.23   12.35   39.96   51.93   -9.73   52.83  349.39
L9    41.89   40.72   35.04   69.98    8.11   -2.12    8.38  345.31
L10   43.69   40.44   35.97   69.79   14.33   -3.78   14.82  345.23
L11   46.97   41.04   36.53   70.20   21.93   -3.86   22.28  350.03
L12   48.67   40.51   37.67   69.83   28.18   -6.06   28.82  347.87
L13    8.01   13.85   28.88   44.03  -40.59  -37.48   55.24  222.71
L14   17.27    8.30   15.98   34.59   63.84  -28.51   69.91  335.94
L15   44.70   41.08    2.38   70.23   15.35   87.31   88.65   80.03
L16    0.47    0.47    0.55    4.28    0.69   -3.01    3.09  282.91
L17   12.94    6.88    0.78   31.51   51.24   39.57   64.74   37.67
L18    2.84    6.61    1.53   30.88  -47.79   27.82   55.29  149.80
L19    2.00    0.95    8.98    8.56   31.51  -53.17   61.81  300.66
L20    0.68    0.78    0.77    7.10   -2.95   -2.30    3.74  217.90
L21    0.89    0.80    0.87    7.18    5.16   -3.94    6.49  322.67
L22    2.18    1.68    1.51   13.70   13.44   -1.56   13.53  353.39
GS0    76.54   79.12   68.29   91.29    0.56   -2.84    2.90  281.32
GS1    71.70   74.00   63.01   88.93    0.79   -1.95    2.11  292.07
GS2    61.42   63.37   53.83   83.63    0.82   -1.72    1.90  295.41
GS3    52.80   54.45   46.10   78.73    0.81   -1.44    1.66  299.52
GS4    47.35   49.15   40.49   75.54   -0.05    0.04    0.09  181.29
GS5    40.82   42.36   34.93   71.12   -0.02   -0.02    0.09  232.54
GS6    34.78   36.08   29.60   66.58   -0.02    0.25    0.25   81.37
GS7    30.41   31.52   25.88   62.94    0.08    0.19    0.22   67.71
GS8    26.10   26.94   22.26   58.92    0.54   -0.09    0.55  350.38
GS9    22.62   23.42   19.40   55.49    0.26   -0.19    0.34  170.26
GS10   19.50   20.35   17.00   52.23   -0.56   -0.52    0.76  222.92
GS11   15.75   16.29   13.56   47.35    0.29   -0.34    0.48  313.15
GS12   12.84   13.33   11.24   43.26   -0.11   -0.76    0.77  261.12
GS13   10.17   10.50    8.84   38.72    0.44   -0.67    0.81  302.28
GS14    8.28    8.53    7.04   35.07    0.50   -0.02    0.51  173.18
GS15    6.62    6.77    5.53   31.27    1.05    0.22    1.08   11.29
GS16    5.30    5.38    4.39   27.77    1.46    0.26    1.48   10.00
GS17    3.91    3.97    3.32   23.60    1.10   -0.28    1.13  345.03
GS18    2.74    2.82    2.37   19.30    0.35   -0.39    0.52  312.43
GS19    1.89    1.94    1.50   15.21    0.47    1.16    1.25   67.76
GS20    1.30    1.34    0.94   11.53    0.38    2.37    2.39   80.87
GS21    1.05    1.08    0.74    9.64    0.38    2.67    2.70   82.17
GS22    0.81    0.81    0.62    7.38    1.16    1.05    1.56   42.05
GS23    0.44    0.44    0.51    3.92    0.68   -2.97    3.04  282.96
END_DATA
