lprof/data/targets/Agfa/Reflective/C81237XX.it8
IT8.7/2
ORIGINATOR "FotoTune"
DESCRIPTOR "Agfa IT8"
MATERIAL "Agfacolor"
MANUFACTURER "Agfa"
CREATED "Mon Apr 26 14:10:09 1999"
PROD_DATE "1999:04"
SERIAL "5x7 c81237xx"
NUMBER_OF_FIELDS 9
BEGIN_DATA_FORMAT
SAMPLE_ID XYZ_X XYZ_Y XYZ_Z LAB_L LAB_A LAB_B LAB_C LAB_H
END_DATA_FORMAT
NUMBER_OF_SETS 288
BEGIN_DATA
A1     3.26    2.72    2.07   18.88   11.27    1.55   11.39    7.80
A2     3.87    2.69    1.64   18.76   21.33    5.76   22.10   15.10
A3     5.09    3.07    1.62   20.30   31.12    8.51   32.26   15.29
A4     5.38    3.22    1.79   20.89   32.10    7.78   33.03   13.64
A5    11.16    9.75    7.64   37.38   13.59    1.55   13.68    6.51
A6    13.51   10.10    6.51   38.03   26.83    7.34   27.82   15.30
A7    16.06   10.32    5.73   38.43   40.51   11.59   42.14   15.96
A8    18.61   10.72    5.28   39.10   51.51   14.97   53.64   16.20
A9    41.07   40.14   32.94   69.57    7.41    0.22    7.41    1.76
A10   43.49   40.39   31.67   69.74   13.92    2.46   14.14   10.03
A11   46.72   40.98   30.40   70.16   21.42    5.13   22.03   13.47
A12   47.13   39.57   28.31   69.17   26.84    6.78   27.69   14.18
A13   75.57   78.35   67.75   90.93    0.11   -2.95    2.95  272.12
A14   75.85   78.21   67.56   90.88    0.94   -2.88    3.03  287.99
A15   75.62   78.26   65.61   90.90    0.38   -1.03    1.09  290.00
A16   74.66   77.25   65.32   90.43    0.44   -1.56    1.61  285.77
A17   75.33   77.74   65.51   90.66    0.84   -1.35    1.59  301.80
A18   75.07   77.89   65.71   90.72    0.02   -1.41    1.41  270.42
A19   74.98   77.43   67.29   90.52    0.72   -3.24    3.33  282.48
A20    1.37    1.07    0.63    9.54   10.79    4.53   11.70   22.79
A21    4.89    2.95    0.71   19.86   30.55   20.90   37.01   34.38
A22    9.21    5.03    0.73   26.85   43.95   32.49   54.65   36.47
B1     3.13    2.74    1.57   19.01    8.68    6.99   11.15   38.85
B2     3.72    2.81    0.83   19.26   17.01   17.49   24.40   45.79
B3     4.51    3.01    0.75   20.12   24.44   20.48   31.89   39.97
B4     5.07    3.30    0.76   21.19   26.94   22.05   34.82   39.30
B5    11.67   10.16    5.72   38.14   14.01   11.13   17.89   38.47
B6    13.71   10.48    3.99   38.69   25.26   21.47   33.15   40.36
B7    15.98   10.46    2.31   38.65   39.11   33.50   51.49   40.58
B8    17.67   10.59    1.52   38.89   47.49   41.75   63.24   41.32
B9    41.20   40.75   30.44   70.00    5.97    4.79    7.64   38.77
B10   43.67   41.26   27.45   70.35   11.81   10.26   15.65   41.01
B11   46.68   41.79   24.86   70.73   18.83   15.41   24.33   39.28
B12   47.52   41.35   22.19   70.42   22.51   19.85   30.01   41.42
B13   66.58   71.90   65.82   87.93   -5.93   -6.36    8.69  226.97
B14   71.09   70.09   64.57   87.04    7.62   -6.69   10.15  318.70
B15   72.93   75.96   53.21   89.84   -0.58    9.66    9.68   93.42
B16   59.53   61.43   51.62   82.61    0.76   -1.09    1.33  305.15
B17   68.13   67.78   51.52   85.90    6.21    4.70    7.79   37.11
B18   64.08   69.67   52.68   86.83   -6.85    5.05    8.51  143.64
B19   61.99   63.64   62.26   83.78    1.52  -10.10   10.22  278.55
B20    3.03    2.09    0.70   15.95   20.06   14.16   24.56   35.22
B21    8.12    4.57    0.73   25.46   40.52   30.18   50.53   36.69
B22   29.55   25.29   14.15   57.36   20.97   15.32   25.97   36.15
C1     4.27    4.05    2.22   23.85    5.15    8.74   10.15   59.50
C2     4.55    4.08    1.25   23.92    8.61   19.41   21.23   66.07
C3     5.28    4.39    0.96   24.92   13.52   25.30   28.68   61.87
C4     5.28    4.38    0.95   24.88   13.72   25.20   28.69   61.44
C5    22.74   21.91   10.59   53.92    7.53   19.69   21.08   69.04
C6    25.31   22.30    5.69   54.35   17.01   39.22   42.75   66.55
C7    26.36   21.67    2.36   53.67   24.26   58.89   63.69   67.60
C8    28.51   22.43    1.75   54.49   29.28   66.23   72.41   66.15
C9    48.08   48.90   33.61   75.40    2.63    9.28    9.65   74.19
C10   50.76   49.97   27.81   76.04    7.01   19.48   20.69   70.22
C11   53.19   50.88   23.27   76.60   10.98   28.46   30.51   68.90
C12   53.21   49.76   18.93   75.92   13.96   36.03   38.64   68.82
C13   57.04   64.57   63.38   84.26  -12.35  -10.35   16.11  219.97
C14   64.65   59.97   59.99   81.82   16.05  -11.23   19.58  325.02
C15   70.78   73.85   43.92   88.85   -0.83   18.65   18.67   92.55
C16   45.10   46.76   38.78   74.04    0.07   -0.29    0.32  267.92
C17   60.13   56.65   40.41   79.99   13.52    7.80   15.60   29.99
C18   52.58   60.47   42.42   82.09  -14.24    8.86   16.77  148.11
C19   48.57   49.31   55.84   75.64    2.89  -17.64   17.88  279.30
C20    1.93    1.60    0.72   13.18   10.09    9.16   13.63   42.25
C21   23.17   17.74    5.89   49.18   30.01   29.40   42.01   44.42
C22   36.35   33.71   21.12   64.73   13.29   12.16   18.01   42.44
D1     3.91    4.02    2.24   23.74    0.47    8.37    8.39   86.74
D2     3.95    4.11    1.30   24.04   -0.25   18.94   18.94   90.75
D3     4.36    4.38    1.03   24.88    1.93   24.04   24.12   85.40
D4     4.45    4.51    1.05   25.29    1.41   24.47   24.52   86.70
D5    25.80   27.18   13.48   59.14   -1.65   20.20   20.26   94.69
D6    25.20   26.94    7.98   58.93   -3.24   37.36   37.50   94.96
D7    26.07   27.90    3.87   59.79   -3.34   58.52   58.61   93.27
D8    24.79   25.90    2.12   57.94   -0.73   68.42   68.43   90.60
D9    54.15   57.16   37.79   80.27   -2.38   11.77   12.01  101.41
D10   56.50   59.30   31.67   81.46   -1.60   22.65   22.70   94.04
D11   56.21   59.53   25.92   81.57   -2.85   32.25   32.38   95.05
D12   56.60   60.08   21.58   81.88   -3.18   40.81   40.93   94.46
D13   47.95   57.03   60.18   80.19  -18.47  -14.22   23.30  217.59
D14   57.83   50.21   54.62   76.19   24.35  -15.40   28.81  327.70
D15   68.60   71.49   35.33   87.73   -0.66   28.07   28.08   91.36
D16   33.10   34.27   28.65   65.18    0.27   -0.66    0.72  292.58
D17   52.06   46.24   30.35   73.70   20.56   11.32   23.47   28.83
D18   41.77   51.10   33.01   76.74  -21.38   12.50   24.76  149.68
D19   37.09   36.99   48.92   67.28    4.74  -24.48   24.93  280.97
D20   14.40   11.00    3.41   39.58   25.77   26.70   37.11   46.01
D21   23.10   22.37   14.46   54.42    7.03    9.45   11.78   53.32
D22   40.27   39.23   24.48   68.92    7.77   12.99   15.14   59.13
E1     3.55    4.02    2.28   23.74   -4.85    8.02    9.37  121.19
E2     3.15    3.89    1.35   23.28   -9.50   16.95   19.43  119.26
E3     3.33    4.31    1.11   24.67  -12.47   22.55   25.76  118.94
E4     3.35    4.35    1.12   24.78  -12.59   22.52   25.80  119.19
E5    11.81   13.51    7.39   43.51   -8.14   13.12   15.44  121.80
E6    10.95   13.70    4.93   43.80  -15.57   24.86   29.33  122.04
E7    10.32   14.12    2.76   44.40  -22.95   39.67   45.83  120.06
E8    10.15   14.58    1.94   45.04  -26.98   47.93   55.01  119.37
E9    36.56   40.03   26.90   69.49   -6.54    9.71   11.70  123.96
E10   35.94   40.65   23.59   69.93  -10.49   16.36   19.44  122.65
E11   35.49   41.53   20.46   70.54  -14.66   23.53   27.73  121.93
E12   34.28   41.64   16.98   70.62  -19.11   31.24   36.62  121.45
E13   40.81   50.69   57.08   76.49  -23.24  -17.45   29.06  216.90
E14   52.06   42.55   49.76   71.24   31.12  -18.58   36.24  329.15
E15   66.10   68.52   26.63   86.26    0.16   39.08   39.08   89.78
E16   24.36   25.19   20.51   57.26    0.36    0.53    0.65   54.61
E17   45.25   38.11   21.93   68.10   26.14   16.37   30.85   32.06
E18   32.83   42.72   24.57   71.37  -27.35   17.05   32.24  148.07
E19   28.44   27.91   42.66   59.81    6.10  -29.85   30.47  281.53
E20   22.83   15.72    1.33   46.60   39.55   57.37   69.68   55.42
E21   17.57   14.64    3.30   45.14   19.99   37.03   42.08   61.65
E22   29.96   26.31    9.74   58.33   18.31   30.03   35.17   58.63
F1     1.38    1.72    1.19   13.95   -7.59    2.93    8.14  158.85
F2     1.20    1.86    1.01   14.75  -16.62    6.83   17.97  157.70
F3     1.14    2.07    0.98   15.83  -23.10    9.24   24.88  158.21
F4     1.30    2.47    1.13   17.80  -26.53   10.35   28.48  158.69
F5     6.50    8.07    5.77   34.15  -12.64    4.05   13.27  162.24
F6     5.44    8.20    4.99   34.39  -25.40    8.32   26.73  161.86
F7     4.41    8.23    4.31   34.45  -38.62   12.25   40.51  162.41
F8     3.16    7.61    3.63   33.15  -51.90   14.15   53.80  164.75
F9    35.93   39.71   30.95   69.26   -7.65    2.73    8.12  160.31
F10   35.35   40.90   30.53   70.10  -13.22    4.84   14.08  159.89
F11   33.81   41.10   29.76   70.25  -19.13    6.31   20.14  161.76
F12   32.32   41.21   28.22   70.33  -24.74    8.93   26.30  160.15
F13   34.44   44.79   53.96   72.75  -27.74  -20.63   34.57  216.64
F14   47.53   36.89   45.76   67.20   36.40  -20.90   41.97  330.13
F15   64.36   66.33   21.44   85.17    1.00   46.76   46.77   88.78
F16   18.04   18.69   15.40   50.32    0.12    0.05    0.30  181.39
F17   40.21   32.31   16.55   63.60   30.52   20.14   36.57   33.41
F18   27.01   36.94   19.19   67.24  -31.58   20.47   37.64  147.04
F19   22.18   21.28   37.50   53.26    7.85  -34.39   35.28  282.85
F20   27.38   26.57   14.38   58.57    7.24   16.83   18.33   66.72
F21   34.58   32.20   12.85   63.51   12.54   29.44   32.00   66.93
F22   38.91   37.50   18.61   67.65    8.97   22.43   24.17   68.20
G1     2.16    2.68    2.55   18.69   -8.40   -2.89    8.88  199.02
G2     1.90    2.84    2.89   19.39  -17.39   -4.48   17.95  194.43
G3     1.72    3.05    3.37   20.26  -25.61   -6.37   26.39  193.97
G4     1.90    3.50    3.72   21.94  -28.49   -5.77   29.07  191.46
G5     8.75   10.65    9.33   38.99  -12.34   -1.95   12.50  188.95
G6     7.64   10.80    9.95   39.24  -23.29   -3.62   23.57  188.85
G7     6.27   10.69   10.33   39.06  -36.24   -5.15   36.60  188.08
G8     5.22   10.85   11.19   39.32  -49.28   -7.40   49.83  188.54
G9    35.43   39.30   32.07   68.97   -8.09    0.51    8.09  176.40
G10   34.15   39.96   33.99   69.43  -14.47   -1.55   14.55  186.10
G11   32.88   40.43   34.69   69.78  -20.35   -1.99   20.45  185.58
G12   31.70   41.17   36.53   70.30  -26.82   -3.68   27.08  187.83
G13   28.16   38.60   50.17   68.46  -32.25  -23.87   40.12  216.51
G14   41.14   29.49   39.83   61.22   43.65  -23.79   49.71  331.40
G15   62.01   63.18   15.35   83.54    2.59   57.43   57.49   87.43
G16   11.65   11.97    9.91   41.15    0.80   -0.16    0.82  349.77
G17   33.90   25.32   11.43   57.39   36.61   23.01   43.24   32.15
G18   20.67   30.39   14.38   61.99  -36.86   22.73   43.30  148.35
G19   15.57   14.33   31.14   44.70   10.65  -39.92   41.32  284.94
G20   37.35   36.88   17.26   67.18    5.95   24.67   25.38   76.43
G21   35.51   34.95   11.12   65.71    6.27   38.31   38.81   80.71
G22   43.74   40.97    2.92   70.16   12.89   82.85   83.85   81.15
H1     2.38    2.70    3.18   18.79   -4.32   -7.57    8.73  240.24
H2     2.22    2.88    4.31   19.53  -10.77  -13.53   17.30  231.49
H3     1.89    2.68    5.28   18.74  -14.81  -20.10   24.97  233.62
H4     2.26    3.28    6.81   21.10  -16.85  -23.10   28.60  233.91
H5     9.38   10.75   11.40   39.15   -7.76   -8.31   11.36  226.93
H6     8.76   11.08   14.49   39.72  -15.28  -15.96   22.09  226.25
H7     7.72   10.75   18.29   39.17  -22.30  -25.95   34.22  229.34
H8     7.28   10.94   22.07   39.49  -27.86  -33.22   43.36  230.01
H9    35.91   39.35   35.36   69.00   -6.61   -4.27    7.86  212.90
H10   35.32   39.81   39.54   69.33  -10.02   -9.42   13.76  223.24
H11   35.25   41.18   46.49   70.31  -14.44  -16.42   21.86  228.67
H12   34.37   41.10   50.66   70.25  -17.17  -21.33   27.39  231.16
H13   23.37   33.58   46.82   64.64  -35.76  -26.59   44.57  216.64
H14   35.32   23.28   34.22   55.36   50.18  -26.15   56.59  332.48
H15   59.99   60.42   11.26   82.06    4.23   66.08   66.22   86.33
H16    7.59    7.77    6.47   33.50    0.88   -0.26    0.93  343.93
H17   28.71   20.00    7.43   51.84   41.53   27.28   49.69   33.29
H18   15.74   24.89   10.26   56.97  -41.17   25.98   48.67  147.74
H19   11.22    9.74   26.08   37.35   14.16  -44.28   46.49  287.73
H20   42.00   43.48   17.76   71.89    0.28   31.61   31.61   89.49
H21   33.18   34.76   24.10   65.56   -1.13    7.91    7.98   98.12
H22   35.43   39.15   12.85   68.86   -7.58   38.67   39.41  101.09
I1     3.85    3.88    5.18   23.26    1.56  -11.84   11.94  277.51
I2     3.92    3.89    7.97   23.30    2.68  -24.00   24.15  276.38
I3     4.09    4.01   11.15   23.70    3.20  -34.22   34.36  275.35
I4     4.30    4.10   15.17   23.98    4.97  -44.83   45.10  276.33
I5    13.26   13.75   14.18   43.88    0.06   -8.00    8.00  270.46
I6    13.33   13.66   18.24   43.74    1.10  -17.94   17.97  273.49
I7    13.50   13.66   23.01   43.73    2.20  -27.72   27.80  274.55
I8    14.14   14.12   27.74   44.40    3.33  -34.94   35.10  275.43
I9    37.56   39.19   35.63   68.88   -0.69   -4.85    4.89  262.00
I10   38.25   39.78   40.23   69.31   -0.28  -10.36   10.38  268.45
I11   39.08   40.45   45.52   69.79    0.29  -16.17   16.17  271.02
I12   39.37   40.64   50.19   69.92    0.63  -21.37   21.38  271.71
I13   19.44   29.22   43.49   60.97  -38.54  -28.89   48.16  216.86
I14   31.58   19.63   30.48   51.42   54.12  -27.30   60.62  333.23
I15   58.19   57.97    8.64   80.72    5.69   72.46   72.68   85.51
I16    5.26    5.34    4.47   27.67    1.42   -0.40    1.50  345.40
I17   25.16   16.60    5.05   47.75   44.76   31.10   54.50   34.80
I18   12.53   21.01    7.49   52.96  -43.93   28.96   52.61  146.61
I19    8.34    6.73   22.10   31.17   17.83  -47.62   50.85  290.52
I20   42.33   46.96   18.48   74.16   -8.57   33.96   35.02  104.15
I21   11.95   16.05    4.25   47.03  -22.39   34.26   40.92  123.17
I22   28.97   37.21   19.67   67.43  -24.69   19.81   31.66  141.27
J1     1.94    1.75    2.84   14.14    6.02  -13.07   14.40  294.73
J2     2.26    1.79    4.68   14.33   12.26  -24.56   27.44  296.54
J3     2.76    1.88    7.76   14.83   20.17  -37.81   42.85  298.08
J4     3.05    1.86   10.47   14.73   25.62  -47.54   54.01  298.33
J5    10.68   10.37   11.51   38.49    5.32   -9.77   11.12  298.56
J6    11.43   10.41   14.82   38.58   10.35  -18.78   21.44  298.85
J7    11.98   10.22   19.34   38.22   15.78  -29.86   33.78  297.86
J8    12.80   10.48   22.43   38.69   19.31  -35.30   40.24  298.67
J9    38.90   39.68   36.34   69.24    2.09   -5.24    5.64  291.83
J10   40.21   40.15   40.58   69.58    4.73  -10.36   11.40  294.54
J11   41.31   40.08   45.22   69.53    8.30  -16.26   18.26  297.04
J12   42.10   39.82   49.48   69.34   11.52  -21.56   24.45  298.11
J13   14.26   22.97   38.27   55.04  -41.76  -32.36   52.83  217.78
J14   26.89   15.39   25.72   46.16   58.73  -28.46   65.26  334.15
J15   56.19   55.32    6.49   79.23    7.26   78.46   78.79   84.71
J16    2.68    2.73    2.38   18.94    0.74   -1.18    1.40  301.85
J17   20.59   12.51    2.89   42.03   48.79   34.60   59.82   35.35
J18    7.76   14.86    4.59   45.44  -48.93   29.59   57.18  148.83
J19    5.25    3.80   17.27   23.01   21.40  -51.53   55.80  292.55
J20   30.94   39.59   25.95   69.18  -24.76   10.80   27.01  156.43
J21    4.09    7.66    1.53   33.27  -38.07   32.01   49.74  139.93
J22    1.06    1.73    0.85   13.96  -17.98    8.13   19.73  155.68
K1     4.82    4.05    4.82   23.83   12.49   -8.95   15.36  324.38
K2     5.94    4.14    7.00   24.12   24.54  -18.74   30.89  322.64
K3     7.35    4.30    9.64   24.65   36.81  -27.72   46.08  323.02
K4     8.50    4.41   12.61   24.99   45.89  -36.29   58.51  321.66
K5    14.97   13.78   14.30   43.92   10.44   -8.20   13.28  321.84
K6    16.66   13.55   17.61   43.58   21.70  -16.83   27.47  322.21
K7    18.95   13.85   21.89   44.01   32.08  -25.05   40.70  322.01
K8    21.72   14.16   26.73   44.46   43.68  -33.15   54.83  322.80
K9    41.00   40.57   36.61   69.88    5.90   -4.52    7.43  322.52
K10   43.43   40.57   40.37   69.88   13.15   -9.57   16.26  323.97
K11   46.83   41.72   45.78   70.68   19.46  -14.94   24.53  322.48
K12   49.10   41.88   49.04   70.79   25.26  -18.57   31.34  323.69
K13   12.00   19.97   35.45   51.81  -42.60  -34.05   54.53  218.64
K14   22.12   11.61   20.83   40.59   62.25  -28.87   68.62  335.11
K15   48.56   45.65    2.89   73.32   12.89   88.51   89.45   81.71
K16    1.35    1.39    1.07   11.93    0.10    1.21    1.21   85.05
K17   17.11    9.82    1.39   37.51   50.35   40.89   64.87   39.07
K18    4.74    9.95    2.21   37.75  -48.47   32.82   58.53  145.90
K19    3.50    2.16   13.48   16.33   26.24  -53.62   59.70  296.07
K20    2.51    3.27    2.22   21.08  -11.59    4.01   12.26  160.90
K21    1.28    1.74    1.61   14.01  -11.07   -2.06   11.26  190.51
K22    1.72    2.18    3.44   16.40   -9.10  -13.50   16.28  236.01
L1     3.43    2.81    2.67   19.26   12.47   -2.95   12.81  346.72
L2     4.16    2.85    2.94   19.43   22.65   -4.74   23.15  348.17
L3     5.56    3.28    3.74   21.12   33.10   -7.38   33.91  347.43
L4     6.14    3.51    4.47   22.01   35.89  -10.15   37.29  344.21
L5    12.01   10.36    9.67   38.49   14.91   -3.97   15.43  345.12
L6    14.78   10.85   11.03   39.33   29.11   -6.88   29.92  346.71
L7    17.70   10.93   11.71   39.46   45.18   -8.72   46.01  349.08
L8    19.56   11.35   12.56   40.17   51.72   -9.95   52.67  349.10
L9    41.71   40.63   35.03   69.92    7.86   -2.23    8.18  344.17
L10   43.71   40.53   36.01   69.85   14.10   -3.74   14.59  345.15
L11   47.07   41.22   36.87   70.32   21.67   -4.11   22.06  349.28
L12   49.02   40.94   38.24   70.14   27.85   -6.31   28.56  347.24
L13    7.89   13.70   28.58   43.79  -40.71  -37.39   55.28  222.57
L14   17.37    8.37   16.13   34.74   63.68  -28.62   69.82  335.80
L15   44.99   41.42    2.40   70.47   15.12   87.57   88.87   80.20
L16    0.49    0.50    0.57    4.47    0.44   -3.01    3.03  278.33
L17   13.07    6.97    0.80   31.72   51.21   39.78   64.83   37.84
L18    2.85    6.64    1.57   30.97  -47.85   27.60   55.24  150.02
L19    2.00    0.96    8.99    8.67   31.02  -53.03   61.43  300.33
L20    0.69    0.81    0.80    7.29   -3.40   -2.34    4.14  214.60
L21    0.90    0.81    0.89    7.39    4.68   -3.95    6.11  319.84
L22    2.16    1.68    1.55   13.72   12.88   -1.95   13.02  351.41
GS0    76.46   79.03   68.18   91.25    0.58   -2.82    2.88  281.68
GS1    71.77   74.07   62.97   88.96    0.78   -1.86    2.01  293.00
GS2    61.32   63.28   53.74   83.58    0.80   -1.70    1.88  295.04
GS3    52.58   54.36   45.93   78.67    0.50   -1.35    1.43  290.50
GS4    47.14   49.03   40.33   75.47   -0.33    0.11    0.36  163.58
GS5    40.60   42.25   35.00   71.04   -0.38   -0.23    0.45  210.12
GS6    34.53   35.93   29.49   66.46   -0.37    0.21    0.42  150.23
GS7    30.08   31.25   25.85   62.72   -0.13   -0.16    0.24  221.23
GS8    25.86   26.82   22.24   58.79    0.10   -0.26    0.28  286.73
GS9    22.45   23.31   19.44   55.40   -0.08   -0.47    0.50  252.09
GS10   19.39   20.33   17.10   52.21   -0.99   -0.78    1.26  218.68
GS11   15.72   16.31   13.75   47.39   -0.09   -0.79    0.79  263.53
GS12   12.68   13.23   11.30   43.10   -0.46   -1.19    1.28  248.76
GS13   10.05   10.43    8.90   38.60   -0.03   -1.07    1.07  268.12
GS14    8.23    8.53    7.14   35.06    0.03   -0.44    0.44  272.11
GS15    6.59    6.78    5.68   31.31    0.62   -0.41    0.74  326.77
GS16    5.20    5.32    4.41   27.61    0.94   -0.20    0.97  347.99
GS17    3.76    3.86    3.32   23.17    0.69   -0.95    1.17  306.30
GS18    2.63    2.74    2.37   18.97   -0.17   -0.90    0.91  258.73
GS19    1.87    1.94    1.53   15.19   -0.18    0.88    0.90  101.60
GS20    1.29    1.34    0.97   11.57   -0.18    2.10    2.11   94.81
GS21    1.05    1.10    0.75    9.75   -0.12    2.64    2.64   92.57
GS22    0.83    0.85    0.64    7.64    0.64    0.97    1.16   56.11
GS23    0.44    0.45    0.53    4.05    0.41   -3.07    3.10  277.46
END_DATA
