lprof/data/targets/Agfa/Reflective/C81250XX.it8
IT8.7/2
ORIGINATOR "FotoTune"
DESCRIPTOR "Agfa IT8"
MATERIAL "Agfacolor"
MANUFACTURER "Agfa"
CREATED "Mon Apr 12 13:47:01 1999"
PROD_DATE "1999:04"
SERIAL "5x7 c81250xx"
NUMBER_OF_FIELDS 9
BEGIN_DATA_FORMAT
SAMPLE_ID XYZ_X XYZ_Y XYZ_Z LAB_L LAB_A LAB_B LAB_C LAB_H
END_DATA_FORMAT
NUMBER_OF_SETS 288
BEGIN_DATA
A1     2.92    2.44    1.87   17.65   10.79    1.46   10.89    7.72
A2     3.51    2.45    1.50   17.69   20.51    5.47   21.24   14.93
A3     4.90    2.97    1.55   19.92   30.42    8.83   31.67   16.17
A4     5.15    3.09    1.66   20.40   31.50    8.38   32.60   14.89
A5    10.28    8.82    6.70   35.65   14.53    2.45   14.74    9.59
A6    12.66    9.33    5.81   36.62   27.36    8.09   28.53   16.48
A7    15.38    9.77    4.93   37.42   40.93   13.85   43.22   18.71
A8    17.97   10.27    4.59   38.31   51.55   17.31   54.38   18.57
A9    39.07   37.96   29.98   67.99    8.02    2.06    8.27   14.41
A10   41.92   38.59   29.03   68.45   14.81    4.39   15.44   16.51
A11   45.19   39.31   28.09   68.97   22.17    6.82   23.19   17.10
A12   45.53   37.83   25.86   67.89   27.80    8.76   29.14   17.48
A13   75.23   78.00   67.55   90.78    0.09   -3.04    3.04  271.80
A14   75.51   77.70   67.51   90.65    1.26   -3.24    3.47  291.30
A15   75.37   78.04   64.72   90.79    0.32   -0.37    0.49  311.93
A16   74.21   76.71   64.30   90.19    0.56   -1.00    1.15  298.79
A17   74.94   77.26   64.71   90.44    1.00   -0.98    1.39  315.79
A18   74.78   77.60   65.01   90.60   -0.02   -0.98    0.98  268.65
A19   74.60   76.91   67.11   90.28    0.98   -3.49    3.63  285.65
A20    1.26    1.00    0.63    8.97   10.07    3.62   10.70   19.73
A21    4.59    2.78    0.69   19.12   29.74   19.90   35.79   33.79
A22    9.01    4.93    0.73   26.55   43.60   32.01   54.09   36.29
B1     2.80    2.45    1.47   17.68    8.40    5.87   10.25   34.95
B2     3.38    2.55    0.81   18.15   16.42   15.94   22.89   44.15
B3     4.14    2.78    0.75   19.14   23.62   18.90   30.26   38.67
B4     4.69    3.05    0.75   20.22   26.45   20.73   33.60   38.07
B5    10.77    9.24    4.99   36.44   14.83   11.89   19.01   38.72
B6    12.75    9.57    3.49   37.06   26.08   21.78   33.97   39.87
B7    15.10    9.74    2.12   37.38   39.51   33.01   51.49   39.88
B8    17.07   10.09    1.43   38.01   48.01   41.29   63.33   40.69
B9    39.08   38.35   27.85   68.28    6.84    6.01    9.09   41.33
B10   41.69   38.86   24.98   68.65   13.26   11.63   17.64   41.26
B11   45.10   40.03   22.92   69.49   19.67   16.89   25.92   40.65
B12   46.14   39.71   20.44   69.26   23.62   21.36   31.85   42.11
B13   66.28   71.59   65.68   87.77   -5.97   -6.48    8.81  227.35
B14   69.75   67.99   63.72   86.01    9.24   -7.66   12.01  320.33
B15   72.25   75.26   50.62   89.51   -0.62   11.93   11.95   92.96
B16   57.77   59.15   48.60   81.38    1.85    0.19    1.86    6.10
B17   66.41   65.40   48.63   84.69    7.61    5.87    9.61   37.62
B18   63.04   68.71   50.11   86.36   -7.17    7.07   10.07  135.40
B19   60.83   61.80   61.51   82.81    3.01  -11.04   11.44  285.29
B20    2.78    1.92    0.69   15.10   19.36   13.08   23.37   34.04
B21    7.84    4.41    0.73   24.98   39.98   29.41   49.64   36.34
B22   28.04   23.74   12.82   55.83   21.71   16.28   27.14   36.87
C1     3.72    3.51    1.99   21.97    5.36    7.63    9.32   54.92
C2     4.01    3.57    1.16   22.19    8.60   17.44   19.44   63.77
C3     4.68    3.86    0.93   23.18   13.50   22.82   26.51   59.39
C4     4.76    3.92    0.93   23.40   13.57   23.15   26.83   59.61
C5    21.26   20.36    9.33   52.25    7.97   20.93   22.40   69.17
C6    23.80   20.70    5.01   52.62   17.90   39.64   43.49   65.69
C7    25.09   20.39    2.29   52.28   24.98   57.18   62.40   66.40
C8    27.53   21.36    1.69   53.35   30.36   64.76   71.53   64.88
C9    45.75   46.01   30.15   73.56    4.01   11.38   12.06   70.58
C10   48.35   47.10   25.09   74.26    8.26   21.09   22.65   68.62
C11   51.43   48.54   21.23   75.17   12.59   29.95   32.49   67.19
C12   51.12   47.10   16.93   74.25   15.74   37.61   40.78   67.29
C13   55.81   63.53   62.85   83.71  -13.05  -10.77   16.92  219.55
C14   62.93   57.47   58.71   80.44   18.08  -12.32   21.88  325.76
C15   69.88   72.87   40.75   88.38   -0.75   21.85   21.86   91.94
C16   42.70   44.01   35.62   72.24    0.82    0.94    1.25   49.20
C17   57.92   53.89   37.05   78.40   15.05    9.57   17.83   32.44
C18   51.11   59.10   39.65   81.35  -14.90   11.15   18.60  143.18
C19   46.72   47.01   54.63   74.20    4.00  -18.85   19.26  281.99
C20    1.73    1.43    0.69   12.16    9.55    7.78   12.32   39.14
C21   21.67   16.26    4.99   47.32   31.09   30.62   43.65   44.57
C22   34.56   31.80   19.35   63.17   13.97   13.15   19.18   43.28
D1     3.43    3.51    2.05   21.99    0.76    7.18    7.22   83.91
D2     3.53    3.63    1.23   22.41    0.42   17.06   17.07   88.60
D3     3.86    3.86    1.00   23.17    2.14   21.53   21.64   84.32
D4     3.88    3.89    1.02   23.31    1.89   21.47   21.56   84.97
D5    24.19   25.46   12.32   57.52   -1.52   20.63   20.69   94.23
D6    23.41   24.90    6.93   56.99   -2.64   38.21   38.31   93.96
D7    24.50   26.08    3.65   58.11   -2.70   56.97   57.03   92.71
D8    23.44   24.47    2.11   56.56   -0.63   66.15   66.15   90.55
D9    52.31   54.81   34.69   78.93   -1.34   13.80   13.86   95.53
D10   54.53   56.83   29.05   80.08   -0.61   24.42   24.43   91.43
D11   54.65   57.66   23.81   80.54   -2.30   34.25   34.33   93.83
D12   55.67   58.76   19.92   81.16   -2.41   42.96   43.03   93.21
D13   46.65   55.89   59.65   79.55  -19.25  -14.80   24.28  217.55
D14   56.29   48.07   53.39   74.87   26.28  -16.36   30.96  328.10
D15   67.88   70.62   32.69   87.30   -0.41   31.17   31.17   90.76
D16   31.10   32.01   26.22   63.35    0.90    0.31    0.95   18.97
D17   50.21   44.00   27.81   72.24   21.99   12.90   25.49   30.39
D18   40.30   49.68   30.49   75.88  -22.12   14.85   26.65  146.14
D19   35.33   34.86   47.58   65.64    5.95  -25.76   26.44  283.02
D20   13.36   10.01    3.03   37.86   26.62   26.41   37.49   44.78
D21   21.74   20.88   12.93   52.83    7.72   10.81   13.28   54.47
D22   38.35   37.04   22.40   67.31    8.68   14.09   16.55   58.36
E1     3.16    3.55    2.10   22.08   -4.09    6.86    7.99  120.77
E2     2.86    3.50    1.29   21.94   -8.69   15.44   17.72  119.36
E3     3.06    3.91    1.10   23.38  -11.43   20.49   23.47  119.16
E4     3.04    3.95    1.11   23.49  -12.19   20.60   23.94  120.63
E5    10.82   12.33    6.50   41.73   -7.69   13.80   15.81  119.15
E6    10.22   12.77    4.49   42.42  -15.16   24.89   29.14  121.34
E7     9.46   13.01    2.60   42.76  -22.69   38.15   44.40  120.74
E8     9.44   13.67    1.92   43.75  -27.10   45.89   53.29  120.56
E9    34.64   37.80   24.70   67.88   -6.04   10.79   12.36  119.22
E10   34.08   38.51   21.73   68.39  -10.16   17.28   20.06  120.47
E11   33.85   39.51   18.69   69.12  -14.11   24.81   28.54  119.63
E12   32.86   39.95   15.56   69.43  -18.95   32.60   37.71  120.18
E13   39.77   49.76   56.62   75.92  -23.97  -17.97   29.95  216.87
E14   50.83   40.98   48.71   70.16   32.59  -19.26   37.86  329.41
E15   65.44   67.67   24.60   85.83    0.50   41.94   41.94   89.32
E16   22.88   23.54   18.85   55.62    0.83    1.21    1.48   55.11
E17   43.76   36.39   20.13   66.82   27.33   17.79   32.61   33.06
E18   31.72   41.60   22.99   70.59  -28.00   18.62   33.63  146.37
E19   27.38   26.64   41.71   58.63    7.00  -30.67   31.47  282.85
E20   22.01   14.90    1.29   45.50   40.53   55.89   69.04   54.06
E21   16.65   13.68    3.05   43.75   20.86   36.40   41.95   60.18
E22   28.59   24.85    8.76   56.93   19.09   31.03   36.44   58.40
F1     1.32    1.62    1.14   13.34   -6.99    2.57    7.44  159.79
F2     1.13    1.70    0.98   13.85  -15.09    5.95   16.22  158.49
F3     1.10    1.92    0.96   15.07  -21.44    8.36   23.02  158.70
F4     1.25    2.31    1.10   17.03  -25.06    9.59   26.83  159.05
F5     5.90    7.31    5.07   32.51  -11.98    4.68   12.87  158.66
F6     4.98    7.54    4.51   33.01  -25.01    8.61   26.45  161.01
F7     4.05    7.61    3.82   33.17  -38.08   12.94   40.22  161.23
F8     3.07    7.38    3.38   32.66  -51.16   14.98   53.31  163.67
F9    34.04   37.47   28.33   67.63   -7.02    4.10    8.13  149.74
F10   33.54   38.69   28.30   68.52  -12.66    5.71   13.89  155.72
F11   32.28   39.22   27.51   68.90  -18.76    7.68   20.28  157.75
F12   31.02   39.71   26.12   69.26  -24.87   10.68   27.06  156.76
F13   33.69   44.08   53.49   72.28  -28.30  -20.94   35.21  216.49
F14   46.13   35.19   44.50   65.90   38.11  -21.63   43.82  330.42
F15   63.86   65.65   20.00   84.82    1.37   49.10   49.11   88.41
F16   17.03   17.45   14.15   48.83    1.17    0.65    1.35   28.44
F17   38.93   30.85   15.24   62.39   31.72   21.20   38.15   33.77
F18   26.20   36.06   17.85   66.57  -31.97   22.26   38.96  145.15
F19   21.44   20.28   36.67   52.15    9.19  -35.14   36.33  284.65
F20   26.20   25.28   13.27   57.35    7.72   17.68   19.30   66.40
F21   33.32   30.78   11.66   62.32   13.30   30.85   33.60   66.69
F22   37.70   35.94   17.35   66.47   10.16   23.24   25.36   66.37
G1     1.97    2.40    2.31   17.49   -7.68   -3.00    8.25  201.32
G2     1.73    2.53    2.62   18.03  -15.77   -4.72   16.46  196.67
G3     1.60    2.78    2.97   19.14  -24.10   -5.46   24.71  192.76
G4     1.78    3.23    3.33   20.94  -27.06   -4.93   27.50  190.33
G5     7.99    9.69    8.34   37.28  -11.71   -1.34   11.78  186.53
G6     7.00    9.98    8.99   37.79  -23.27   -2.78   23.44  186.82
G7     5.72    9.85    9.24   37.58  -35.92   -4.03   36.15  186.40
G8     4.95   10.34   10.34   38.44  -48.79   -6.24   49.19  187.29
G9    33.47   37.05   29.71   67.31   -7.68    1.32    7.80  170.24
G10   32.30   37.67   31.36   67.78  -13.82   -0.46   13.83  181.90
G11   31.26   38.45   31.88   68.35  -20.03   -0.27   20.04  180.79
G12   30.30   39.56   33.86   69.15  -27.06   -1.85   27.12  183.90
G13   27.39   37.81   49.60   67.88  -32.84  -24.20   40.80  216.40
G14   39.71   27.90   38.48   59.79   45.33  -24.46   51.51  331.66
G15   61.42   62.36   14.06   83.10    3.11   59.97   60.05   87.03
G16   10.78   11.05    8.92   39.67    0.95    0.66    1.16   34.67
G17   32.65   23.99   10.15   56.08   37.82   24.76   45.21   33.22
G18   19.90   29.46   13.07   61.19  -37.21   24.84   44.74  146.27
G19   14.57   13.20   30.01   43.06   11.76  -40.97   42.63  286.02
G20   35.72   34.97   15.82   65.72    6.93   25.56   26.48   74.84
G21   34.07   33.24   10.15   64.35    7.18   39.06   39.71   79.59
G22   42.85   39.88    2.91   69.38   13.57   81.64   82.76   80.57
H1     2.15    2.43    2.82   17.62   -4.11   -6.93    8.06  239.32
H2     1.94    2.48    3.62   17.85   -9.83  -12.23   15.69  231.21
H3     1.73    2.44    4.67   17.64  -14.10  -18.82   23.52  233.15
H4     2.05    2.93    6.07   19.76  -15.64  -22.14   27.10  234.75
H5     8.58    9.76   10.30   37.40   -6.99   -7.87   10.52  228.40
H6     8.02   10.16   13.15   38.14  -15.02  -15.11   21.32  225.18
H7     7.10    9.95   16.74   37.76  -22.10  -24.86   33.26  228.36
H8     6.75   10.24   20.55   38.26  -27.76  -32.29   42.59  229.32
H9    34.19   37.40   32.76   67.58   -6.32   -2.93    6.97  204.90
H10   33.26   37.44   36.60   67.60   -9.66   -8.42   12.82  221.07
H11   33.68   39.23   44.12   68.92  -13.85  -15.96   21.14  229.04
H12   32.99   39.28   49.05   68.96  -16.42  -21.74   27.24  232.95
H13   22.35   32.49   45.90   63.74  -36.53  -27.04   45.44  216.51
H14   33.86   21.81   32.78   53.82   51.86  -26.69   58.33  332.77
H15   59.24   59.36   10.06   81.49    4.91   68.90   69.07   85.92
H16    6.82    6.94    5.60   31.67    1.35    0.59    1.47   23.78
H17   27.42   18.72    6.44   50.35   42.85   28.90   51.69   34.00
H18   14.82   23.74    8.97   55.82  -41.68   28.37   50.42  145.76
H19   10.39    8.80   24.94   35.60   15.52  -45.30   47.89  288.92
H20   40.11   41.15   16.21   70.29    1.37   32.47   32.49   87.59
H21   31.53   32.85   22.33   64.04   -0.44    8.60    8.60   92.99
H22   33.74   37.07   11.59   67.32   -6.78   39.68   40.25   99.71
I1     3.49    3.49    4.65   21.91    2.01  -11.33   11.51  280.02
I2     3.59    3.53    7.26   22.05    3.03  -23.42   23.61  277.37
I3     3.76    3.62   10.35   22.35    4.23  -34.03   34.29  277.08
I4     3.98    3.69   14.16   22.64    6.31  -44.57   45.01  278.06
I5    12.32   12.65   13.11   42.23    0.89   -7.97    8.01  276.40
I6    12.41   12.60   16.89   42.16    1.80  -17.62   17.71  275.82
I7    12.42   12.48   21.24   41.97    2.69  -27.31   27.45  275.62
I8    13.07   12.95   26.05   42.69    3.88  -35.03   35.24  276.33
I9    35.74   37.06   33.33   67.32    0.11   -4.22    4.22  271.43
I10   36.73   37.89   37.79   67.93    0.72   -9.49    9.52  274.32
I11   37.40   38.39   43.64   68.31    1.28  -16.41   16.46  274.46
I12   37.69   38.51   48.67   68.40    1.89  -22.27   22.35  274.85
I13   18.95   28.67   43.06   60.49  -38.99  -29.17   48.69  216.80
I14   30.41   18.50   29.36   50.10   55.51  -27.81   62.09  333.39
I15   57.64   57.22    7.96   80.30    6.17   74.29   74.54   85.25
I16    4.74    4.75    3.95   26.02    2.10   -0.19    2.12  354.75
I17   24.02   15.52    4.40   46.34   45.96   32.17   56.10   34.99
I18   11.95   20.24    6.84   52.12  -44.28   30.24   53.62  145.67
I19    7.76    6.07   21.14   29.59   19.43  -48.46   52.21  291.86
I20   40.72   44.97   17.15   72.87   -7.86   34.74   35.61  102.75
I21   11.40   15.30    4.01   46.04  -21.97   33.96   40.44  122.90
I22   27.99   35.99   18.44   66.52  -24.59   20.87   32.25  139.67
J1     1.83    1.66    2.60   13.59    5.69  -12.10   13.38  295.21
J2     2.05    1.64    4.16   13.51   11.46  -23.03   25.73  296.46
J3     2.55    1.73    7.22   13.99   19.79  -37.10   42.05  298.08
J4     2.88    1.75    9.98   14.11   25.43  -47.01   53.44  298.41
J5     9.90    9.51   10.52   36.95    5.90   -9.39   11.08  302.20
J6    10.64    9.57   13.83   37.07   11.09  -18.81   21.83  300.51
J7    11.17    9.41   17.76   36.76   16.37  -28.92   33.23  299.50
J8    12.03    9.74   21.06   37.38   19.86  -34.87   40.13  299.66
J9    37.30   37.90   34.01   67.95    2.51   -4.14    4.85  301.25
J10   38.53   38.31   38.16   68.24    5.20   -9.45   10.79  298.81
J11   40.18   38.57   43.57   68.44    9.54  -16.11   18.73  300.64
J12   40.92   38.49   48.72   68.38   12.11  -22.35   25.41  298.46
J13   13.80   22.40   37.69   54.44  -42.08  -32.61   53.24  217.77
J14   26.12   14.74   24.99   45.28   59.47  -28.72   66.04  334.23
J15   55.72   54.68    6.10   78.85    7.67   79.61   79.99   84.50
J16    2.48    2.53    2.18   18.03    0.88   -0.87    1.24  315.80
J17   20.05   12.07    2.70   41.32   49.17   34.85   60.28   35.33
J18    7.55   14.51    4.31   44.96  -48.84   30.35   57.50  148.14
J19    5.00    3.53   16.77   22.08   22.35  -51.98   56.58  293.27
J20   29.99   38.45   24.73   68.35  -24.78   11.55   27.34  155.01
J21    3.87    7.27    1.50   32.41  -37.40   30.86   48.49  140.47
J22    1.02    1.62    0.83   13.38  -16.91    7.36   18.43  156.48
K1     4.34    3.65    4.22   22.48   12.05   -7.89   14.40  326.78
K2     5.39    3.72    6.27   22.74   24.16  -17.95   30.09  323.39
K3     6.84    4.01    8.94   23.69   35.83  -26.95   44.83  323.05
K4     8.10    4.22   12.03   24.39   44.95  -35.67   57.39  321.56
K5    13.73   12.52   12.82   42.03   10.99   -7.50   13.31  325.70
K6    15.48   12.42   16.03   41.88   22.33  -16.08   27.52  324.24
K7    17.56   12.60   19.89   42.15   32.77  -24.24   40.76  323.51
K8    20.50   13.16   25.40   43.00   44.14  -33.35   55.31  322.92
K9    38.85   38.19   33.59   68.16    6.62   -3.16    7.34  334.43
K10   41.50   38.49   37.36   68.39   13.81   -8.12   16.02  329.53
K11   45.18   39.83   43.61   69.35   20.52  -14.59   25.17  324.59
K12   47.54   39.98   47.33   69.46   26.72  -18.88   32.71  324.75
K13   11.60   19.44   34.81   51.19  -42.75  -34.18   54.74  218.64
K14   21.75   11.33   20.48   40.13   62.49  -28.95   68.86  335.15
K15   48.19   45.22    2.88   73.04   13.09   88.12   89.09   81.56
K16    1.23    1.26    1.01   11.01    0.37    0.46    0.59   50.94
K17   16.66    9.47    1.34   36.88   50.60   40.53   64.83   38.68
K18    4.55    9.63    2.16   37.18  -48.56   32.32   58.33  146.35
K19    3.32    2.00   13.01   15.48   26.92  -53.79   60.15  296.58
K20    2.27    2.92    2.02   19.72  -10.63    3.51   11.19  161.76
K21    1.18    1.58    1.50   13.10  -10.07   -2.41   10.35  193.48
K22    1.53    1.91    2.98   15.02   -8.13  -12.63   15.02  237.23
L1     3.19    2.62    2.44   18.44   12.05   -2.55   12.32  348.05
L2     3.90    2.68    2.63   18.74   22.03   -3.51   22.31  350.95
L3     5.35    3.18    3.45   20.74   32.39   -6.15   32.97  349.23
L4     5.95    3.44    4.12   21.71   35.16   -8.68   36.21  346.14
L5    11.33    9.65    8.84   37.19   15.65   -3.30   15.99  348.09
L6    14.10   10.26   10.15   38.31   29.42   -5.85   29.99  348.77
L7    16.92   10.34   10.90   38.46   45.24   -7.98   45.94  350.00
L8    19.09   11.00   11.82   39.59   51.87   -8.83   52.61  350.34
L9    40.03   38.84   32.66   68.64    8.26   -0.97    8.31  353.33
L10   42.48   39.14   33.69   68.85   14.76   -2.11   14.91  351.88
L11   45.91   39.83   34.54   69.35   22.58   -2.49   22.72  353.72
L12   47.49   39.26   35.72   68.93   28.81   -4.89   29.22  350.35
L13    8.01   13.88   28.81   44.06  -40.72  -37.31   55.24  222.50
L14   17.24    8.29   16.05   34.58   63.72  -28.71   69.89  335.74
L15   44.73   41.12    2.38   70.26   15.32   87.41   88.74   80.06
L16    0.49    0.50    0.57    4.45    0.51   -3.03    3.07  279.58
L17   12.96    6.90    0.78   31.57   51.12   39.65   64.70   37.79
L18    2.82    6.58    1.54   30.83  -47.76   27.69   55.21  149.89
L19    2.01    0.96    9.02    8.65   31.29  -53.17   61.69  300.47
L20    0.67    0.78    0.76    7.01   -2.97   -2.34    3.79  218.27
L21    0.88    0.80    0.88    7.30    4.45   -3.99    5.97  318.18
L22    2.07    1.62    1.48   13.36   12.39   -1.71   12.50  352.15
GS0    76.40   78.94   68.19   91.21    0.62   -2.89    2.96  282.16
GS1    71.05   73.04   61.71   88.46    1.40   -1.48    2.03  313.54
GS2    59.26   60.75   50.81   82.24    1.72   -0.81    1.90  335.00
GS3    50.76   52.03   42.85   77.29    1.66    0.06    1.66  182.24
GS4    44.88   46.40   37.51   73.80    0.48    1.01    1.12   64.44
GS5    38.40   39.65   32.39   69.21    0.61    0.44    0.75   36.13
GS6    32.64   33.80   27.15   64.80    0.21    1.19    1.22   80.68
GS7    28.47   29.51   23.66   61.23    0.09    1.24    1.24   85.23
GS8    24.53   25.35   20.60   57.41    0.44    0.61    0.76   53.93
GS9    21.13   21.92   17.80   53.93    0.07    0.61    0.62   79.88
GS10   18.31   19.05   15.58   50.74   -0.22    0.30    0.38  127.29
GS11   14.43   14.91   12.35   45.51    0.34   -0.17    0.40  333.71
GS12   11.58   12.01    9.90   41.22    0.08   -0.01    0.20  195.96
GS13    9.04    9.34    7.78   36.62    0.34   -0.31    0.48  323.60
GS14    7.39    7.61    6.18   33.17    0.47    0.44    0.65   42.50
GS15    5.92    6.02    4.82   29.45    1.32    0.76    1.52   30.40
GS16    4.62    4.69    3.76   25.85    1.27    0.67    1.44   27.83
GS17    3.43    3.50    2.93   21.94    0.81   -0.37    0.88  335.38
GS18    2.40    2.49    2.14   17.86    0.16   -0.85    0.86  279.72
GS19    1.70    1.77    1.43   14.22    0.05    0.26    0.31   71.29
GS20    1.18    1.22    0.92   10.74    0.07    1.42    1.42   87.22
GS21    0.99    1.02    0.74    9.16    0.05    1.85    1.85   88.60
GS22    0.78    0.79    0.63    7.11    0.76    0.39    0.86   26.92
GS23    0.44    0.44    0.53    4.03    0.49   -3.14    3.17  278.83
END_DATA
