lprof/data/targets/Agfa/Reflective/C81229XX.it8
IT8.7/2
ORIGINATOR "FotoTune"
DESCRIPTOR "Agfa IT8"
MATERIAL "Agfacolor"
MANUFACTURER "Agfa"
CREATED "Mon Apr 12 10:14:20 1999"
PROD_DATE "1999:04"
SERIAL "5x7 c81229xx"
NUMBER_OF_FIELDS 9
BEGIN_DATA_FORMAT
SAMPLE_ID XYZ_X XYZ_Y XYZ_Z LAB_L LAB_A LAB_B LAB_C LAB_H
END_DATA_FORMAT
NUMBER_OF_SETS 288
BEGIN_DATA
A1     3.18    2.62    2.03   18.48   11.74    1.27   11.81    6.19
A2     3.81    2.61    1.59   18.39   22.05    5.66   22.76   14.42
A3     5.08    3.01    1.62   20.10   31.85    8.27   32.92   14.55
A4     5.27    3.11    1.74   20.47   32.56    7.59   33.43   13.12
A5    11.12    9.70    7.59   37.31   13.66    1.59   13.76    6.63
A6    13.42   10.01    6.57   37.85   27.03    6.82   27.88   14.15
A7    15.77   10.10    5.65   38.02   40.66   11.27   42.19   15.49
A8    18.13   10.38    5.19   38.51   51.54   14.40   53.52   15.60
A9    40.93   39.96   33.04   69.44    7.55   -0.14    7.56  178.95
A10   43.53   40.61   31.93   69.90   13.35    2.32   13.55    9.89
A11   46.88   41.27   30.77   70.37   20.95    4.91   21.53   13.19
A12   47.15   39.75   28.69   69.29   26.33    6.38   27.09   13.61
A13   75.06   77.80   67.43   90.69    0.14   -3.09    3.09  272.70
A14   75.28   77.54   67.32   90.57    1.11   -3.18    3.38  289.17
A15   75.24   77.85   65.43   90.71    0.41   -1.18    1.25  289.46
A16   74.28   76.76   65.06   90.21    0.60   -1.69    1.80  289.54
A17   74.94   77.24   65.41   90.43    1.00   -1.63    1.92  301.44
A18   74.76   77.54   65.60   90.57    0.06   -1.59    1.60  272.44
A19   74.41   76.78   67.06   90.22    0.86   -3.55    3.66  283.54
A20    1.28    1.00    0.59    8.96   10.89    4.31   11.71   21.58
A21    4.70    2.82    0.65   19.29   30.62   20.83   37.03   34.22
A22    8.91    4.85    0.68   26.28   43.88   32.47   54.58   36.50
B1     3.04    2.64    1.53   18.53    9.12    6.53   11.22   35.62
B2     3.64    2.72    0.78   18.88   17.47   17.83   24.96   45.57
B3     4.43    2.93    0.71   19.78   24.76   20.78   32.32   40.00
B4     4.96    3.18    0.70   20.77   27.51   22.56   35.57   39.36
B5    11.48   10.01    5.73   37.86   13.81   10.61   17.42   37.54
B6    13.47   10.27    3.94   38.32   25.30   21.09   32.94   39.83
B7    15.62   10.16    2.25   38.14   39.27   33.13   51.38   40.15
B8    17.23   10.28    1.48   38.35   47.43   41.29   62.89   41.04
B9    40.69   40.12   30.15   69.56    6.31    4.49    7.74   35.43
B10   42.81   40.37   27.26   69.74   11.95    9.51   15.27   38.50
B11   46.42   41.61   24.78   70.60   18.62   15.34   24.14   39.47
B12   47.33   41.25   22.35   70.35   22.30   19.44   29.58   41.10
B13   66.32   71.58   65.57   87.77   -5.85   -6.39    8.66  227.53
B14   70.10   68.74   63.94   86.37    8.39   -7.25   11.09  319.17
B15   72.68   75.67   53.17   89.71   -0.53    9.47    9.48   93.21
B16   58.78   60.47   51.43   82.09    1.20   -1.77    2.14  304.27
B17   67.21   66.51   50.90   85.25    6.95    4.30    8.17   31.69
B18   63.60   69.25   52.40   86.62   -7.03    4.98    8.62  144.71
B19   61.39   62.75   61.91   83.31    2.13  -10.56   10.77  281.42
B20    2.96    2.01    0.65   15.56   20.52   14.53   25.15   35.31
B21    7.78    4.35    0.68   24.80   40.32   29.91   50.20   36.57
B22   28.99   24.78   14.02   56.86   20.92   14.85   25.65   35.38
C1     4.11    3.88    2.18   23.27    5.41    8.11    9.75   56.33
C2     4.48    3.99    1.20   23.61    9.00   19.47   21.44   65.18
C3     5.20    4.29    0.89   24.60   13.92   25.69   29.23   61.55
C4     5.24    4.31    0.89   24.67   14.16   25.90   29.52   61.33
C5    22.49   21.71   10.51   53.72    7.34   19.53   20.87   69.43
C6    24.90   21.94    5.56   53.97   16.82   39.24   42.68   66.80
C7    26.08   21.51    2.38   53.49   23.87   58.52   63.20   67.81
C8    28.19   22.21    1.67   54.25   29.09   66.54   72.62   66.38
C9    47.10   47.72   33.26   74.65    3.08    8.51    9.06   70.10
C10   49.96   49.04   27.57   75.48    7.35   18.90   20.28   68.75
C11   52.58   50.21   23.11   76.19   11.17   28.07   30.21   68.31
C12   52.39   48.84   18.78   75.35   14.30   35.35   38.13   67.98
C13   56.59   64.11   63.06   84.02  -12.46  -10.45   16.26  219.97
C14   63.83   58.99   59.39   81.28   16.50  -11.56   20.15  324.98
C15   70.29   73.33   43.52   88.60   -0.83   18.72   18.74   92.54
C16   44.47   45.94   38.56   73.51    0.52   -0.91    1.06  300.21
C17   59.24   55.58   40.00   79.37   14.03    7.28   15.82   27.43
C18   52.33   60.21   42.15   81.96  -14.31    8.96   16.89  147.96
C19   47.98   48.57   55.35   75.18    3.24  -17.92   18.21  280.27
C20    1.84    1.49    0.67   12.54   10.41    8.94   13.72   40.67
C21   22.57   17.20    5.70   48.51   30.08   29.17   41.90   44.13
C22   35.82   33.24   20.90   64.35   13.11   11.96   17.74   42.36
D1     3.83    3.94    2.24   23.47    0.54    7.95    7.97   86.19
D2     3.90    4.07    1.25   23.88   -0.21   19.17   19.17   90.63
D3     4.28    4.30    0.99   24.64    2.00   24.39   24.47   85.29
D4     4.36    4.39    0.99   24.94    1.67   24.75   24.81   86.15
D5    25.47   26.87   13.44   58.86   -1.80   19.80   19.88   95.20
D6    24.90   26.58    7.77   58.58   -3.03   37.58   37.70   94.62
D7    25.66   27.45    3.86   59.39   -3.31   57.90   58.00   93.28
D8    24.26   25.22    2.01   57.28   -0.18   68.32   68.32   90.15
D9    53.47   56.25   37.82   79.76   -1.87   10.85   11.01   99.76
D10   55.79   58.35   31.61   80.93   -1.12   21.83   21.86   92.92
D11   55.77   58.99   25.91   81.29   -2.68   31.76   31.87   94.82
D12   56.25   59.60   21.58   81.62   -2.95   40.38   40.48   94.18
D13   47.57   56.64   59.92   79.98  -18.54  -14.34   23.44  217.71
D14   57.28   49.62   54.29   75.84   24.53  -15.66   29.10  327.45
D15   68.25   71.13   35.40   87.55   -0.68   27.66   27.66   91.40
D16   32.59   33.71   28.39   64.72    0.38   -0.99    1.06  291.60
D17   51.42   45.53   30.15   73.24   20.85   10.84   23.50   27.48
D18   41.60   50.90   32.78   76.62  -21.36   12.62   24.81  149.42
D19   36.64   36.51   48.52   66.91    4.84  -24.65   25.12  281.11
D20   14.11   10.73    3.39   39.12   25.92   26.03   36.74   45.12
D21   22.99   22.28   14.36   54.33    6.95    9.55   11.81   53.95
D22   39.58   38.51   24.02   68.39    7.90   12.93   15.15   58.57
E1     3.45    3.91    2.28   23.36   -4.84    7.34    8.80  123.35
E2     3.09    3.83    1.29   23.10   -9.79   17.39   19.95  119.39
E3     3.30    4.26    1.06   24.52  -12.22   23.03   26.08  117.93
E4     3.29    4.28    1.07   24.60  -12.74   23.04   26.33  118.93
E5    11.73   13.38    7.32   43.33   -7.98   13.07   15.31  121.40
E6    11.03   13.83    4.94   43.98  -15.73   25.17   29.68  122.01
E7    10.32   14.08    2.70   44.35  -22.71   40.00   46.00  119.58
E8    10.14   14.44    1.86   44.85  -26.25   48.43   55.09  118.46
E9    36.22   39.55   26.88   69.15   -6.22    9.16   11.08  124.17
E10   35.56   40.18   23.65   69.60  -10.36   15.70   18.81  123.42
E11   35.14   41.04   20.26   70.21  -14.36   23.37   27.43  121.58
E12   34.13   41.35   16.95   70.42  -18.73   30.95   36.17  121.18
E13   40.52   50.43   56.90   76.33  -23.41  -17.54   29.26  216.84
E14   51.96   42.58   49.85   71.28   30.76  -18.64   35.97  328.78
E15   65.66   68.05   26.33   86.03    0.18   39.20   39.20   89.75
E16   24.19   25.05   20.47   57.12    0.23    0.36    0.45   49.03
E17   44.98   37.94   21.90   67.97   25.87   16.23   30.55   32.10
E18   32.75   42.63   24.74   71.31  -27.39   16.63   32.05  148.74
E19   28.36   27.88   42.59   59.78    5.97  -29.83   30.42  281.31
E20   22.39   15.36    1.26   46.12   39.58   57.49   69.79   55.44
E21   17.35   14.47    3.26   44.90   19.81   36.83   41.82   61.72
E22   29.60   26.03    9.64   58.07   18.08   29.92   34.96   58.86
F1     1.36    1.68    1.15   13.73   -7.41    3.15    8.06  156.95
F2     1.17    1.81    0.97   14.45  -16.26    7.15   17.76  156.24
F3     1.16    2.09    0.95   15.94  -23.16    9.85   25.17  156.96
F4     1.31    2.49    1.09   17.85  -26.80   11.11   29.01  157.49
F5     6.47    8.01    5.73   34.01  -12.40    3.97   13.02  162.26
F6     5.37    8.16    5.05   34.32  -25.90    7.91   27.08  163.00
F7     4.37    8.20    4.30   34.40  -39.03   12.22   40.89  162.62
F8     3.16    7.58    3.62   33.10  -51.61   14.10   53.50  164.72
F9    35.56   39.19   31.03   68.88   -7.28    1.96    7.55  165.00
F10   35.01   40.38   30.42   69.74  -12.82    4.38   13.55  161.15
F11   33.78   40.81   29.85   70.04  -18.34    5.82   19.24  162.40
F12   32.28   41.11   28.34   70.26  -24.56    8.61   26.02  160.67
F13   34.47   44.80   53.85   72.76  -27.68  -20.48   34.43  216.50
F14   47.15   36.62   45.56   66.99   36.24  -21.03   41.90  329.86
F15   64.01   65.96   21.47   84.97    0.99   46.38   46.39   88.78
F16   18.14   18.69   15.48   50.32    0.62   -0.15    0.68  164.79
F17   39.97   32.18   16.68   63.49   30.26   19.65   36.08   33.00
F18   27.08   37.00   19.21   67.28  -31.49   20.52   37.58  146.90
F19   22.35   21.42   37.53   53.41    7.98  -34.18   35.10  283.15
F20   27.27   26.51   14.41   58.53    7.05   16.65   18.08   67.04
F21   34.33   32.07   12.91   63.40   12.21   29.10   31.57   67.25
F22   38.47   37.03   18.59   67.30    9.09   21.89   23.70   67.43
G1     2.12    2.62    2.55   18.44   -8.55   -3.43    9.21  201.89
G2     1.88    2.80    2.91   19.24  -17.29   -4.84   17.95  195.62
G3     1.75    3.10    3.42   20.40  -25.67   -6.53   26.49  194.26
G4     1.91    3.50    3.78   21.95  -28.28   -6.16   28.94  192.28
G5     8.93   10.82    9.47   39.28  -12.09   -1.90   12.24  188.93
G6     7.65   10.88   10.08   39.38  -23.82   -3.78   24.11  189.01
G7     6.21   10.66   10.46   39.00  -36.60   -5.66   37.04  188.79
G8     5.24   10.82   11.39   39.28  -48.79   -8.09   49.46  189.42
G9    35.28   39.03   32.40   68.78   -7.77   -0.31    7.78  182.29
G10   34.07   39.67   34.20   69.24  -13.85   -2.20   14.02  189.03
G11   32.98   40.32   35.08   69.70  -19.67   -2.66   19.85  187.73
G12   31.77   41.10   36.57   70.25  -26.37   -3.83   26.65  188.25
G13   28.42   38.87   50.26   68.65  -32.07  -23.62   39.83  216.37
G14   40.84   29.31   39.74   61.06   43.43  -23.96   49.61  331.12
G15   61.78   62.96   15.39   83.43    2.55   57.14   57.19   87.44
G16   11.82   12.15   10.11   41.46    0.71   -0.33    0.79  335.21
G17   33.70   25.22   11.51   57.30   36.32   22.64   42.80   31.94
G18   20.84   30.55   14.32   62.12  -36.61   23.11   43.29  147.74
G19   15.73   14.44   31.22   44.85   10.95  -39.76   41.24  285.39
G20   36.97   36.49   17.12   66.89    6.00   24.49   25.22   76.22
G21   35.31   34.76   11.12   65.57    6.19   38.07   38.57   80.77
G22   43.32   40.50    2.89   69.82   13.07   82.51   83.54   81.00
H1     2.32    2.64    3.15   18.53   -4.40   -7.80    8.95  240.60
H2     2.18    2.80    4.22   19.26  -10.64  -13.51   17.19  231.78
H3     1.90    2.72    5.32   18.86  -15.18  -20.07   25.16  232.91
H4     2.28    3.30    6.90   21.20  -16.90  -23.35   28.83  234.09
H5     9.49   10.78   11.48   39.21   -7.11   -8.47   11.06  229.98
H6     8.84   11.16   14.62   39.85  -15.23  -16.08   22.15  226.57
H7     7.76   10.88   18.45   39.37  -22.76  -25.94   34.51  228.74
H8     7.31   11.03   22.26   39.63  -28.15  -33.35   43.64  229.85
H9    35.72   39.10   35.43   68.83   -6.48   -4.68    7.98  215.76
H10   35.18   39.56   39.60   69.16   -9.72   -9.82   13.82  225.29
H11   35.19   40.92   46.37   70.11  -13.81  -16.60   21.60  230.26
H12   34.35   40.83   50.38   70.06  -16.44  -21.34   26.94  232.39
H13   23.51   33.75   46.82   64.76  -35.69  -26.38   44.39  216.46
H14   34.83   22.92   33.97   54.99   50.12  -26.41   56.65  332.22
H15   59.56   59.97   11.16   81.82    4.26   65.94   66.09   86.31
H16    7.56    7.70    6.34   33.35    1.27    0.09    1.27    3.85
H17   28.15   19.53    7.31   51.30   41.65   26.85   49.56   32.81
H18   15.80   24.89   10.01   56.96  -40.87   26.77   48.85  146.77
H19   11.14    9.58   25.85   37.08   14.71  -44.35   46.72  288.35
H20   41.34   42.67   17.72   71.32    0.66   30.77   30.77   88.77
H21   32.89   34.40   23.95   65.27   -0.93    7.66    7.72   96.93
H22   34.94   38.45   12.57   68.35   -7.06   38.60   39.24  100.37
I1     3.82    3.82    5.18   23.06    2.11  -12.14   12.32  279.83
I2     3.88    3.82    8.06   23.09    2.93  -24.73   24.90  276.77
I3     4.06    3.94   11.33   23.48    3.73  -35.15   35.35  276.06
I4     4.28    4.06   15.24   23.88    5.14  -45.18   45.47  276.50
I5    13.35   13.79   14.34   43.93    0.31   -8.31    8.32  272.15
I6    13.66   13.91   18.78   44.11    1.56  -18.49   18.56  274.83
I7    13.64   13.75   23.25   43.88    2.47  -27.92   28.03  275.05
I8    14.19   14.15   28.01   44.44    3.49  -35.34   35.51  275.65
I9    37.33   38.83   35.86   68.63   -0.34   -5.62    5.63  266.51
I10   38.21   39.60   40.51   69.18    0.13  -10.95   10.96  270.71
I11   38.88   40.10   45.68   69.54    0.73  -16.77   16.79  272.48
I12   39.06   40.21   50.04   69.62    1.00  -21.73   21.74  272.65
I13   19.62   29.44   43.57   61.17  -38.49  -28.63   47.97  216.64
I14   31.05   19.24   30.22   50.96   54.15  -27.68   60.82  332.92
I15   57.85   57.65    8.66   80.54    5.62   72.10   72.31   85.54
I16    5.18    5.23    4.40   27.35    1.90   -0.56    1.99  343.58
I17   24.56   16.11    4.95   47.11   44.92   30.49   54.29   34.16
I18   12.54   20.97    7.31   52.92  -43.69   29.65   52.81  145.83
I19    8.27    6.61   21.89   30.90   18.44  -47.68   51.12  291.15
I20   41.80   46.22   18.57   73.68   -8.10   32.94   33.93  103.82
I21   12.18   16.27    4.28   47.33  -22.11   34.56   41.03  122.61
I22   29.07   37.22   19.69   67.45  -24.37   19.80   31.40  140.91
J1     1.91    1.71    2.87   13.89    6.54  -13.77   15.24  295.41
J2     2.20    1.72    4.68   13.94   12.85  -25.22   28.30  297.00
J3     2.72    1.80    7.79   14.42   21.05  -38.64   44.00  298.58
J4     2.97    1.76   10.40   14.19   26.71  -48.25   55.14  298.97
J5    11.06   10.71   12.00   39.08    5.53  -10.22   11.61  298.42
J6    11.71   10.64   15.32   38.97   10.73  -19.34   22.12  299.03
J7    12.32   10.46   19.75   38.65   16.31  -29.97   34.13  298.56
J8    13.12   10.70   22.87   39.07   19.80  -35.47   40.63  299.16
J9    39.38   40.19   37.08   69.60    2.03   -5.62    5.98  289.80
J10   40.32   40.19   41.07   69.61    4.95  -10.93   12.01  294.37
J11   41.47   40.19   45.75   69.60    8.47  -16.74   18.76  296.83
J12   42.35   40.28   49.90   69.67   10.88  -21.47   24.07  296.87
J13   14.34   23.08   38.25   55.15  -41.81  -32.14   52.74  217.55
J14   26.57   15.23   25.69   45.94   58.44  -28.80   65.15  333.77
J15   55.97   55.13    6.53   79.12    7.18   78.09   78.42   84.75
J16    2.66    2.70    2.41   18.81    1.06   -1.60    1.91  303.51
J17   20.17   12.22    2.93   41.56   48.77   33.47   59.15   34.46
J18    7.86   14.97    4.60   45.60  -48.69   29.80   57.10  148.54
J19    5.22    3.74   17.17   22.81   21.91  -51.65   56.10  292.98
J20   31.17   39.75   26.37   69.29  -24.42   10.28   26.50  157.18
J21    4.11    7.64    1.47   33.21  -37.49   32.66   49.72  138.93
J22    1.07    1.74    0.81   14.03  -17.97    9.01   20.10  153.36
K1     4.84    4.02    4.85   23.74   13.10   -9.27   16.05  324.73
K2     5.89    4.02    7.02   23.74   25.71  -19.47   32.25  322.86
K3     7.25    4.18    9.65   24.26   37.52  -28.38   47.04  322.89
K4     8.31    4.26   12.46   24.51   46.28  -36.68   59.04  321.60
K5    15.09   13.93   14.60   44.12   10.36   -8.65   13.51  320.12
K6    16.81   13.68   17.90   43.76   21.73  -17.15   27.68  321.72
K7    18.93   13.75   22.02   43.87   32.58  -25.58   41.43  321.86
K8    21.54   14.03   26.69   44.28   43.58  -33.40   54.91  322.54
K9    41.02   40.61   37.01   69.90    5.85   -5.03    7.72  319.24
K10   43.71   40.94   40.79   70.14   12.90   -9.67   16.12  323.14
K11   46.88   41.90   46.18   70.80   19.06  -15.19   24.38  321.44
K12   49.10   42.04   49.25   70.90   24.73  -18.61   30.94  323.04
K13   11.97   19.95   35.32   51.78  -42.69  -33.89   54.51  218.44
K14   21.67   11.34   20.62   40.14   62.04  -29.20   68.57  334.79
K15   48.08   45.15    2.77   72.99   12.97   88.87   89.81   81.70
K16    1.29    1.33    1.02   11.47    0.37    1.12    1.18   71.53
K17   16.74    9.57    1.36   37.06   50.24   40.65   64.62   38.97
K18    4.70    9.86    2.14   37.59  -48.28   33.19   58.58  145.49
K19    3.42    2.08   13.26   15.90   26.81  -53.76   60.08  296.51
K20    2.44    3.18    2.14   20.74  -11.62    4.11   12.33  160.54
K21    1.25    1.70    1.55   13.83  -10.99   -1.77   11.14  189.18
K22    1.69    2.13    3.40   16.18   -8.91  -13.65   16.30  236.86
L1     3.43    2.78    2.66   19.17   12.98   -3.11   13.34  346.54
L2     4.23    2.85    2.96   19.43   23.60   -4.91   24.10  348.26
L3     5.52    3.22    3.75   20.88   33.68   -7.81   34.58  346.94
L4     6.18    3.51    4.54   21.99   36.48  -10.60   37.99  343.79
L5    12.12   10.47    9.92   38.67   14.89   -4.48   15.55  343.27
L6    14.84   10.86   11.19   39.35   29.40   -7.35   30.31  345.96
L7    17.42   10.67   11.83   39.02   45.57   -9.84   46.62  347.81
L8    19.18   11.05   12.56   39.65   52.08  -10.86   53.19  348.22
L9    41.68   40.64   35.31   69.92    7.74   -2.62    8.17  341.32
L10   43.85   40.79   36.34   70.04   13.72   -3.87   14.25  344.23
L11   47.25   41.49   37.25   70.51   21.33   -4.31   21.76  348.59
L12   48.96   41.00   38.46   70.18   27.49   -6.52   28.26  346.65
L13    7.94   13.81   28.62   43.94  -40.81  -37.21   55.22  222.36
L14   16.83    8.08   15.79   34.15   63.29  -28.82   69.54  335.52
L15   44.18   40.60    2.24   69.89   15.32   87.93   89.26   80.12
L16    0.45    0.45    0.52    4.13    0.66   -2.62    2.70  284.22
L17   12.65    6.71    0.73   31.14   50.94   39.93   64.73   38.09
L18    2.82    6.55    1.45   30.76  -47.57   28.58   55.49  149.01
L19    1.95    0.92    8.85    8.27   31.70  -53.20   61.93  300.80
L20    0.67    0.76    0.74    6.90   -2.91   -2.10    3.59  215.71
L21    0.88    0.78    0.86    7.06    4.90   -3.82    6.21  322.09
L22    2.12    1.63    1.49   13.41   13.50   -1.75   13.61  352.59
GS0    76.08   78.62   67.98   91.07    0.62   -2.95    3.01  281.79
GS1    71.11   73.22   62.65   88.56    1.14   -2.24    2.52  297.08
GS2    60.79   62.40   53.71   83.12    1.57   -2.48    2.93  302.55
GS3    52.29   53.82   46.15   78.36    1.09   -2.15    2.42  297.29
GS4    46.88   48.57   40.55   75.18    0.18   -0.65    0.74  292.62
GS5    40.46   41.93   35.18   70.82    0.12   -0.87    0.88  278.55
GS6    34.61   35.94   29.82   66.47   -0.11   -0.29    0.32  251.92
GS7    30.46   31.74   26.36   63.13   -0.49   -0.33    0.61  211.30
GS8    26.00   27.03   22.45   59.00   -0.16   -0.34    0.37  244.26
GS9    22.65   23.58   19.65   55.66   -0.31   -0.45    0.54  233.52
GS10   19.79   20.67   17.30   52.58   -0.68   -0.60    0.90  221.89
GS11   15.94   16.56   14.03   47.71   -0.11   -1.00    1.00  263.47
GS12   12.85   13.41   11.24   43.38   -0.48   -0.55    0.73  226.79
GS13   10.23   10.59    8.95   38.89    0.11   -0.76    0.78  280.04
GS14    8.42    8.70    7.11   35.41    0.23    0.28    0.36   50.00
GS15    6.83    7.00    5.67   31.81    0.84    0.49    0.98   29.36
GS16    5.31    5.42    4.39   27.91    1.00    0.41    1.09   23.31
GS17    3.82    3.93    3.36   23.42    0.64   -0.79    1.04  309.23
GS18    2.61    2.70    2.29   18.78    0.12   -0.56    0.58  282.23
GS19    1.82    1.88    1.50   14.85    0.17    0.51    0.54   71.65
GS20    1.25    1.29    0.91   11.18    0.39    2.34    2.37   80.58
GS21    1.02    1.05    0.70    9.42    0.39    2.88    2.91   82.30
GS22    0.81    0.81    0.60    7.36    1.08    1.34    1.73   50.95
GS23    0.44    0.44    0.51    3.99    0.54   -2.70    2.76  281.36
END_DATA
