lprof/data/targets/Agfa/Reflective/C81235XX.it8
IT8.7/2
ORIGINATOR "FotoTune"
DESCRIPTOR "Agfa IT8"
MATERIAL "Agfacolor"
MANUFACTURER "Agfa"
CREATED "Mon Apr 12 11:35:07 1999"
PROD_DATE "1999:04"
SERIAL "5x7 c81235xx"
NUMBER_OF_FIELDS 9
BEGIN_DATA_FORMAT
SAMPLE_ID XYZ_X XYZ_Y XYZ_Z LAB_L LAB_A LAB_B LAB_C LAB_H
END_DATA_FORMAT
NUMBER_OF_SETS 288
BEGIN_DATA
A1     3.33    2.78    2.12   19.15   11.35    1.57   11.46    7.88
A2     3.95    2.74    1.66   18.96   21.58    5.81   22.35   15.06
A3     5.20    3.12    1.69   20.53   31.49    8.27   32.55   14.71
A4     5.44    3.24    1.83   20.96   32.50    7.55   33.36   13.08
A5    11.51   10.10    8.01   38.02   13.40    1.17   13.45    5.01
A6    13.86   10.40    6.82   38.54   26.88    6.91   27.74   14.43
A7    16.39   10.59    5.95   38.88   40.47   11.31   42.02   15.60
A8    18.83   10.90    5.51   39.40   51.32   14.37   53.29   15.64
A9    41.59   40.72   33.47   69.98    7.26    0.13    7.27  181.08
A10   44.04   41.00   32.21   70.18   13.68    2.38   13.89    9.86
A11   47.26   41.59   30.89   70.59   21.05    5.11   21.67   13.67
A12   47.61   40.16   28.81   69.58   26.36    6.69   27.20   14.25
A13   75.59   78.30   67.90   90.92    0.25   -3.13    3.14  274.54
A14   75.93   78.19   67.71   90.87    1.14   -3.04    3.24  290.65
A15   75.76   78.35   65.83   90.93    0.52   -1.17    1.28  293.86
A16   74.88   77.39   65.51   90.50    0.58   -1.62    1.73  289.73
A17   75.48   77.82   65.74   90.70    0.96   -1.49    1.76  302.72
A18   75.38   78.10   66.07   90.83    0.19   -1.58    1.59  277.00
A19   75.10   77.48   67.59   90.54    0.86   -3.49    3.59  283.77
A20    1.40    1.10    0.63    9.75   11.06    4.76   12.04   23.28
A21    5.01    3.03    0.72   20.15   30.78   21.19   37.36   34.53
A22    9.27    5.07    0.73   26.92   44.04   32.67   54.84   36.56
B1     3.21    2.82    1.62   19.33    8.63    6.89   11.04   38.54
B2     3.83    2.91    0.87   19.65   16.95   17.66   24.48   46.17
B3     4.57    3.07    0.77   20.30   24.49   20.38   31.86   39.75
B4     5.11    3.32    0.78   21.30   27.07   22.02   34.89   39.12
B5    11.97   10.48    6.03   38.68   13.72   10.65   17.37   37.82
B6    13.93   10.70    4.11   39.07   25.06   21.33   32.90   40.41
B7    16.16   10.61    2.42   38.93   38.96   33.00   51.06   40.27
B8    17.76   10.66    1.56   39.01   47.38   41.57   63.04   41.27
B9    41.49   41.01   30.76   70.18    6.02    4.62    7.59   37.57
B10   43.76   41.37   27.63   70.43   11.75   10.10   15.49   40.71
B11   46.86   42.01   25.10   70.88   18.71   15.25   24.14   39.19
B12   47.82   41.70   22.61   70.67   22.27   19.49   29.59   41.19
B13   66.68   71.93   66.01   87.93   -5.77   -6.51    8.70  228.49
B14   71.07   70.01   64.63   87.00    7.76   -6.82   10.32  318.66
B15   73.04   76.00   53.35   89.86   -0.43    9.52    9.53   92.57
B16   59.62   61.53   51.81   82.66    0.77   -1.20    1.42  302.84
B17   68.29   67.87   51.64   85.94    6.35    4.64    7.87   36.20
B18   64.19   69.75   52.81   86.88   -6.78    4.96    8.40  143.82
B19   62.23   63.86   62.60   83.90    1.57  -10.22   10.34  278.70
B20    3.07    2.11    0.72   16.07   20.19   14.18   24.68   35.08
B21    8.15    4.59    0.74   25.53   40.43   30.01   50.35   36.59
B22   29.65   25.42   14.25   57.48   20.78   15.28   25.80   36.32
C1     4.30    4.10    2.26   23.99    4.93    8.64    9.94   60.31
C2     4.59    4.11    1.26   24.04    8.55   19.34   21.15   66.15
C3     5.38    4.49    0.98   25.22   13.40   25.40   28.72   62.19
C4     5.43    4.52    1.00   25.33   13.45   25.33   28.69   62.03
C5    23.03   22.27   10.84   54.31    7.20   19.52   20.82   69.76
C6    25.42   22.45    5.80   54.51   16.71   39.01   42.44   66.81
C7    26.60   21.97    2.47   54.00   23.88   58.61   63.29   67.84
C8    28.67   22.65    1.79   54.71   29.03   66.08   72.18   66.29
C9    48.05   48.87   33.69   75.37    2.62    9.12    9.49   73.97
C10   50.86   50.15   28.19   76.16    6.82   19.05   20.24   70.28
C11   53.28   50.96   23.41   76.65   10.99   28.29   30.35   68.78
C12   53.36   49.96   19.01   76.04   13.81   36.07   38.62   69.05
C13   56.99   64.50   63.42   84.23  -12.32  -10.44   16.15  220.29
C14   64.85   60.15   60.22   81.93   16.06  -11.29   19.62  324.88
C15   70.90   73.91   44.06   88.88   -0.71   18.53   18.55   92.19
C16   45.30   47.01   38.94   74.19   -0.02   -0.25    0.37  258.95
C17   60.25   56.79   40.55   80.06   13.48    7.75   15.56   29.91
C18   52.59   60.47   42.35   82.09  -14.24    8.95   16.82  147.85
C19   48.56   49.33   56.01   75.65    2.78  -17.78   18.00  278.89
C20    1.94    1.60    0.74   13.22   10.05    8.94   13.45   41.65
C21   23.23   17.81    5.87   49.27   29.78   29.65   42.03   44.88
C22   36.32   33.66   20.99   64.69   13.30   12.36   18.16   42.90
D1     4.02    4.15    2.32   24.17    0.34    8.41    8.42   87.71
D2     4.06    4.24    1.34   24.47   -0.44   19.09   19.10   91.32
D3     4.44    4.48    1.07   25.20    1.67   24.01   24.07   86.03
D4     4.58    4.67    1.10   25.76    1.10   24.58   24.61   87.45
D5    26.07   27.50   13.84   59.44   -1.77   19.73   19.81   95.14
D6    25.60   27.37    8.27   59.32   -3.26   36.94   37.08   95.04
D7    26.33   28.20    3.97   60.07   -3.46   58.36   58.47   93.39
D8    25.01   26.10    2.15   58.13   -0.60   68.48   68.49   90.50
D9    54.65   57.68   38.39   80.56   -2.34   11.48   11.72  101.54
D10   56.82   59.61   32.23   81.62   -1.56   22.08   22.14   94.02
D11   56.57   59.90   26.44   81.79   -2.85   31.69   31.82   95.15
D12   56.86   60.34   21.90   82.02   -3.16   40.43   40.56   94.48
D13   48.17   57.21   60.42   80.29  -18.25  -14.28   23.17  218.05
D14   58.16   50.58   54.99   76.42   24.14  -15.39   28.62  327.48
D15   68.71   71.57   35.50   87.76   -0.56   27.87   27.88   91.14
D16   33.25   34.42   28.91   65.29    0.28   -0.88    0.93  285.64
D17   52.18   46.36   30.56   73.78   20.53   11.14   23.36   28.47
D18   42.11   51.41   33.12   76.93  -21.15   12.65   24.64  149.12
D19   37.14   37.06   49.10   67.32    4.72  -24.62   25.07  280.85
D20   14.62   11.20    3.49   39.92   25.65   26.71   37.03   46.17
D21   23.33   22.60   14.56   54.67    7.03    9.64   11.94   53.91
D22   40.46   39.44   24.60   69.07    7.69   13.02   15.12   59.43
E1     3.72    4.23    2.39   24.43   -5.24    8.29    9.81  122.32
E2     3.28    4.07    1.40   23.92   -9.92   17.38   20.01  119.72
E3     3.49    4.54    1.16   25.38  -12.91   23.02   26.40  119.28
E4     3.51    4.57    1.16   25.45  -12.94   23.17   26.53  119.20
E5    12.23   13.99    7.77   44.22   -8.30   12.85   15.29  122.85
E6    11.39   14.25    5.19   44.60  -15.86   24.89   29.52  122.51
E7    10.65   14.55    2.84   45.01  -23.08   40.12   46.29  119.91
E8    10.42   14.91    1.98   45.51  -26.94   48.34   55.34  119.13
E9    37.23   40.77   27.37   70.01   -6.62    9.83   11.85  123.96
E10   36.68   41.50   24.44   70.52  -10.61   15.81   19.04  123.87
E11   36.17   42.26   20.88   71.04  -14.55   23.54   27.67  121.71
E12   34.92   42.28   17.40   71.06  -18.81   31.03   36.29  121.22
E13   41.21   51.10   57.53   76.74  -23.06  -17.49   28.94  217.18
E14   52.70   43.26   50.43   71.74   30.69  -18.50   35.83  328.92
E15   66.33   68.75   27.07   86.38    0.14   38.55   38.55   89.78
E16   24.81   25.70   21.01   57.75    0.21    0.34    0.48   60.39
E17   45.75   38.70   22.47   68.54   25.66   16.09   30.28   32.10
E18   33.43   43.35   25.26   71.79  -27.12   16.54   31.76  148.62
E19   29.09   28.62   43.34   60.44    5.89  -29.61   30.19  281.24
E20   23.07   15.95    1.37   46.91   39.25   57.46   69.58   55.66
E21   17.94   15.00    3.39   45.64   19.80   37.18   42.13   61.97
E22   30.42   26.79   10.04   58.78   18.06   29.81   34.85   58.78
F1     1.49    1.87    1.25   14.77   -8.12    3.63    8.90  155.92
F2     1.27    1.98    1.07   15.40  -17.11    7.22   18.58  157.12
F3     1.21    2.19    1.01   16.44  -23.78    9.76   25.71  157.68
F4     1.36    2.59    1.17   18.31  -27.25   10.68   29.26  158.60
F5     6.90    8.57    6.15   35.14  -12.84    3.95   13.43  162.85
F6     5.74    8.61    5.30   35.24  -25.56    8.24   26.85  162.14
F7     4.66    8.64    4.58   35.28  -38.93   12.11   40.77  162.71
F8     3.22    7.72    3.76   33.40  -51.94   13.65   53.71  165.27
F9    36.70   40.53   31.85   69.85   -7.63    2.36    7.98  162.81
F10   36.12   41.71   31.17   70.67  -13.09    4.81   13.94  159.81
F11   34.58   41.93   30.72   70.82  -18.94    5.77   19.81  163.05
F12   33.03   41.98   28.98   70.86  -24.49    8.61   25.96  160.62
F13   34.96   45.31   54.34   73.09  -27.42  -20.45   34.21  216.70
F14   47.97   37.43   46.25   67.60   35.91  -20.82   41.51  329.90
F15   64.67   66.68   21.97   85.34    0.92   46.03   46.04   88.85
F16   18.56   19.24   15.83   50.97    0.11    0.09    0.25   63.88
F17   40.72   32.92   17.06   64.10   29.94   19.79   35.89   33.46
F18   27.66   37.63   19.65   67.75  -31.19   20.40   37.26  146.81
F19   22.81   21.99   38.22   54.01    7.48  -34.08   34.89  282.38
F20   27.90   27.12   14.77   59.09    7.11   16.71   18.16   66.96
F21   35.17   32.82   13.14   64.01   12.38   29.52   32.01   67.25
F22   39.32   37.93   18.99   67.97    8.85   22.18   23.88   68.23
G1     2.32    2.89    2.72   19.56   -8.91   -2.84    9.36  197.67
G2     1.99    2.99    3.04   19.99  -17.94   -4.53   18.50  194.14
G3     1.77    3.16    3.49   20.70  -26.08   -6.40   26.85  193.80
G4     1.99    3.66    3.93   22.51  -28.88   -6.09   29.51  191.90
G5     9.12   11.11    9.71   39.76  -12.49   -1.89   12.63  188.63
G6     7.97   11.26   10.34   40.00  -23.52   -3.56   23.78  188.60
G7     6.51   11.03   10.64   39.64  -36.28   -5.11   36.64  188.04
G8     5.35   11.05   11.48   39.65  -49.18   -7.70   49.78  188.90
G9    36.08   40.00   32.64   69.47   -8.06    0.51    8.08  176.40
G10   34.85   40.67   34.63   69.94  -14.24   -1.60   14.34  186.43
G11   33.53   41.12   35.25   70.26  -20.18   -1.94   20.28  185.51
G12   32.15   41.61   36.88   70.60  -26.51   -3.63   26.76  187.82
G13   28.64   39.09   50.57   68.82  -31.92  -23.69   39.75  216.58
G14   41.56   29.94   40.33   61.60   43.25  -23.78   49.35  331.20
G15   62.28   63.49   15.70   83.70    2.52   56.84   56.89   87.46
G16   11.98   12.35   10.24   41.76    0.56   -0.21    0.60  339.57
G17   34.38   25.85   11.85   57.90   36.05   22.63   42.57   32.11
G18   21.14   30.90   14.59   62.42  -36.49   22.91   43.08  147.87
G19   15.95   14.73   31.61   45.26   10.42  -39.67   41.01  284.71
G20   37.74   37.30   17.52   67.51    5.87   24.62   25.31   76.59
G21   35.92   35.42   11.33   66.07    6.07   38.29   38.77   80.99
G22   43.90   41.14    3.01   70.28   12.82   82.36   83.35   81.15
H1     2.56    2.91    3.40   19.68   -4.62   -7.58    8.88  238.61
H2     2.31    2.99    4.48   20.01  -11.08  -13.67   17.60  230.99
H3     1.99    2.84    5.56   19.40  -15.41  -20.34   25.53  232.85
H4     2.32    3.38    7.01   21.50  -17.29  -23.28   29.00  233.39
H5     9.74   11.18   11.75   39.87   -7.95   -8.14   11.38  225.63
H6     9.13   11.53   15.05   40.47  -15.48  -16.08   22.33  226.10
H7     7.95   11.11   18.72   39.77  -22.74  -25.84   34.42  228.64
H8     7.40   11.19   22.32   39.90  -28.37  -32.99   43.51  229.30
H9    36.44   39.92   35.85   69.41   -6.61   -4.26    7.88  212.77
H10   35.86   40.40   39.97   69.76  -10.02   -9.26   13.65  222.76
H11   35.82   41.80   47.07   70.73  -14.32  -16.38   21.76  228.82
H12   34.92   41.70   51.11   70.67  -17.08  -21.11   27.15  231.02
H13   23.74   33.98   47.15   64.94  -35.50  -26.44   44.26  216.68
H14   35.61   23.58   34.61   55.67   49.87  -26.19   56.33  332.29
H15   60.13   60.58   11.45   82.15    4.15   65.66   65.79   86.38
H16    7.84    8.05    6.64   34.09    0.75   -0.01    0.75  179.43
H17   28.93   20.24    7.57   52.11   41.17   27.24   49.37   33.49
H18   16.08   25.26   10.34   57.33  -40.83   26.32   48.58  147.20
H19   11.51   10.03   26.51   37.89   13.93  -44.10   46.25  287.53
H20   42.47   43.97   17.99   72.21    0.28   31.67   31.67   89.50
H21   33.68   35.29   24.50   65.97   -1.15    7.89    7.97   98.24
H22   35.92   39.65   13.06   69.22   -7.51   38.72   39.43  100.97
I1     4.15    4.18    5.61   24.27    1.65  -12.22   12.32  277.72
I2     4.23    4.17    8.50   24.24    2.90  -24.42   24.60  276.79
I3     4.39    4.34   11.87   24.74    2.99  -34.58   34.71  274.94
I4     4.52    4.35   15.77   24.76    4.53  -44.96   45.19  275.77
I5    13.94   14.46   14.93   44.89    0.04   -8.16    8.17  270.33
I6    13.89   14.23   19.12   44.54    1.16  -18.49   18.53  273.61
I7    14.05   14.22   23.75   44.54    2.22  -27.72   27.81  274.57
I8    14.65   14.67   28.61   45.18    3.12  -35.05   35.18  275.09
I9    38.39   40.05   36.62   69.51   -0.65   -5.19    5.23  262.59
I10   39.26   40.85   41.18   70.07   -0.33  -10.30   10.31  268.17
I11   39.83   41.26   46.40   70.36    0.22  -16.22   16.22  270.74
I12   40.19   41.49   51.05   70.51    0.66  -21.30   21.31  271.76
I13   19.95   29.81   44.07   61.49  -38.24  -28.72   47.82  216.91
I14   31.93   19.97   30.98   51.79   53.74  -27.42   60.33  332.96
I15   58.57   58.45    9.02   80.99    5.45   71.57   71.79   85.64
I16    5.53    5.61    4.68   28.42    1.38   -0.28    1.41  348.54
I17   25.46   16.89    5.31   48.12   44.43   30.40   53.83   34.39
I18   12.99   21.57    7.73   53.57  -43.49   29.08   52.32  146.23
I19    8.73    7.11   22.74   32.05   17.45  -47.33   50.45  290.24
I20   42.99   47.65   19.17   74.60   -8.49   33.22   34.30  104.35
I21   12.52   16.70    4.40   47.89  -22.15   34.81   41.26  122.48
I22   29.86   38.17   20.38   68.14  -24.37   19.56   31.25  141.26
J1     2.06    1.87    3.01   14.74    6.22  -13.32   14.71  295.04
J2     2.37    1.88    4.90   14.84   12.48  -24.92   27.87  296.59
J3     2.88    1.94    8.06   15.19   20.64  -38.39   43.59  298.27
J4     3.14    1.91   10.76   15.01   26.10  -47.97   54.61  298.55
J5    11.37   11.08   12.26   39.72    5.05   -9.88   11.10  297.07
J6    12.06   11.02   15.61   39.61   10.31  -18.97   21.59  298.51
J7    12.64   10.85   20.21   39.34   15.48  -29.74   33.53  297.51
J8    13.38   11.04   23.25   39.65   19.07  -35.21   40.04  298.43
J9    39.85   40.71   37.37   69.97    1.92   -5.41    5.74  289.49
J10   41.10   41.06   41.47   70.21    4.74  -10.41   11.44  294.41
J11   42.24   41.11   46.28   70.25    8.02  -16.27   18.15  296.23
J12   43.00   40.84   50.40   70.07   11.09  -21.35   24.06  297.46
J13   14.60   23.42   38.74   55.50  -41.64  -32.22   52.65  217.73
J14   27.15   15.62   26.15   46.47   58.47  -28.67   65.12  333.88
J15   56.47   55.67    6.73   79.43    7.07   77.76   78.08   84.81
J16    2.82    2.88    2.49   19.58    0.71   -0.93    1.16  307.33
J17   20.91   12.82    3.04   42.49   48.32   34.28   59.25   35.36
J18    8.08   15.29    4.67   46.03  -48.54   30.15   57.14  148.16
J19    5.49    4.03   17.80   23.76   21.03  -51.43   55.57  292.24
J20   31.83   40.54   26.73   69.86  -24.44   10.63   26.65  156.49
J21    4.27    7.93    1.57   33.85  -37.90   32.56   49.96  139.33
J22    1.10    1.80    0.87   14.40  -18.53    8.56   20.42  155.21
K1     4.97    4.19    4.96   24.28   12.52   -8.90   15.36  324.58
K2     6.03    4.18    7.10   24.26   25.00  -18.88   31.33  322.95
K3     7.55    4.41    9.93   25.00   37.22  -28.09   46.63  322.95
K4     8.64    4.47   12.76   25.17   46.26  -36.38   58.85  321.82
K5    15.33   14.19   14.68   44.50   10.14   -8.23   13.06  320.95
K6    17.12   14.00   18.07   44.24   21.45  -16.73   27.20  322.05
K7    19.48   14.28   22.44   44.64   32.07  -25.08   40.72  321.96
K8    22.13   14.54   27.26   45.01   43.24  -33.11   54.46  322.55
K9    41.57   41.19   37.21   70.31    5.74   -4.59    7.36  321.36
K10   44.06   41.19   40.94   70.32   13.14   -9.56   16.24  323.93
K11   47.13   42.03   46.11   70.89   19.40  -14.98   24.51  322.33
K12   49.37   42.21   49.39   71.01   25.00  -18.57   31.15  323.39
K13   12.09   20.08   35.54   51.93  -42.55  -33.97   54.44  218.60
K14   22.20   11.68   21.05   40.71   62.08  -29.09   68.57  334.90
K15   48.46   45.53    2.90   73.24   12.91   88.32   89.26   81.68
K16    1.39    1.45    1.09   12.27    0.07    1.45    1.46   87.18
K17   17.17    9.89    1.41   37.64   50.15   40.92   64.72   39.21
K18    4.82   10.06    2.22   37.94  -48.25   33.03   58.47  145.60
K19    3.59    2.24   13.70   16.67   26.08  -53.63   59.63  295.93
K20    2.59    3.38    2.24   21.49  -11.89    4.55   12.73  159.07
K21    1.31    1.79    1.61   14.36  -11.51   -1.54   11.61  187.65
K22    1.75    2.23    3.47   16.65   -9.45  -13.30   16.33  234.59
L1     3.72    3.05    2.86   20.26   12.72   -2.66   12.99  348.18
L2     4.49    3.07    3.13   20.32   23.35   -4.64   23.81  348.77
L3     5.88    3.45    4.02   21.77   33.97   -7.91   34.89  346.90
L4     6.51    3.72    4.84   22.72   36.68  -10.98   38.29  343.35
L5    12.77   11.09   10.37   39.72   14.74   -4.14   15.31  344.32
L6    15.69   11.60   11.81   40.58   29.15   -7.10   30.00  346.32
L7    18.48   11.52   12.63   40.44   45.01   -9.70   46.05  347.84
L8    20.08   11.73   13.19   40.78   51.67  -10.69   52.77  348.32
L9    42.91   41.92   36.24   70.81    7.61   -2.38    7.98  342.61
L10   44.82   41.65   37.12   70.63   13.96   -3.93   14.50  344.27
L11   48.01   42.25   37.94   71.04   21.15   -4.32   21.58  348.43
L12   49.75   41.78   39.11   70.72   27.28   -6.47   28.05  346.67
L13    8.02   13.88   28.85   44.06  -40.54  -37.40   55.15  222.68
L14   17.37    8.42   16.33   34.84   63.26  -28.92   69.55  335.43
L15   44.95   41.42    2.43   70.47   15.04   87.29   88.57   80.23
L16    0.50    0.51    0.58    4.66    0.41   -2.95    2.97  277.90
L17   13.15    7.06    0.81   31.93   50.83   39.86   64.60   38.11
L18    2.91    6.74    1.57   31.20  -47.71   27.94   55.29  149.64
L19    2.05    0.99    9.18    8.94   31.04  -53.23   61.62  300.25
L20    0.73    0.85    0.81    7.65   -3.74   -1.92    4.20  207.24
L21    0.98    0.88    0.93    7.98    4.89   -3.45    5.99  324.87
L22    2.35    1.82    1.59   14.50   13.44   -1.07   13.48  355.45
GS0    76.51   79.03   68.36   91.25    0.70   -2.97    3.06  283.30
GS1    71.83   74.09   63.09   88.96    0.89   -1.96    2.15  294.38
GS2    61.65   63.60   54.21   83.75    0.82   -1.91    2.09  293.10
GS3    52.96   54.72   46.51   78.88    0.57   -1.66    1.76  289.13
GS4    47.60   49.53   40.76   75.78   -0.37    0.09    0.39  156.26
GS5    41.15   42.81   35.53   71.42   -0.35   -0.34    0.52  231.86
GS6    35.24   36.72   30.18   67.06   -0.50    0.14    0.54  172.32
GS7    30.85   32.10   26.55   63.42   -0.30   -0.16    0.38  212.83
GS8    26.38   27.36   22.72   59.30    0.05   -0.32    0.34  277.67
GS9    22.85   23.77   19.74   55.85   -0.26   -0.31    0.44  237.05
GS10   19.87   20.83   17.37   52.77   -1.02   -0.43    1.12  203.95
GS11   16.01   16.66   13.95   47.83   -0.24   -0.60    0.76  244.71
GS12   12.99   13.60   11.48   43.65   -0.70   -0.81    1.09  229.32
GS13   10.25   10.66    8.96   39.00   -0.14   -0.61    0.68  250.23
GS14    8.43    8.77    7.21   35.53   -0.15    0.07    0.25  258.91
GS15    6.74    6.97    5.66   31.73    0.38    0.35    0.55   43.26
GS16    5.32    5.44    4.43   27.97    0.81    0.33    0.90   23.24
GS17    3.90    4.01    3.35   23.73    0.45   -0.28    0.53  327.14
GS18    2.78    2.89    2.40   19.64   -0.34   -0.09    0.42  197.99
GS19    1.92    2.00    1.53   15.48   -0.12    1.27    1.28   94.65
GS20    1.32    1.37    0.97   11.76   -0.04    2.44    2.45   90.79
GS21    1.08    1.12    0.76    9.99   -0.11    2.90    2.90   92.24
GS22    0.85    0.86    0.64    7.76    0.81    1.14    1.39   54.75
GS23    0.45    0.45    0.53    4.11    0.45   -3.03    3.07  278.48
END_DATA
