lprof/data/targets/Agfa/Reflective/C81247XX.it8
IT8.7/2
ORIGINATOR "FotoTune"
DESCRIPTOR "Agfa IT8"
MATERIAL "Agfacolor"
MANUFACTURER "Agfa"
CREATED "Mon Apr 12 13:34:13 1999"
PROD_DATE "1999:04"
SERIAL "5x7 c81247xx"
NUMBER_OF_FIELDS 9
BEGIN_DATA_FORMAT
SAMPLE_ID XYZ_X XYZ_Y XYZ_Z LAB_L LAB_A LAB_B LAB_C LAB_H
END_DATA_FORMAT
NUMBER_OF_SETS 288
BEGIN_DATA
A1     3.11    2.61    2.00   18.41   10.85    1.49   10.97    7.83
A2     3.67    2.56    1.55   18.19   20.83    5.76   21.62   15.46
A3     4.80    2.88    1.53   19.52   30.88    8.25   31.95   14.96
A4     5.15    3.07    1.68   20.29   31.86    7.88   32.82   13.89
A5    10.59    9.19    7.03   36.36   13.86    2.25   14.05    9.22
A6    12.89    9.56    6.07   37.04   27.06    7.65   28.12   15.81
A7    15.75   10.08    5.29   37.99   40.68   12.99   42.70   17.72
A8    18.28   10.48    4.91   38.69   51.58   16.15   54.05   17.39
A9    39.62   38.47   31.65   68.36    8.16    0.10    8.16  180.67
A10   42.27   38.82   30.25   68.62   15.15    2.72   15.40   10.19
A11   45.41   39.47   28.93   69.08   22.32    5.63   23.02   14.16
A12   45.91   38.17   26.83   68.14   27.80    7.52   28.80   15.13
A13   75.15   77.93   67.42   90.75    0.09   -2.97    2.97  271.58
A14   75.44   77.65   67.33   90.62    1.22   -3.12    3.35  291.39
A15   75.31   77.96   65.13   90.76    0.36   -0.81    0.89  293.60
A16   74.29   76.79   64.83   90.23    0.59   -1.45    1.56  292.21
A17   75.01   77.32   65.20   90.47    1.00   -1.39    1.71  305.90
A18   74.88   77.68   65.39   90.63    0.04   -1.28    1.28  271.69
A19   74.65   77.00   67.24   90.32    0.90   -3.55    3.66  284.29
A20    1.29    1.01    0.62    9.11   10.38    3.97   11.11   20.98
A21    4.68    2.80    0.68   19.26   30.38   20.42   36.61   33.91
A22    8.95    4.87    0.70   26.36   43.84   32.17   54.38   36.27
B1     2.92    2.59    1.50   18.29    8.14    6.53   10.44   38.78
B2     3.53    2.66    0.81   18.65   16.77   16.94   23.83   45.28
B3     4.28    2.87    0.73   19.50   24.10   19.85   31.23   39.48
B4     4.77    3.09    0.74   20.40   26.62   21.26   34.07   38.61
B5    11.02    9.56    5.26   37.04   14.06   11.52   18.17   39.33
B6    13.11    9.95    3.68   37.76   25.42   21.80   33.49   40.62
B7    15.36    9.98    2.14   37.80   39.18   33.53   51.57   40.56
B8    17.37   10.34    1.43   38.45   47.73   42.14   63.67   41.43
B9    39.53   38.74   28.85   68.57    6.98    4.86    8.50   34.81
B10   42.18   39.38   25.83   69.02   13.14   10.75   16.98   39.29
B11   45.25   40.16   23.40   69.58   19.72   16.11   25.47   39.25
B12   46.31   39.86   20.86   69.37   23.65   20.70   31.43   41.21
B13   66.32   71.67   65.70   87.81   -6.02   -6.44    8.82  226.96
B14   70.09   68.57   63.90   86.29    8.72   -7.35   11.41  319.89
B15   72.57   75.58   51.90   89.67   -0.58   10.78   10.80   93.11
B16   58.51   59.96   50.39   81.82    1.76   -1.08    2.07  328.97
B17   67.14   66.35   50.08   85.18    7.14    5.07    8.75   35.36
B18   63.69   69.31   51.61   86.65   -6.97    5.91    9.14  139.68
B19   61.39   62.62   61.88   83.24    2.42  -10.64   10.91  282.81
B20    2.88    1.99    0.68   15.40   19.78   13.68   24.06   34.68
B21    7.81    4.38    0.70   24.88   40.14   29.50   49.81   36.32
B22   27.99   23.67   12.97   55.76   21.80   15.77   26.91   35.88
C1     3.87    3.67    2.06   22.57    4.84    8.02    9.38   58.88
C2     4.20    3.76    1.18   22.85    8.46   18.36   20.22   65.26
C3     4.89    4.04    0.91   23.81   13.54   24.04   27.59   60.61
C4     4.96    4.09    0.92   23.95   13.75   24.19   27.83   60.38
C5    21.55   20.58    9.75   52.49    8.23   19.92   21.55   67.56
C6    24.19   21.12    5.23   53.08   17.57   39.35   43.10   65.94
C7    25.38   20.67    2.26   52.58   24.84   57.88   62.99   66.77
C8    27.58   21.39    1.65   53.38   30.48   65.24   72.01   64.96
C9    46.29   46.54   31.83   73.90    4.08    9.38   10.23   66.48
C10   48.86   47.72   26.19   74.65    7.96   19.83   21.37   68.14
C11   51.77   48.91   21.79   75.40   12.49   29.23   31.79   66.85
C12   51.43   47.47   17.22   74.49   15.53   37.36   40.46   67.43
C13   55.88   63.59   62.92   83.75  -13.04  -10.78   16.92  219.59
C14   63.12   57.75   58.84   80.60   17.85  -12.18   21.61  325.69
C15   70.21   73.22   42.04   88.56   -0.77   20.49   20.50   92.15
C16   43.15   44.45   36.89   72.53    0.92   -0.33    0.98  340.11
C17   58.39   54.28   38.73   78.63   15.18    7.68   17.02   26.85
C18   51.56   59.56   40.90   81.60  -14.80    9.95   17.83  146.09
C19   47.10   47.39   54.82   74.43    4.02  -18.63   19.06  282.18
C20    1.77    1.46    0.69   12.35    9.77    8.36   12.86   40.56
C21   21.93   16.52    5.23   47.65   30.88   29.99   43.05   44.16
C22   34.62   31.84   19.53   63.21   14.02   12.82   19.00   42.44
D1     3.60    3.72    2.09   22.69    0.28    7.95    7.96   88.03
D2     3.62    3.78    1.22   22.92   -0.36   18.01   18.01   91.13
D3     3.94    3.96    1.00   23.52    1.85   22.24   22.32   85.24
D4     3.99    4.03    0.99   23.80    1.38   22.86   22.90   86.54
D5    24.30   25.60   12.56   57.65   -1.65   20.19   20.26   94.68
D6    23.70   25.25    7.27   57.32   -2.75   37.41   37.51   94.21
D7    24.78   26.36    3.65   58.38   -2.70   57.50   57.56   92.68
D8    23.57   24.56    2.05   56.65   -0.44   66.87   66.87   90.38
D9    53.01   55.66   36.08   79.42   -1.62   12.68   12.78   97.26
D10   55.10   57.57   30.01   80.50   -0.95   23.58   23.59   92.29
D11   54.92   57.96   24.40   80.71   -2.36   33.47   33.56   94.03
D12   56.12   59.35   20.22   81.48   -2.64   42.89   42.97   93.53
D13   46.77   56.01   59.67   79.62  -19.25  -14.69   24.22  217.35
D14   56.31   48.13   53.46   74.91   26.14  -16.38   30.85  327.94
D15   68.18   70.96   33.93   87.46   -0.49   29.62   29.62   90.94
D16   31.23   32.10   26.92   63.43    1.04   -0.76    1.29  324.14
D17   50.47   44.19   28.76   72.36   22.14   11.55   24.97   27.56
D18   40.73   50.14   31.49   76.15  -22.00   13.78   25.96  147.94
D19   35.28   34.85   47.52   65.63    5.82  -25.70   26.35  282.76
D20   13.56   10.25    3.11   38.28   26.06   26.51   37.18   45.49
D21   21.81   20.94   13.30   52.88    7.78    9.87   12.57   51.75
D22   38.56   37.24   22.86   67.45    8.72   13.47   16.05   57.08
E1     3.24    3.69    2.14   22.61   -5.04    7.33    8.89  124.53
E2     2.88    3.55    1.26   22.15   -9.24   16.06   18.53  119.92
E3     3.07    3.95    1.06   23.52  -11.84   21.27   24.35  119.10
E4     3.05    3.95    1.07   23.51  -12.24   21.09   24.39  120.12
E5    11.01   12.55    6.85   42.07   -7.70   12.84   14.97  120.96
E6    10.33   12.88    4.57   42.57  -14.97   24.73   28.92  121.18
E7     9.64   13.21    2.58   43.08  -22.60   38.85   44.94  120.18
E8     9.59   13.82    1.87   43.97  -26.83   46.81   53.96  119.82
E9    34.81   37.91   25.40   67.96   -5.80    9.68   11.28  120.94
E10   34.43   38.89   22.47   68.68  -10.20   16.33   19.24  122.02
E11   34.34   40.10   19.19   69.54  -14.25   24.47   28.32  120.22
E12   33.12   40.25   15.90   69.65  -18.93   32.13   37.29  120.51
E13   40.06   50.03   56.72   76.08  -23.80  -17.79   29.71  216.79
E14   50.83   40.97   48.79   70.15   32.60  -19.36   37.91  329.28
E15   65.57   67.85   25.27   85.93    0.40   40.90   40.90   89.44
E16   23.12   23.78   19.31   55.87    0.90    0.64    1.12   35.42
E17   44.03   36.67   20.78   67.02   27.24   16.81   32.01   31.67
E18   31.86   41.79   23.56   70.73  -28.10   17.81   33.27  147.64
E19   27.47   26.74   41.83   58.72    6.95  -30.67   31.45  282.77
E20   22.09   15.00    1.28   45.63   40.32   56.38   69.31   54.43
E21   16.83   13.90    3.05   44.08   20.53   37.00   42.32   60.98
E22   28.58   24.82    8.90   56.90   19.21   30.48   36.03   57.78
F1     1.34    1.67    1.15   13.65   -7.53    2.93    8.09  158.84
F2     1.16    1.78    0.98   14.32  -15.93    6.72   17.28  157.13
F3     1.12    1.97    0.95   15.34  -22.03    8.81   23.73  158.23
F4     1.26    2.36    1.09   17.25  -25.38   10.10   27.31  158.32
F5     6.14    7.65    5.44   33.24  -12.57    4.04   13.20  162.18
F6     5.06    7.64    4.69   33.22  -25.02    7.97   26.26  162.33
F7     4.13    7.76    4.01   33.47  -38.28   12.25   40.19  162.26
F8     3.11    7.45    3.47   32.81  -51.32   14.58   53.35  164.14
F9    34.57   38.04   29.86   68.05   -7.03    2.35    7.42  161.57
F10   33.83   39.03   29.13   68.77  -12.66    4.77   13.53  159.37
F11   32.78   39.83   28.69   69.35  -18.86    6.47   19.94  161.07
F12   31.26   40.03   27.28   69.49  -24.95    9.08   26.56  160.00
F13   33.90   44.26   53.53   72.40  -28.12  -20.76   34.96  216.44
F14   46.35   35.43   44.79   66.08   37.91  -21.67   43.67  330.23
F15   63.99   65.81   20.47   84.90    1.26   48.26   48.28   88.50
F16   17.26   17.76   14.52   49.20    0.83    0.30    0.89   19.41
F17   39.10   31.05   15.54   62.54   31.60   20.75   37.81   33.29
F18   26.47   36.38   18.31   66.81  -31.92   21.66   38.57  145.85
F19   21.69   20.60   36.98   52.51    8.85  -34.97   36.07  284.21
F20   26.30   25.36   13.45   57.42    7.80   17.30   18.97   65.73
F21   33.42   30.90   12.09   62.42   13.25   29.75   32.57   66.00
F22   37.75   36.01   17.59   66.53   10.09   22.78   24.92   66.10
G1     2.03    2.51    2.41   17.95   -8.36   -3.01    8.89  199.79
G2     1.81    2.68    2.72   18.73  -16.93   -4.28   17.47  194.21
G3     1.65    2.90    3.16   19.66  -24.75   -5.95   25.45  193.52
G4     1.85    3.36    3.57   21.42  -27.39   -5.73   27.98  191.82
G5     8.19    9.93    8.61   37.72  -11.73   -1.56   11.82  187.54
G6     7.12   10.08    9.21   37.99  -22.93   -3.23   23.15  188.02
G7     5.86   10.06    9.65   37.95  -35.92   -4.80   36.24  187.61
G8     5.02   10.48   10.62   38.68  -48.97   -6.74   49.43  187.84
G9    33.89   37.53   30.86   67.66   -7.75    0.12    7.76  179.14
G10   32.68   38.10   32.44   68.09  -13.80   -1.56   13.89  186.45
G11   31.76   39.08   33.28   68.81  -20.21   -1.58   20.27  184.48
G12   30.80   40.19   35.22   69.61  -27.15   -3.04   27.32  186.39
G13   27.67   38.11   49.76   68.10  -32.63  -24.01   40.51  216.35
G14   40.11   28.33   38.95   60.19   44.92  -24.40   51.11  331.48
G15   61.50   62.49   14.36   83.18    2.97   59.29   59.36   87.13
G16   10.99   11.27    9.20   40.03    0.94    0.29    1.00   17.37
G17   33.15   24.49   10.73   56.58   37.47   23.79   44.39   32.41
G18   20.12   29.76   13.47   61.45  -37.22   24.23   44.41  146.94
G19   14.97   13.61   30.47   43.67   11.51  -40.63   42.22  285.81
G20   36.02   35.33   16.33   66.00    6.69   24.80   25.69   74.90
G21   34.21   33.45   10.39   64.53    6.93   38.59   39.21   79.82
G22   42.91   39.93    2.82   69.42   13.62   82.39   83.51   80.62
H1     2.24    2.55    2.95   18.13   -4.49   -7.06    8.37  237.56
H2     2.02    2.62    3.82   18.43  -10.56  -12.48   16.35  229.74
H3     1.80    2.55    4.89   18.13  -14.45  -19.15   23.99  232.97
H4     2.13    3.07    6.32   20.31  -16.17  -22.35   27.59  234.12
H5     8.89   10.11   10.53   38.03   -6.99   -7.57   10.30  227.30
H6     8.25   10.40   13.61   38.56  -14.83  -15.67   21.57  226.60
H7     7.30   10.20   17.37   38.21  -22.08  -25.53   33.76  229.14
H8     6.93   10.41   21.19   38.58  -27.40  -33.04   42.93  230.33
H9    34.55   37.69   33.93   67.79   -5.99   -4.29    7.37  215.57
H10   33.93   38.15   38.29   68.13   -9.58   -9.83   13.73  225.74
H11   34.24   39.76   45.38   69.30  -13.56  -16.83   21.61  231.15
H12   33.50   39.97   49.74   69.44  -16.72  -21.67   27.37  232.34
H13   22.84   33.02   46.27   64.18  -36.18  -26.74   44.98  216.46
H14   34.54   22.49   33.50   54.53   51.15  -26.52   57.61  332.59
H15   59.42   59.60   10.34   81.62    4.78   68.18   68.35   85.99
H16    7.12    7.24    5.86   32.35    1.37    0.55    1.48   21.84
H17   27.93   19.20    6.77   50.93   42.38   28.49   51.06   33.92
H18   15.15   24.14    9.30   56.22  -41.46   27.89   49.97  146.07
H19   10.74    9.18   25.41   36.33   15.09  -44.87   47.34  288.59
H20   40.38   41.50   16.33   70.52    1.18   32.60   32.62   87.91
H21   31.65   32.94   22.64   64.11   -0.37    8.14    8.14   92.57
H22   34.13   37.56   11.72   67.69   -7.01   39.92   40.53   99.96
I1     3.59    3.62    4.84   22.36    1.53  -11.59   11.69  277.53
I2     3.70    3.63    7.52   22.44    2.91  -23.74   23.92  276.98
I3     3.86    3.76   10.68   22.83    3.61  -34.25   34.44  276.02
I4     4.13    3.89   14.74   23.30    5.57  -44.93   45.27  277.07
I5    12.79   13.18   13.62   43.03    0.62   -7.97    7.99  274.43
I6    12.64   12.82   17.58   42.49    1.90  -18.64   18.74  275.83
I7    12.76   12.82   22.05   42.48    2.74  -28.02   28.16  275.58
I8    13.53   13.41   27.06   43.37    3.96  -35.60   35.83  276.35
I9    36.26   37.65   34.54   67.76   -0.09   -5.24    5.24  269.00
I10   37.35   38.61   39.42   68.47    0.44  -10.75   10.76  272.33
I11   37.85   38.85   44.59   68.65    1.30  -17.01   17.06  274.38
I12   37.99   38.92   49.26   68.69    1.55  -22.44   22.49  273.95
I13   19.10   28.85   43.12   60.65  -38.85  -28.99   48.48  216.74
I14   30.94   18.97   29.92   50.65   55.07  -27.74   61.65  333.26
I15   57.90   57.53    8.17   80.48    6.05   73.78   74.03   85.32
I16    4.95    5.00    4.18   26.74    1.68   -0.37    1.73  347.40
I17   24.58   16.01    4.70   46.99   45.58   31.64   55.49   34.76
I18   12.32   20.71    7.07   52.62  -43.99   30.14   53.32  145.59
I19    8.08    6.43   21.75   30.48   18.49  -48.13   51.57  291.02
I20   41.28   45.74   17.80   73.38   -8.34   34.14   35.14  103.72
I21   11.59   15.48    4.03   46.29  -21.75   34.28   40.60  122.38
I22   28.19   36.25   18.87   66.71  -24.64   20.28   31.90  140.54
J1     1.86    1.69    2.72   13.77    5.84  -12.77   14.04  294.56
J2     2.12    1.69    4.39   13.75   11.85  -23.98   26.74  296.29
J3     2.62    1.78    7.45   14.29   19.85  -37.54   42.46  297.86
J4     2.96    1.80   10.25   14.36   25.65  -47.47   53.96  298.38
J5    10.33    9.99   11.15   37.81    5.51   -9.86   11.30  299.21
J6    11.08   10.02   14.40   37.88   10.82  -18.90   21.78  299.79
J7    11.83   10.03   19.03   37.89   16.18  -29.77   33.88  298.52
J8    12.50   10.16   22.08   38.14   19.76  -35.59   40.71  299.04
J9    38.01   38.53   35.49   68.42    2.83   -5.46    6.16  297.40
J10   39.15   38.85   39.89   68.65    5.47  -11.07   12.35  296.30
J11   40.69   39.04   44.49   68.79    9.61  -16.63   19.21  300.03
J12   40.92   38.39   48.72   68.31   12.37  -22.46   25.65  298.85
J13   13.95   22.60   37.82   54.66  -42.02  -32.42   53.07  217.65
J14   26.62   15.15   25.56   45.83   59.12  -28.75   65.74  334.07
J15   55.94   54.95    6.23   79.01    7.54   79.28   79.64   84.57
J16    2.58    2.63    2.28   18.51    0.89   -1.02    1.36  311.21
J17   20.38   12.33    2.80   41.74   48.99   34.73   60.05   35.33
J18    7.71   14.74    4.43   45.28  -48.72   30.17   57.30  148.24
J19    5.14    3.68   17.10   22.60   21.83  -51.82   56.24  292.85
J20   30.36   38.89   25.23   68.67  -24.75   11.21   27.17  155.63
J21    3.99    7.43    1.48   32.78  -37.33   31.77   49.02  139.60
J22    1.03    1.65    0.80   13.56  -17.05    8.30   18.96  154.05
K1     4.52    3.80    4.51   23.01   12.20   -8.64   14.95  324.72
K2     5.64    3.91    6.60   23.37   24.38  -18.29   30.48  323.13
K3     6.99    4.10    9.15   23.98   36.21  -27.19   45.28  323.10
K4     8.18    4.24   12.29   24.42   45.51  -36.34   58.24  321.40
K5    14.21   13.05   13.50   42.82   10.57   -7.98   13.24  322.93
K6    16.05   12.99   16.81   42.76   21.83  -16.42   27.31  323.05
K7    18.24   13.20   21.03   43.07   32.51  -25.02   41.03  322.42
K8    21.13   13.75   26.31   43.88   43.46  -33.43   54.83  322.43
K9    39.56   38.85   35.35   68.64    6.76   -4.88    8.34  324.17
K10   42.34   39.26   39.14   68.94   13.99   -9.57   16.96  325.65
K11   45.76   40.32   44.67   69.69   20.69  -15.30   25.73  323.52
K12   48.10   40.56   48.11   69.86   26.50  -19.09   32.65  324.23
K13   11.76   19.65   34.97   51.44  -42.71  -34.00   54.59  218.52
K14   21.90   11.43   20.66   40.29   62.44  -29.03   68.86  335.07
K15   48.00   44.94    2.78   72.85   13.34   88.56   89.56   81.43
K16    1.27    1.31    1.01   11.34    0.24    0.99    1.02   76.24
K17   16.87    9.62    1.35   37.15   50.56   40.89   65.02   38.96
K18    4.63    9.73    2.12   37.35  -48.17   32.99   58.38  145.59
K19    3.38    2.05   13.17   15.74   26.84  -53.81   60.13  296.52
K20    2.36    3.06    2.04   20.29  -11.23    4.27   12.01  159.19
K21    1.21    1.62    1.50   13.39  -10.45   -1.93   10.63  190.46
K22    1.58    1.99    3.07   15.42   -8.60  -12.60   15.25  235.67
L1     3.30    2.72    2.55   18.85   12.16   -2.73   12.47  347.35
L2     4.03    2.76    2.78   19.06   22.44   -4.14   22.83  349.55
L3     5.36    3.14    3.59   20.63   32.89   -7.21   33.67  347.63
L4     6.00    3.43    4.33   21.70   35.61   -9.90   36.97  344.47
L5    11.73   10.10    9.40   38.02   14.92   -3.87   15.42  345.50
L6    14.50   10.64   10.57   38.97   29.00   -6.05   29.63  348.21
L7    17.39   10.72   11.45   39.10   44.99   -8.59   45.81  349.20
L8    19.45   11.27   12.31   40.04   51.77   -9.48   52.63  349.62
L9    40.74   39.52   34.25   69.12    8.32   -2.45    8.67  343.58
L10   43.10   39.67   35.19   69.24   14.92   -3.62   15.36  346.37
L11   46.50   40.36   35.96   69.73   22.64   -3.87   22.97  350.32
L12   47.92   39.61   37.17   69.19   28.86   -6.47   29.58  347.38
L13    8.03   13.91   28.79   44.11  -40.69  -37.21   55.14  222.44
L14   17.09    8.20   15.93   34.40   63.66  -28.72   69.84  335.72
L15   44.38   40.71    2.32   69.98   15.52   87.43   88.80   79.93
L16    0.48    0.48    0.55    4.34    0.70   -2.75    2.84  284.17
L17   12.84    6.82    0.76   31.39   51.12   39.78   64.78   37.89
L18    2.84    6.57    1.49   30.81  -47.33   28.22   55.10  149.20
L19    1.98    0.94    8.90    8.43   31.59  -53.08   61.77  300.76
L20    0.68    0.78    0.75    7.04   -2.97   -1.99    3.58  213.85
L21    0.87    0.78    0.85    7.07    4.71   -3.73    6.01  321.61
L22    2.07    1.61    1.43   13.31   12.82   -1.25   12.88  354.45
GS0    76.22   78.78   67.99   91.13    0.62   -2.84    2.90  282.17
GS1    71.50   73.69   62.51   88.78    0.99   -1.71    1.98  300.04
GS2    60.03   61.67   52.65   82.74    1.39   -1.99    2.43  305.12
GS3    51.68   53.13   44.90   77.95    1.24   -1.35    1.83  312.65
GS4    45.38   46.87   38.88   74.10    0.60   -0.31    0.68  332.70
GS5    39.07   40.31   33.43   69.68    0.73   -0.30    0.79  337.48
GS6    33.22   34.39   28.27   65.27    0.26    0.14    0.35  200.71
GS7    29.12   30.14   24.88   61.78    0.31   -0.04    0.34  166.20
GS8    25.03   25.82   21.44   57.86    0.61   -0.31    0.69  331.31
GS9    21.56   22.29   18.50   54.33    0.34   -0.26    0.46  325.46
GS10   18.73   19.47   16.20   51.23   -0.17   -0.38    0.41  245.12
GS11   15.06   15.59   12.99   46.42    0.20   -0.41    0.45  296.62
GS12   12.10   12.57   10.49   42.09   -0.09   -0.45    0.47  257.97
GS13    9.55    9.88    8.28   37.61    0.26   -0.54    0.60  296.93
GS14    7.94    8.18    6.64   34.37    0.44    0.46    0.66   44.18
GS15    6.43    6.58    5.27   30.83    0.85    0.77    1.14   42.12
GS16    4.97    5.09    4.12   26.97    0.91    0.38    1.00   22.60
GS17    3.69    3.81    3.22   23.02    0.37   -0.59    0.70  301.96
GS18    2.53    2.64    2.18   18.55   -0.22    0.04    0.23  159.99
GS19    1.78    1.86    1.44   14.73   -0.23    1.00    1.02  103.54
GS20    1.23    1.27    0.90   11.10    0.04    2.21    2.21   89.12
GS21    1.01    1.04    0.72    9.36    0.12    2.70    2.70   87.43
GS22    0.81    0.81    0.62    7.36    0.83    1.00    1.30   50.32
GS23    0.43    0.43    0.50    3.84    0.72   -2.89    2.98  283.89
END_DATA
