lprof/data/targets/Agfa/Reflective/C81249XX.it8
IT8.7/2
ORIGINATOR "FotoTune"
DESCRIPTOR "Agfa IT8"
MATERIAL "Agfacolor"
MANUFACTURER "Agfa"
CREATED "Mon Apr 12 13:43:38 1999"
PROD_DATE "1999:04"
SERIAL "5x7 c81249xx"
NUMBER_OF_FIELDS 9
BEGIN_DATA_FORMAT
SAMPLE_ID XYZ_X XYZ_Y XYZ_Z LAB_L LAB_A LAB_B LAB_C LAB_H
END_DATA_FORMAT
NUMBER_OF_SETS 288
BEGIN_DATA
A1     2.98    2.51    1.94   17.94   10.55    1.16   10.61    6.31
A2     3.58    2.51    1.56   17.95   20.45    5.26   21.12   14.43
A3     4.89    2.96    1.59   19.90   30.45    8.29   31.56   15.23
A4     5.17    3.10    1.70   20.43   31.50    7.96   32.49   14.18
A5    10.73    9.37    7.13   36.69   13.41    2.40   13.63   10.14
A6    12.93    9.66    6.01   37.23   26.55    8.27   27.81   17.30
A7    15.80   10.11    5.26   38.04   40.68   13.30   42.80   18.10
A8    18.28   10.44    4.82   38.64   51.78   16.54   54.35   17.71
A9    39.94   38.78   30.95   68.59    8.17    1.57    8.32   10.87
A10   42.74   39.37   30.34   69.02   14.83    3.26   15.18   12.41
A11   45.83   39.93   29.09   69.42   22.10    5.95   22.88   15.07
A12   46.02   38.35   26.35   68.27   27.55    8.57   28.85   17.29
A13   75.25   78.02   67.56   90.79    0.11   -3.03    3.04  272.03
A14   75.64   77.94   67.54   90.75    1.05   -3.08    3.24  288.97
A15   75.46   78.12   64.93   90.84    0.34   -0.49    0.59  304.46
A16   74.31   76.87   64.60   90.26    0.44   -1.17    1.25  291.06
A17   74.99   77.36   64.80   90.49    0.87   -0.97    1.30  311.90
A18   74.63   77.46   64.85   90.53   -0.04   -0.94    0.94  267.89
A19   74.73   77.11   67.21   90.38    0.83   -3.43    3.53  283.59
A20    1.24    0.98    0.61    8.80   10.01    3.70   10.67   20.23
A21    4.64    2.80    0.69   19.24   29.96   20.19   36.12   33.99
A22    9.06    4.95    0.71   26.60   43.72   32.38   54.40   36.52
B1     2.86    2.52    1.50   18.01    8.16    6.03   10.15   36.44
B2     3.49    2.64    0.80   18.55   16.43   16.88   23.56   45.75
B3     4.22    2.84    0.74   19.37   23.76   19.36   30.65   39.18
B4     4.78    3.11    0.74   20.46   26.52   21.24   33.97   38.68
B5    11.01    9.63    5.35   37.17   13.38   11.33   17.52   40.25
B6    13.06    9.92    3.65   37.72   25.24   21.83   33.38   40.85
B7    15.56   10.12    2.19   38.06   39.25   33.51   51.61   40.49
B8    17.45   10.39    1.47   38.53   47.88   41.74   63.51   41.09
B9    40.01   39.26   28.90   68.94    6.86    5.44    8.76   38.44
B10   42.54   39.81   25.88   69.33   12.90   11.22   17.09   41.03
B11   45.61   40.51   23.47   69.83   19.69   16.41   25.63   39.81
B12   46.58   40.24   20.91   69.64   23.26   21.06   31.38   42.15
B13   66.76   72.02   65.93   87.99   -5.79   -6.35    8.59  227.64
B14   70.71   69.47   64.41   86.74    8.14   -7.07   10.77  319.01
B15   72.71   75.74   52.05   89.74   -0.60   10.74   10.75   93.21
B16   58.99   60.67   50.06   82.20    1.24   -0.04    1.25  178.33
B17   67.40   66.78   50.12   85.39    6.80    5.38    8.68   38.38
B18   63.89   69.46   51.39   86.74   -6.85    6.28    9.29  137.42
B19   61.92   63.18   62.19   83.54    2.39  -10.43   10.71  282.90
B20    2.81    1.95    0.69   15.23   19.36   13.35   23.51   34.60
B21    7.82    4.39    0.70   24.94   40.00   29.64   49.79   36.54
B22   28.46   24.06   13.09   56.15   21.99   16.08   27.25   36.17
C1     3.92    3.76    2.14   22.85    4.50    7.72    8.94   59.77
C2     4.23    3.82    1.22   23.08    7.99   18.36   20.02   66.50
C3     4.91    4.10    0.91   23.98   13.07   24.38   27.66   61.79
C4     5.03    4.18    0.94   24.28   13.28   24.54   27.90   61.56
C5    21.89   21.01    9.86   52.97    7.79   20.36   21.80   69.06
C6    24.49   21.47    5.35   53.46   17.29   39.42   43.04   66.31
C7    25.99   21.19    2.32   53.15   24.94   58.40   63.49   66.88
C8    28.07   21.84    1.71   53.86   30.31   65.51   72.18   65.18
C9    46.92   47.41   32.01   74.45    3.48   10.03   10.62   70.88
C10   49.74   48.68   26.42   75.25    7.70   20.48   21.88   69.38
C11   52.29   49.60   21.89   75.82   12.00   29.79   32.11   68.06
C12   52.11   48.38   17.72   75.07   14.81   37.22   40.06   68.31
C13   56.36   64.04   63.19   83.99  -12.87  -10.65   16.70  219.59
C14   63.95   58.90   59.50   81.24   16.99  -11.74   20.65  325.33
C15   70.40   73.43   42.31   88.65   -0.80   20.32   20.33   92.24
C16   44.17   45.60   37.31   73.28    0.67    0.39    0.77   29.77
C17   59.22   55.44   39.16   79.29   14.35    8.25   16.56   29.89
C18   52.21   60.10   41.18   81.90  -14.38   10.09   17.56  144.93
C19   48.06   48.50   55.43   75.14    3.65  -18.08   18.44  281.42
C20    1.75    1.46    0.69   12.33    9.42    8.36   12.59   41.61
C21   22.63   17.12    5.39   48.42   30.81   30.47   43.33   44.67
C22   35.38   32.53   19.85   63.78   14.12   13.12   19.27   42.89
D1     3.66    3.79    2.17   22.98   -0.09    7.69    7.69   90.63
D2     3.73    3.93    1.28   23.42   -0.78   18.05   18.06   92.47
D3     3.99    4.06    1.00   23.85    1.15   22.70   22.73   87.09
D4     4.05    4.12    1.01   24.08    1.00   22.95   22.97   87.51
D5    24.80   26.17   12.80   58.19   -1.76   20.42   20.49   94.94
D6    24.29   25.91    7.36   57.94   -2.89   38.12   38.24   94.34
D7    25.35   27.14    3.76   59.10   -3.34   58.00   58.09   93.29
D8    23.88   24.95    2.06   57.03   -0.71   67.43   67.43   90.60
D9    53.51   56.20   36.24   79.72   -1.68   12.98   13.09   97.38
D10   55.72   58.30   30.47   80.90   -1.18   23.56   23.59   92.88
D11   55.64   58.75   24.57   81.15   -2.43   33.91   34.00   94.10
D12   56.15   59.44   20.42   81.53   -2.80   42.56   42.65   93.76
D13   46.87   56.09   59.86   79.66  -19.17  -14.82   24.22  217.71
D14   57.10   49.12   54.07   75.52   25.42  -15.95   30.01  327.89
D15   68.18   70.99   33.90   87.48   -0.51   29.68   29.69   91.00
D16   31.83   32.88   27.31   64.07    0.51   -0.35    0.63  327.64
D17   51.01   44.91   28.99   72.83   21.57   12.01   24.68   29.11
D18   40.76   50.18   31.59   76.18  -21.99   13.67   25.90  148.15
D19   35.92   35.71   48.15   66.30    5.11  -25.28   25.80  281.42
D20   13.80   10.46    3.13   38.66   25.93   26.97   37.42   46.12
D21   22.24   21.44   13.66   53.43    7.41    9.87   12.35   53.08
D22   39.53   38.24   23.17   68.19    8.59   14.16   16.56   58.74
E1     3.24    3.72    2.20   22.70   -5.39    6.95    8.80  127.82
E2     2.90    3.63    1.29   22.42  -10.03   16.18   19.04  121.80
E3     3.05    3.97    1.07   23.58  -12.51   21.31   24.70  120.43
E4     3.04    3.97    1.08   23.57  -12.59   21.19   24.65  120.72
E5    11.09   12.70    6.82   42.31   -8.15   13.39   15.67  121.33
E6    10.32   12.98    4.63   42.72  -15.70   24.67   29.24  122.49
E7     9.68   13.35    2.61   43.29  -23.17   39.00   45.37  120.71
E8     9.53   13.85    1.88   44.02  -27.51   46.85   54.33  120.42
E9    35.30   38.67   25.47   68.51   -6.52   10.50   12.36  121.82
E10   34.82   39.42   22.22   69.05  -10.49   17.47   20.37  120.97
E11   34.11   40.15   19.07   69.57  -15.16   24.77   29.03  121.46
E12   33.21   40.47   15.94   69.80  -19.31   32.28   37.61  120.88
E13   39.93   49.94   56.76   76.04  -23.94  -17.92   29.91  216.81
E14   51.38   41.60   49.20   70.60   32.17  -19.08   37.40  329.33
E15   65.61   67.90   25.14   85.96    0.39   41.17   41.17   89.46
E16   23.24   24.00   19.56   56.08    0.49    0.48    0.72   46.01
E17   44.15   36.79   20.83   67.12   27.17   16.88   31.99   31.85
E18   32.10   41.98   23.60   70.85  -27.81   17.96   33.10  147.15
E19   27.58   26.92   41.94   58.90    6.62  -30.51   31.22  282.24
E20   22.39   15.21    1.29   45.92   40.44   56.72   69.65   54.51
E21   16.82   13.94    3.07   44.14   20.17   36.94   42.09   61.36
E22   29.15   25.32    9.00   57.39   19.28   30.94   36.45   58.08
F1     1.30    1.63    1.14   13.43   -7.75    2.65    8.19  161.12
F2     1.15    1.77    1.00   14.26  -16.20    6.31   17.39  158.73
F3     1.12    1.99    0.95   15.43  -22.43    9.05   24.19  158.04
F4     1.26    2.36    1.09   17.30  -25.81   10.19   27.75  158.45
F5     6.05    7.57    5.33   33.08  -12.84    4.35   13.56  161.32
F6     4.96    7.59    4.61   33.10  -25.69    8.18   26.97  162.32
F7     4.02    7.62    3.95   33.18  -38.57   12.14   40.43  162.53
F8     3.09    7.46    3.40   32.83  -51.57   15.10   53.73  163.68
F9    34.54   38.20   28.97   68.16   -7.64    3.97    8.61  152.49
F10   33.89   39.33   29.26   68.99  -13.44    4.94   14.31  159.83
F11   32.56   39.73   28.16   69.27  -19.34    7.24   20.65  159.49
F12   31.28   40.10   26.85   69.54  -25.14    9.89   27.01  158.52
F13   33.62   44.01   53.42   72.24  -28.33  -20.92   35.22  216.46
F14   46.47   35.60   44.80   66.21   37.75  -21.47   43.42  330.38
F15   64.01   65.80   20.30   84.90    1.36   48.61   48.63   88.40
F16   17.14   17.67   14.36   49.08    0.65    0.51    0.83   38.52
F17   39.34   31.33   15.55   62.79   31.32   21.16   37.78   34.04
F18   26.24   36.12   18.08   66.62  -32.06   21.83   38.79  145.74
F19   21.62   20.64   37.00   52.55    8.35  -34.94   35.93  283.44
F20   26.47   25.65   13.41   57.71    7.34   17.91   19.35   67.71
F21   33.79   31.23   11.91   62.71   13.32   30.77   33.53   66.60
F22   38.04   36.39   17.47   66.81    9.82   23.56   25.53   67.35
G1     2.01    2.51    2.46   17.97   -8.66   -3.41    9.31  201.49
G2     1.76    2.62    2.67   18.45  -16.87   -4.37   17.43  194.51
G3     1.67    2.93    3.15   19.75  -24.82   -5.74   25.47  193.01
G4     1.83    3.32    3.52   21.30  -27.48   -5.57   28.03  191.47
G5     8.12    9.95    8.64   37.76  -12.48   -1.59   12.59  187.26
G6     7.01   10.03    9.23   37.89  -23.56   -3.47   23.82  188.37
G7     5.74    9.91    9.49   37.68  -36.15   -4.72   36.45  187.43
G8     4.98   10.44   10.36   38.62  -49.26   -6.02   49.62  186.96
G9    33.97   37.77   30.52   67.85   -8.23    0.97    8.30  173.29
G10   32.53   38.21   32.33   68.17  -14.68   -1.27   14.73  184.96
G11   31.47   38.93   33.02   68.70  -20.81   -1.38   20.85  183.80
G12   30.44   39.86   34.78   69.37  -27.47   -2.81   27.62  185.84
G13   27.32   37.75   49.58   67.83  -32.90  -24.27   40.89  216.43
G14   40.32   28.56   39.04   60.40   44.66  -24.18   50.78  331.57
G15   61.60   62.58   14.35   83.22    3.01   59.43   59.51   87.10
G16   10.95   11.30    9.15   40.08    0.45    0.58    0.74   51.45
G17   33.21   24.58   10.59   56.67   37.29   24.40   44.57   33.19
G18   19.89   29.51   13.49   61.23  -37.42   23.76   44.33  147.58
G19   14.77   13.55   30.41   43.58   10.74  -40.71   42.10  284.79
G20   36.53   35.90   16.35   66.44    6.47   25.51   26.32   75.77
G21   34.62   33.88   10.35   64.87    6.86   39.30   39.90   80.09
G22   43.11   40.17    2.85   69.60   13.47   82.43   83.51   80.72
H1     2.20    2.53    3.01   18.06   -4.89   -7.68    9.10  237.52
H2     2.03    2.64    3.94   18.55  -10.93  -13.02   17.00  229.99
H3     1.84    2.63    4.99   18.50  -15.11  -19.06   24.33  231.58
H4     2.14    3.12    6.39   20.53  -16.72  -22.30   27.87  233.14
H5     8.76   10.05   10.66   37.94   -7.64   -8.15   11.16  226.84
H6     8.10   10.32   13.62   38.42  -15.49  -15.91   22.21  225.76
H7     7.18   10.11   17.26   38.04  -22.58  -25.58   34.11  228.57
H8     6.84   10.38   21.03   38.51  -27.91  -32.84   43.10  229.64
H9    34.72   38.11   34.26   68.10   -6.72   -4.24    7.95  212.26
H10   33.90   38.32   37.77   68.26  -10.23   -8.91   13.57  221.05
H11   34.14   39.97   45.40   69.45  -14.52  -16.60   22.06  228.82
H12   33.44   40.08   49.79   69.53  -17.31  -21.60   27.67  231.29
H13   22.46   32.61   46.06   63.85  -36.48  -27.06   45.42  216.56
H14   34.76   22.69   33.67   54.75   50.97  -26.40   57.40  332.61
H15   59.60   59.84   10.57   81.75    4.62   67.73   67.88   86.09
H16    7.20    7.39    5.99   32.68    0.72    0.49    0.88   33.63
H17   28.10   19.35    6.89   51.10   42.32   28.24   50.88   33.71
H18   15.19   24.22    9.54   56.31  -41.60   27.21   49.71  146.82
H19   10.74    9.23   25.51   36.43   14.65  -44.90   47.22  288.07
H20   41.33   42.57   16.76   71.26    0.92   32.86   32.88   88.40
H21   32.14   33.60   22.95   64.65   -0.88    8.45    8.49   95.92
H22   34.51   38.07   12.04   68.07   -7.31   39.64   40.30  100.46
I1     3.48    3.55    4.72   22.12    0.95  -11.36   11.40  274.74
I2     3.57    3.58    7.35   22.22    2.03  -23.42   23.51  274.93
I3     3.78    3.72   10.61   22.69    3.16  -34.26   34.41  275.27
I4     4.05    3.82   14.52   23.08    5.33  -44.75   45.06  276.79
I5    12.51   12.92   13.28   42.65    0.42   -7.72    7.72  273.10
I6    12.60   12.89   17.35   42.59    1.21  -17.93   17.98  273.89
I7    12.66   12.76   21.89   42.41    2.36  -27.81   27.92  274.84
I8    13.25   13.19   26.55   43.04    3.57  -35.27   35.45  275.79
I9    36.58   38.04   34.25   68.05   -0.26   -4.31    4.32  266.47
I10   37.33   38.65   38.44   68.49    0.28   -9.40    9.40  271.71
I11   37.92   39.17   44.56   68.88    0.54  -16.58   16.58  271.88
I12   38.38   39.44   49.50   69.07    1.14  -22.05   22.07  272.97
I13   18.76   28.46   42.85   60.30  -39.08  -29.24   48.82  216.80
I14   30.91   18.96   29.83   50.64   55.00  -27.61   61.55  333.34
I15   57.83   57.43    8.10   80.43    6.11   73.94   74.19   85.28
I16    4.85    4.94    4.13   26.55    1.20   -0.35    1.25  343.76
I17   24.53   15.99    4.61   46.96   45.49   32.10   55.68   35.22
I18   11.96   20.27    6.88   52.14  -44.32   30.11   53.58  145.80
I19    7.94    6.34   21.57   30.26   18.20  -48.15   51.47  290.71
I20   41.63   46.09   17.44   73.60   -8.28   35.31   36.26  103.19
I21   11.32   15.26    3.97   45.99  -22.38   34.17   40.85  123.23
I22   28.15   36.29   18.50   66.74  -24.91   21.14   32.67  139.70
J1     1.77    1.62    2.62   13.32    5.57  -12.80   13.95  293.49
J2     2.05    1.65    4.28   13.57   11.24  -23.60   26.15  295.46
J3     2.52    1.71    7.26   13.90   19.55  -37.44   42.23  297.58
J4     2.82    1.71    9.97   13.89   25.42  -47.36   53.75  298.21
J5    10.12    9.84   10.85   37.56    5.07   -9.38   10.66  298.40
J6    10.77    9.78   14.18   37.46   10.41  -19.06   21.72  298.65
J7    11.37    9.69   18.25   37.29   15.52  -29.12   33.00  298.08
J8    12.22    9.99   21.50   37.82   19.20  -34.98   39.90  298.77
J9    37.89   38.47   34.83   68.36    2.62   -4.61    5.31  299.71
J10   39.08   38.96   38.89   68.72    4.89   -9.61   10.78  296.99
J11   40.57   39.05   44.43   68.79    9.24  -16.57   18.97  299.14
J12   41.21   38.80   48.89   68.60   11.98  -22.15   25.19  298.41
J13   13.74   22.33   37.60   54.37  -42.07  -32.61   53.22  217.78
J14   26.67   15.19   25.51   45.89   59.01  -28.55   65.56  334.18
J15   55.78   54.72    6.09   78.88    7.68   79.68   80.05   84.49
J16    2.43    2.51    2.20   17.95    0.28   -1.22    1.26  283.30
J17   20.29   12.25    2.71   41.61   49.11   35.25   60.45   35.67
J18    7.38   14.32    4.32   44.68  -49.25   29.75   57.53  148.86
J19    4.97    3.57   16.83   22.19   21.56  -51.92   56.22  292.54
J20   29.73   38.29   24.49   68.24  -25.26   11.81   27.89  154.95
J21    3.78    7.18    1.47   32.20  -37.81   30.90   48.83  140.74
J22    1.00    1.62    0.81   13.31  -17.17    7.76   18.84  155.68
K1     4.45    3.76    4.47   22.86   11.92   -8.70   14.76  323.88
K2     5.65    3.93    6.61   23.44   24.24  -18.23   30.33  323.05
K3     7.05    4.12    9.33   24.08   36.36  -27.63   45.67  322.77
K4     8.19    4.26   12.25   24.50   45.26  -36.11   57.90  321.42
K5    14.11   12.99   13.45   42.75   10.28   -7.97   13.01  322.21
K6    16.06   13.03   16.87   42.82   21.66  -16.45   27.19  322.78
K7    18.23   13.23   20.93   43.10   32.22  -24.73   40.61  322.49
K8    21.19   13.78   26.17   43.92   43.47  -33.10   54.64  322.71
K9    39.96   39.40   35.31   69.04    6.28   -4.14    7.52  326.68
K10   42.60   39.47   38.74   69.09   14.12   -8.77   16.63  328.16
K11   46.07   40.68   44.94   69.95   20.47  -15.18   25.49  323.42
K12   48.49   40.92   48.11   70.12   26.45  -18.65   32.36  324.83
K13   11.59   19.42   34.81   51.17  -42.72  -34.22   54.74  218.70
K14   22.00   11.50   20.74   40.42   62.36  -28.97   68.76  335.09
K15   48.31   45.28    2.82   73.08   13.23   88.68   89.66   81.51
K16    1.26    1.31    1.02   11.32   -0.05    0.81    0.81   93.81
K17   16.84    9.60    1.33   37.11   50.62   41.11   65.21   39.08
K18    4.52    9.58    2.13   37.07  -48.57   32.40   58.38  146.29
K19    3.34    2.03   13.12   15.68   26.56  -53.75   59.96  296.29
K20    2.34    3.07    2.09   20.30  -11.76    3.82   12.36  161.97
K21    1.20    1.63    1.52   13.42  -10.80   -2.12   11.01  191.14
K22    1.57    2.00    3.12   15.51   -9.00  -12.85   15.69  234.99
L1     3.15    2.59    2.53   18.33   11.86   -3.38   12.33  344.08
L2     3.89    2.66    2.68   18.62   22.26   -4.20   22.65  349.31
L3     5.30    3.14    3.53   20.58   32.49   -6.87   33.20  348.05
L4     5.91    3.39    4.26   21.55   35.32   -9.73   36.64  344.60
L5    11.59   10.00    9.19   37.83   14.80   -3.44   15.19  346.92
L6    14.24   10.41   10.44   38.56   29.17   -6.36   29.86  347.69
L7    17.35   10.66   11.19   38.99   45.33   -7.97   46.03  350.02
L8    19.31   11.12   11.95   39.79   52.11   -8.87   52.87  350.34
L9    40.86   39.61   33.85   69.19    8.40   -1.76    8.59  348.18
L10   42.90   39.47   34.68   69.09   15.00   -3.15   15.33  348.12
L11   46.47   40.24   35.60   69.64   22.89   -3.49   23.15  351.34
L12   47.76   39.51   36.50   69.12   28.77   -5.65   29.32  348.88
L13    7.93   13.78   28.63   43.91  -40.78  -37.28   55.25  222.43
L14   17.21    8.26   15.97   34.53   63.78  -28.59   69.90  335.85
L15   44.47   40.78    2.30   70.02   15.57   87.65   89.02   79.93
L16    0.47    0.47    0.54    4.33    0.63   -2.80    2.88  282.65
L17   12.84    6.80    0.75   31.34   51.25   39.83   64.91   37.85
L18    2.78    6.47    1.49   30.56  -47.48   27.86   55.06  149.59
L19    1.98    0.94    8.89    8.45   31.40  -53.03   61.62  300.63
L20    0.67    0.76    0.75    6.89   -2.90   -2.18    3.63  216.92
L21    0.83    0.75    0.84    6.80    4.27   -4.05    5.89  316.48
L22    1.97    1.54    1.42   12.88   12.15   -1.92   12.30  351.03
GS0    76.39   78.96   68.15   91.21    0.60   -2.85    2.91  281.85
GS1    71.53   73.74   62.09   88.81    0.95   -1.26    1.59  306.89
GS2    60.71   62.50   52.47   83.18    1.12   -1.03    1.52  317.24
GS3    51.96   53.50   44.53   78.18    1.02   -0.50    1.13  333.98
GS4    46.41   48.07   39.29   74.86    0.22    0.45    0.50   63.74
GS5    39.60   41.10   33.74   70.24   -0.05    0.22    0.23  109.20
GS6    33.62   34.93   28.34   65.70   -0.17    0.76    0.79  103.40
GS7    29.13   30.23   24.78   61.85    0.00    0.26    0.29   71.13
GS8    24.95   25.84   21.28   57.88    0.20    0.05    0.22  179.63
GS9    21.49   22.31   18.40   54.35   -0.08   -0.03    0.09  219.11
GS10   18.61   19.40   16.04   51.15   -0.44   -0.11    0.46  194.64
GS11   14.86   15.43   12.80   46.22   -0.08   -0.22    0.26  248.47
GS12   11.96   12.49   10.44   42.00   -0.62   -0.44    0.75  215.04
GS13    9.45    9.84    8.27   37.56   -0.28   -0.61    0.67  245.36
GS14    7.79    8.08    6.59   34.13    0.11    0.29    0.31   71.31
GS15    6.27    6.46    5.28   30.54    0.42    0.21    0.47   26.22
GS16    4.89    5.05    4.16   26.87    0.37   -0.03    0.38  173.02
GS17    3.56    3.68    3.16   22.60    0.15   -0.89    0.91  279.51
GS18    2.47    2.57    2.22   18.26   -0.38   -0.82    0.92  245.01
GS19    1.74    1.82    1.47   14.51   -0.46    0.38    0.60  140.93
GS20    1.21    1.25    0.93   10.98   -0.32    1.76    1.79  100.40
GS21    0.99    1.03    0.73    9.25   -0.17    2.28    2.30   94.24
GS22    0.78    0.79    0.62    7.14    0.69    0.68    0.96   44.61
GS23    0.44    0.44    0.52    4.03    0.56   -2.88    2.93  280.98
END_DATA
