lprof/data/targets/Agfa/Reflective/C81243XX.it8
IT8.7/2
ORIGINATOR "FotoTune"
DESCRIPTOR "Agfa IT8"
MATERIAL "Agfacolor"
MANUFACTURER "Agfa"
CREATED "Mon Apr 12 13:11:23 1999"
PROD_DATE "1999:04"
SERIAL "5x7 c81243xx"
NUMBER_OF_FIELDS 9
BEGIN_DATA_FORMAT
SAMPLE_ID XYZ_X XYZ_Y XYZ_Z LAB_L LAB_A LAB_B LAB_C LAB_H
END_DATA_FORMAT
NUMBER_OF_SETS 288
BEGIN_DATA
A1     3.07    2.57    2.00   18.26   10.88    1.20   10.94    6.31
A2     3.66    2.54    1.58   18.10   21.05    5.34   21.72   14.24
A3     4.88    2.92    1.60   19.73   30.97    7.85   31.94   14.22
A4     5.14    3.05    1.71   20.23   32.06    7.61   32.96   13.35
A5    10.76    9.35    7.30   36.67   13.73    1.65   13.82    6.89
A6    13.07    9.74    6.33   37.36   26.93    7.01   27.83   14.57
A7    15.81   10.09    5.47   38.00   40.94   12.13   42.70   16.50
A8    18.25   10.44    5.00   38.63   51.64   15.60   53.94   16.81
A9    39.72   38.57   32.05   68.44    8.11   -0.38    8.12  357.36
A10   42.69   39.25   31.03   68.93   15.05    2.04   15.18    7.74
A11   45.73   39.86   29.65   69.37   22.01    4.95   22.56   12.69
A12   46.08   38.37   27.55   68.29   27.65    6.55   28.42   13.32
A13   75.02   77.78   67.15   90.68    0.11   -2.85    2.85  272.24
A14   75.18   77.40   67.03   90.50    1.20   -3.03    3.26  291.61
A15   75.15   77.76   65.13   90.67    0.40   -0.97    1.05  292.62
A16   74.11   76.59   64.74   90.13    0.60   -1.53    1.64  291.42
A17   74.83   77.13   64.99   90.39    1.01   -1.34    1.67  307.17
A18   74.58   77.37   65.15   90.49    0.03   -1.29    1.29  271.23
A19   74.40   76.75   66.73   90.21    0.89   -3.27    3.39  285.27
A20    1.27    1.00    0.63    9.01   10.45    3.55   11.04   18.67
A21    4.65    2.79    0.69   19.17   30.38   19.94   36.34   33.28
A22    8.95    4.87    0.72   26.36   43.90   31.94   54.29   36.03
B1     2.95    2.59    1.55   18.35    8.34    6.05   10.30   35.97
B2     3.57    2.69    0.85   18.74   16.76   16.51   23.53   44.57
B3     4.32    2.88    0.75   19.57   24.21   19.47   31.06   38.80
B4     4.86    3.16    0.76   20.65   26.75   21.23   34.15   38.43
B5    11.20    9.72    5.47   37.32   14.12   10.98   17.90   37.85
B6    13.22   10.03    3.78   37.90   25.51   21.30   33.24   39.86
B7    15.43   10.05    2.24   37.93   39.06   32.88   51.06   40.10
B8    17.38   10.35    1.49   38.47   47.73   41.46   63.22   40.97
B9    39.70   38.95   29.28   68.71    6.88    4.43    8.18   32.78
B10   42.42   39.64   26.48   69.21   13.02    9.95   16.40   37.40
B11   45.44   40.38   23.88   69.74   19.59   15.51   24.99   38.38
B12   46.43   40.04   21.46   69.50   23.44   19.71   30.63   40.06
B13   66.19   71.49   65.38   87.73   -5.93   -6.28    8.64  226.67
B14   69.96   68.55   63.67   86.28    8.50   -7.14   11.09  319.94
B15   72.40   75.38   52.29   89.57   -0.54   10.18   10.19   93.03
B16   58.64   60.13   50.76   81.91    1.65   -1.34    2.12  320.96
B17   67.04   66.26   50.45   85.13    7.11    4.57    8.45   32.76
B18   63.56   69.11   51.74   86.56   -6.86    5.60    8.85  140.77
B19   61.42   62.75   61.66   83.31    2.21  -10.32   10.55  282.10
B20    2.89    2.00    0.70   15.47   19.76   13.38   23.86   34.08
B21    7.82    4.38    0.73   24.88   40.17   29.15   49.64   35.97
B22   28.33   24.05   13.51   56.13   21.52   14.94   26.20   34.79
C1     3.95    3.76    2.14   22.85    4.88    7.76    9.17   57.84
C2     4.30    3.85    1.22   23.15    8.51   18.39   20.26   65.18
C3     4.99    4.14    0.94   24.11   13.55   24.02   27.58   60.57
C4     5.07    4.19    0.94   24.28   13.76   24.39   28.01   60.57
C5    21.73   20.81   10.08   52.74    8.02   19.26   20.86   67.39
C6    24.21   21.16    5.35   53.11   17.54   38.83   42.60   65.68
C7    25.45   20.76    2.32   52.68   24.75   57.53   62.64   66.72
C8    27.68   21.49    1.68   53.47   30.42   65.15   71.90   64.96
C9    46.51   46.77   32.31   74.04    4.04    8.91    9.78   65.60
C10   48.93   47.81   26.67   74.69    7.92   19.09   20.67   67.48
C11   51.91   49.14   22.35   75.54   12.27   28.38   30.92   66.63
C12   51.60   47.72   17.89   74.65   15.29   36.10   39.21   67.04
C13   56.01   63.67   62.65   83.79  -12.89  -10.44   16.58  219.01
C14   63.25   58.06   58.85   80.77   17.41  -11.90   21.08  325.66
C15   70.18   73.15   42.87   88.52   -0.71   19.39   19.40   92.10
C16   43.43   44.74   37.50   72.72    0.92   -0.84    1.25  317.64
C17   58.47   54.41   39.21   78.70   15.07    7.18   16.69   25.47
C18   51.77   59.67   41.53   81.67  -14.51    9.24   17.20  147.51
C19   47.14   47.50   54.78   74.51    3.84  -18.48   18.88  281.73
C20    1.77    1.46    0.70   12.34    9.80    8.02   12.66   39.31
C21   22.16   16.76    5.52   47.94   30.68   29.06   42.26   43.44
C22   35.10   32.33   20.43   63.61   13.91   11.65   18.14   39.93
D1     3.62    3.74    2.16   22.80    0.22    7.45    7.46   88.28
D2     3.65    3.82    1.24   23.06   -0.33   17.95   17.96   91.01
D3     4.03    4.03    1.00   23.77    2.02   22.57   22.66   84.89
D4     4.11    4.16    1.02   24.20    1.39   23.06   23.09   86.53
D5    24.62   25.94   12.98   57.98   -1.60   19.56   19.63   94.68
D6    23.95   25.51    7.53   57.57   -2.76   36.79   36.89   94.29
D7    25.07   26.69    3.77   58.68   -2.75   57.24   57.30   92.75
D8    23.92   24.91    2.03   56.99   -0.39   67.64   67.65   90.33
D9    53.29   55.94   36.90   79.58   -1.59   11.81   11.91   97.65
D10   55.31   57.75   30.83   80.60   -0.88   22.45   22.47   92.22
D11   55.12   58.16   25.02   80.82   -2.34   32.54   32.62   94.10
D12   56.31   59.53   20.85   81.58   -2.62   41.76   41.85   93.59
D13   47.06   56.22   59.51   79.74  -18.95  -14.34   23.76  217.12
D14   56.61   48.62   53.69   75.21   25.56  -16.10   30.20  327.79
D15   68.06   70.83   34.51   87.40   -0.46   28.68   28.68   90.93
D16   31.81   32.72   27.75   63.93    1.00   -1.30    1.64  307.48
D17   50.74   44.55   29.53   72.60   21.85   10.72   24.34   26.13
D18   41.08   50.43   32.29   76.33  -21.70   12.85   25.23  149.36
D19   35.72   35.37   47.83   66.04    5.55  -25.35   25.95  282.35
D20   13.82   10.46    3.28   38.65   26.08   25.97   36.80   44.89
D21   22.32   21.45   13.95   53.44    7.73    9.09   11.93   49.62
D22   39.07   37.78   23.75   67.85    8.61   12.50   15.18   55.43
E1     3.30    3.74    2.22   22.79   -4.93    6.90    8.48  125.56
E2     2.95    3.64    1.31   22.45   -9.31   16.03   18.53  120.15
E3     3.19    4.11    1.09   24.03  -11.98   21.70   24.78  118.92
E4     3.18    4.11    1.09   24.03  -12.23   21.72   24.92  119.39
E5    11.23   12.79    7.07   42.44   -7.71   12.57   14.74  121.54
E6    10.66   13.28    4.84   43.18  -15.06   24.33   28.61  121.75
E7     9.84   13.47    2.66   43.46  -22.57   38.81   44.90  120.18
E8     9.81   14.09    1.88   44.35  -26.70   47.32   54.33  119.44
E9    35.35   38.48   26.13   68.38   -5.81    9.11   10.81  122.53
E10   34.85   39.35   23.17   69.00  -10.16   15.57   18.59  123.16
E11   34.71   40.49   19.77   69.82  -14.16   23.70   27.61  120.87
E12   33.64   40.79   16.55   70.03  -18.76   31.22   36.43  121.01
E13   40.40   50.35   56.72   76.29  -23.60  -17.44   29.34  216.46
E14   51.17   41.44   49.08   70.49   32.08  -19.13   37.35  329.19
E15   65.73   68.04   26.07   86.02    0.36   39.67   39.67   89.49
E16   23.55   24.22   20.03   56.31    0.90   -0.14    0.91  350.77
E17   44.27   36.92   21.44   67.22   27.08   15.83   31.37   30.30
E18   32.36   42.28   24.33   71.06  -27.75   16.95   32.52  148.58
E19   27.72   27.01   41.99   58.99    6.84  -30.44   31.20  282.66
E20   22.37   15.27    1.30   46.00   40.03   56.72   69.43   54.79
E21   17.17   14.22    3.22   44.53   20.38   36.50   41.81   60.82
E22   29.10   25.38    9.47   57.45   18.89   29.42   34.97   57.31
F1     1.35    1.67    1.17   13.66   -7.31    2.74    7.81  159.57
F2     1.19    1.82    1.00   14.51  -15.82    6.59   17.14  157.41
F3     1.16    2.04    0.97   15.67  -22.03    9.15   23.86  157.45
F4     1.31    2.43    1.12   17.60  -25.58   10.21   27.54  158.24
F5     6.32    7.85    5.66   33.67  -12.47    3.74   13.01  163.30
F6     5.24    7.89    4.88   33.77  -25.08    7.86   26.28  162.61
F7     4.23    7.90    4.15   33.78  -38.22   11.95   40.05  162.64
F8     3.15    7.53    3.53   32.99  -51.30   14.51   53.31  164.20
F9    34.86   38.32   30.27   68.26   -6.94    2.07    7.25  163.41
F10   34.26   39.45   29.69   69.07  -12.52    4.40   13.26  160.61
F11   33.36   40.39   29.55   69.75  -18.53    5.77   19.40  162.71
F12   31.75   40.49   27.90   69.82  -24.57    8.58   26.02  160.76
F13   34.20   44.59   53.60   72.62  -28.01  -20.45   34.68  216.14
F14   46.57   35.76   45.01   66.33   37.45  -21.51   43.18  330.14
F15   64.19   66.06   21.32   85.03    1.20   46.76   46.78   88.53
F16   17.75   18.26   15.25   49.80    0.86   -0.50    1.00  331.55
F17   39.47   31.42   16.38   62.86   31.40   19.25   36.83   31.51
F18   26.86   36.78   18.89   67.10  -31.60   20.90   37.90  146.52
F19   21.97   20.91   37.22   52.85    8.65  -34.71   35.77  283.99
F20   26.78   25.89   14.11   57.93    7.61   16.43   18.12   65.15
F21   33.96   31.50   12.72   62.92   12.96   28.82   31.59   65.79
F22   38.28   36.58   18.38   66.96    9.96   21.78   23.95   65.43
G1     2.09    2.57    2.50   18.24   -8.17   -3.36    8.84  202.36
G2     1.84    2.71    2.83   18.85  -16.71   -4.88   17.41  196.27
G3     1.68    2.94    3.23   19.81  -24.56   -6.21   25.33  194.20
G4     1.86    3.36    3.60   21.44  -27.26   -5.88   27.89  192.17
G5     8.39   10.13    9.02   38.07  -11.52   -2.41   11.77  191.82
G6     7.27   10.27    9.59   38.31  -22.81   -4.00   23.15  189.94
G7     5.97   10.20    9.90   38.19  -35.75   -5.22   36.12  188.31
G8     5.14   10.64   10.88   38.97  -48.79   -7.03   49.30  188.20
G9    34.22   37.78   31.29   67.86   -7.43   -0.21    7.43  181.61
G10   33.10   38.51   33.17   68.39  -13.61   -2.13   13.78  188.92
G11   32.15   39.43   33.96   69.07  -19.89   -2.13   20.01  186.12
G12   31.09   40.46   35.65   69.79  -26.89   -3.32   27.09  187.05
G13   27.99   38.46   49.83   68.35  -32.47  -23.66   40.18  216.09
G14   40.36   28.65   39.28   60.47   44.50  -24.36   50.72  331.29
G15   61.60   62.62   14.88   83.24    2.92   58.08   58.17   87.12
G16   11.24   11.50    9.60   40.41    1.09   -0.40    1.18  340.93
G17   33.35   24.69   11.16   56.77   37.33   22.78   43.74   31.39
G18   20.49   30.15   13.94   61.78  -36.82   23.53   43.69  147.41
G19   15.23   13.91   30.74   44.10   11.25  -40.31   41.84  285.60
G20   36.35   35.68   16.87   66.27    6.64   23.99   24.90   74.54
G21   34.65   33.90   10.88   64.89    6.89   37.64   38.27   79.64
G22   43.33   40.42    2.89   69.76   13.36   82.42   83.49   80.79
H1     2.30    2.62    3.12   18.42   -4.31   -7.84    8.95  241.20
H2     2.13    2.74    4.09   18.98  -10.53  -13.15   16.85  231.33
H3     1.88    2.65    5.17   18.60  -14.49  -19.79   24.52  233.79
H4     2.20    3.14    6.60   20.58  -15.92  -23.10   28.06  235.43
H5     9.13   10.35   11.00   38.46   -6.80   -8.32   10.75  230.70
H6     8.45   10.61   13.98   38.92  -14.60  -16.00   21.65  227.62
H7     7.42   10.32   17.72   38.40  -21.81  -26.01   33.94  230.01
H8     7.02   10.56   21.41   38.83  -27.45  -33.06   42.97  230.30
H9    34.73   37.89   34.40   67.93   -5.99   -4.74    7.64  218.32
H10   34.30   38.52   38.94   68.40   -9.48  -10.23   13.94  227.20
H11   34.57   40.14   45.78   69.57  -13.59  -16.85   21.65  231.11
H12   33.80   40.33   49.90   69.71  -16.83  -21.40   27.22  231.82
H13   23.03   33.25   46.22   64.35  -36.08  -26.35   44.67  216.15
H14   34.76   22.74   33.88   54.79   50.76  -26.62   57.32  332.32
H15   59.53   59.78   10.85   81.72    4.58   66.74   66.90   86.07
H16    7.43    7.57    6.28   33.08    1.28   -0.18    1.30  173.83
H17   28.19   19.44    7.14   51.21   42.21   27.41   50.33   33.00
H18   15.66   24.73    9.95   56.81  -40.99   26.70   48.93  146.92
H19   10.95    9.42   25.73   36.78   14.72  -44.67   47.03  288.23
H20   40.85   42.06   17.27   70.91    0.98   31.06   31.08   88.21
H21   32.27   33.64   23.58   64.68   -0.58    7.32    7.34   94.49
H22   34.54   38.10   12.57   68.09   -7.28   38.16   38.85  100.80
I1     3.78    3.80    5.16   22.99    1.76  -12.18   12.31  278.25
I2     3.88    3.82    7.95   23.05    3.05  -24.42   24.61  277.12
I3     4.03    3.93   11.11   23.42    3.57  -34.55   34.74  275.89
I4     4.23    3.99   15.08   23.64    5.54  -45.17   45.50  276.99
I5    13.11   13.48   14.12   43.47    0.83   -8.53    8.58  275.57
I6    13.07   13.28   18.19   43.19    1.75  -18.82   18.90  275.29
I7    13.07   13.12   22.59   42.94    2.78  -28.27   28.40  275.61
I8    13.78   13.65   27.46   43.72    4.03  -35.67   35.89  276.44
I9    36.69   38.10   35.25   68.10   -0.10   -5.69    5.69  268.88
I10   37.86   39.09   39.99   68.82    0.62  -10.90   10.92  273.27
I11   38.44   39.49   45.22   69.10    1.21  -16.97   17.01  274.08
I12   38.51   39.49   49.60   69.10    1.47  -22.10   22.15  273.78
I13   19.45   29.28   43.29   61.03  -38.72  -28.55   48.10  216.40
I14   31.27   19.31   30.41   51.04   54.58  -27.83   61.27  332.99
I15   58.07   57.78    8.62   80.62    5.85   72.35   72.58   85.38
I16    5.19    5.26    4.47   27.45    1.61   -0.73    1.76  335.43
I17   24.88   16.30    5.04   47.36   45.24   30.45   54.53   33.94
I18   12.62   21.10    7.47   53.05  -43.71   29.26   52.60  146.20
I19    8.23    6.59   21.96   30.86   18.20  -47.87   51.22  290.82
I20   41.75   46.24   18.57   73.70   -8.27   32.96   33.98  104.10
I21   11.94   15.93    4.26   46.90  -21.78   33.95   40.34  122.68
I22   28.66   36.78   19.68   67.10  -24.48   19.22   31.13  141.85
J1     1.94    1.75    2.86   14.11    6.09  -13.26   14.59  294.67
J2     2.20    1.75    4.59   14.09   12.09  -24.49   27.32  296.27
J3     2.71    1.84    7.69   14.58   20.16  -37.97   43.00  297.97
J4     2.99    1.80   10.40   14.40   26.02  -47.88   54.49  298.52
J5    10.51   10.16   11.51   38.14    5.48  -10.39   11.74  297.82
J6    11.24   10.16   14.74   38.13   10.99  -19.35   22.26  299.58
J7    12.03   10.20   19.41   38.21   16.23  -30.03   34.14  298.38
J8    12.69   10.34   22.37   38.43   19.72  -35.62   40.72  298.96
J9    38.32   38.85   36.03   68.65    2.81   -5.84    6.48  295.73
J10   39.33   38.99   40.22   68.75    5.55  -11.34   12.62  296.10
J11   41.07   39.46   44.97   69.08    9.52  -16.72   19.24  299.66
J12   41.48   39.02   49.10   68.77   12.12  -22.11   25.22  298.73
J13   14.12   22.85   37.89   54.92  -42.06  -32.07   52.88  217.32
J14   26.72   15.24   25.80   45.97   58.92  -28.94   65.64  333.85
J15   56.07   55.12    6.47   79.11    7.44   78.35   78.70   84.57
J16    2.64    2.70    2.37   18.80    0.77   -1.27    1.49  301.42
J17   20.51   12.44    2.91   41.92   48.86   34.24   59.66   35.02
J18    7.80   14.87    4.52   45.46  -48.67   30.03   57.18  148.32
J19    5.23    3.78   17.26   22.90   21.52  -51.68   55.99  292.61
J20   30.76   39.29   26.11   68.96  -24.53   10.16   26.56  157.50
J21    4.06    7.56    1.49   33.06  -37.49   32.08   49.34  139.45
J22    1.08    1.73    0.84   14.00  -17.51    8.42   19.43  154.33
K1     4.64    3.91    4.70   23.37   12.26   -9.06   15.24  323.54
K2     5.77    3.98    6.88   23.60   24.82  -19.10   31.32  322.41
K3     7.18    4.19    9.51   24.30   36.71  -27.90   46.10  322.77
K4     8.24    4.26   12.39   24.49   45.79  -36.51   58.57  321.43
K5    14.45   13.27   13.88   43.18   10.56   -8.41   13.50  321.47
K6    16.45   13.35   17.44   43.28   21.83  -16.94   27.64  322.18
K7    18.48   13.38   21.44   43.33   32.55  -25.35   41.26  322.10
K8    21.17   13.77   26.46   43.90   43.48  -33.66   54.99  322.26
K9    39.74   38.97   35.79   68.73    6.90   -5.35    8.74  322.25
K10   42.49   39.44   39.34   69.07   13.87   -9.60   16.87  325.30
K11   46.03   40.63   45.01   69.92   20.49  -15.32   25.58  323.21
K12   48.39   40.95   48.42   70.14   26.10  -18.97   32.26  323.99
K13   11.80   19.74   34.94   51.54  -42.88  -33.76   54.57  218.21
K14   21.96   11.49   20.84   40.39   62.33  -29.24   68.84  334.87
K15   48.17   45.14    2.80   72.99   13.24   88.62   89.61   81.51
K16    1.30    1.34    1.06   11.53    0.22    0.61    0.66   67.49
K17   16.88    9.63    1.38   37.17   50.56   40.58   64.83   38.75
K18    4.68    9.80    2.13   37.47  -48.08   33.06   58.35  145.49
K19    3.43    2.11   13.32   16.03   26.47  -53.69   59.85  296.24
K20    2.45    3.20    2.17   20.81  -11.61    4.02   12.29  160.93
K21    1.26    1.70    1.60   13.85  -10.71   -2.17   10.93  191.54
K22    1.65    2.09    3.30   15.95   -8.72  -13.31   15.91  236.79
L1     3.42    2.80    2.66   19.24   12.42   -2.93   12.76  346.72
L2     4.16    2.84    2.93   19.41   22.79   -4.66   23.26  348.45
L3     5.47    3.22    3.78   20.89   33.22   -8.03   34.17  346.41
L4     6.13    3.49    4.54   21.92   36.14  -10.68   37.68  343.53
L5    12.08   10.40    9.84   38.54   15.09   -4.41   15.73  343.72
L6    14.94   10.99   11.13   39.57   29.07   -6.77   29.85  346.89
L7    17.71   10.94   11.90   39.47   45.12   -9.27   46.07  348.40
L8    19.57   11.32   12.63   40.11   52.02  -10.28   53.03  348.82
L9    41.24   40.03   34.99   69.49    8.25   -2.89    8.75  340.70
L10   43.76   40.40   36.13   69.75   14.66   -4.06   15.21  344.52
L11   47.18   41.11   36.88   70.25   22.28   -4.25   22.68  349.21
L12   48.58   40.33   38.21   69.70   28.53   -7.01   29.38  346.20
L13    7.97   13.86   28.58   44.03  -40.94  -36.97   55.15  222.08
L14   16.92    8.12   15.90   34.23   63.49  -28.95   69.77  335.48
L15   44.64   41.00    2.30   70.18   15.41   87.88   89.23   80.04
L16    0.49    0.49    0.56    4.39    0.74   -3.14    3.23  283.21
L17   12.86    6.84    0.78   31.44   51.08   39.47   64.55   37.69
L18    2.88    6.65    1.49   30.99  -47.31   28.52   55.24  148.91
L19    1.98    0.94    8.90    8.49   31.42  -52.99   61.60  300.67
L20    0.70    0.81    0.79    7.37   -3.23   -2.16    3.91  214.07
L21    0.89    0.80    0.88    7.23    4.82   -3.88    6.20  321.30
L22    2.18    1.69    1.55   13.80   12.99   -1.83   13.12  351.96
GS0    76.08   78.60   67.74   91.06    0.65   -2.74    2.82  283.30
GS1    71.51   73.71   62.48   88.79    0.99   -1.66    1.94  300.64
GS2    60.47   62.17   53.07   83.00    1.32   -1.99    2.38  303.38
GS3    52.01   53.47   45.36   78.15    1.27   -1.56    2.00  309.10
GS4    45.83   47.33   39.51   74.40    0.58   -0.65    0.87  311.72
GS5    39.62   40.93   34.26   70.12    0.53   -0.75    0.91  305.07
GS6    33.57   34.78   28.78   65.58    0.16   -0.17    0.25  308.23
GS7    29.60   30.62   25.46   62.19    0.28   -0.37    0.47  305.88
GS8    25.40   26.20   21.87   58.22    0.66   -0.52    0.85  320.35
GS9    21.84   22.58   18.92   54.65    0.33   -0.65    0.75  295.52
GS10   19.19   19.95   16.81   51.78   -0.23   -0.85    0.92  253.18
GS11   15.43   15.98   13.53   46.94    0.18   -0.97    1.00  278.42
GS12   12.51   12.99   10.99   42.74   -0.10   -0.90    0.91  265.09
GS13    9.83   10.18    8.62   38.17    0.16   -0.83    0.85  279.34
GS14    8.16    8.44    6.96   34.90    0.23    0.01    0.23    3.23
GS15    6.57    6.74    5.52   31.23    0.74    0.21    0.81   20.16
GS16    5.12    5.27    4.32   27.48    0.56    0.14    0.57   13.02
GS17    3.76    3.89    3.32   23.32    0.22   -0.75    0.79  285.33
GS18    2.64    2.76    2.34   19.06   -0.39   -0.47    0.69  229.30
GS19    1.86    1.94    1.54   15.16   -0.28    0.66    0.73  107.48
GS20    1.25    1.31    0.95   11.33   -0.07    1.99    2.00   91.48
GS21    1.01    1.05    0.74    9.41    0.10    2.32    2.33   87.11
GS22    0.81    0.82    0.63    7.42    0.82    0.78    1.14   43.03
GS23    0.45    0.45    0.53    4.04    0.65   -3.12    3.19  281.83
END_DATA
