lprof/data/targets/Agfa/Reflective/C81240XX.it8
IT8.7/2
ORIGINATOR "FotoTune"
DESCRIPTOR "Agfa IT8"
MATERIAL "Agfacolor"
MANUFACTURER "Agfa"
CREATED "Mon Apr 12 11:49:50 1999"
PROD_DATE "1999:04"
SERIAL "5x7 c81240xx"
NUMBER_OF_FIELDS 9
BEGIN_DATA_FORMAT
SAMPLE_ID XYZ_X XYZ_Y XYZ_Z LAB_L LAB_A LAB_B LAB_C LAB_H
END_DATA_FORMAT
NUMBER_OF_SETS 288
BEGIN_DATA
A1     3.27    2.74    2.09   18.97   11.10    1.56   11.22    8.00
A2     3.88    2.70    1.66   18.81   21.28    5.61   22.01   14.74
A3     5.07    3.06    1.62   20.26   31.10    8.54   32.26   15.34
A4     5.39    3.21    1.80   20.87   32.22    7.64   33.12   13.34
A5    11.24    9.85    7.77   37.57   13.34    1.37   13.41    5.89
A6    13.59   10.20    6.62   38.19   26.64    7.12   27.58   14.98
A7    16.23   10.50    5.81   38.72   40.26   11.77   41.94   16.30
A8    18.69   10.78    5.30   39.21   51.46   15.05   53.60   16.30
A9    41.01   40.10   32.85   69.54    7.41    0.31    7.43  182.45
A10   43.44   40.38   31.60   69.74   13.79    2.55   14.02   10.49
A11   46.83   41.10   30.38   70.24   21.37    5.32   22.01   14.00
A12   47.25   39.73   28.22   69.27   26.67    7.14   27.60   14.99
A13   75.47   78.26   67.85   90.90    0.11   -3.11    3.11  271.91
A14   75.82   78.13   67.75   90.84    1.07   -3.12    3.30  288.88
A15   75.61   78.28   65.64   90.91    0.34   -1.04    1.10  288.08
A16   74.61   77.17   65.40   90.40    0.48   -1.68    1.75  285.95
A17   75.38   77.76   65.71   90.67    0.88   -1.51    1.76  299.96
A18   75.13   77.93   65.96   90.75    0.04   -1.61    1.61  271.17
A19   74.88   77.30   67.30   90.46    0.76   -3.37    3.45  282.83
A20    1.36    1.07    0.63    9.51   10.84    4.38   11.69   21.98
A21    4.87    2.94    0.71   19.81   30.47   20.80   36.89   34.31
A22    9.17    5.00    0.73   26.74   44.06   32.44   54.71   36.36
B1     3.11    2.74    1.58   18.95    8.43    6.79   10.84   38.79
B2     3.69    2.80    0.85   19.22   16.73   17.19   23.99   45.77
B3     4.50    3.03    0.77   20.14   24.23   20.22   31.56   39.82
B4     4.99    3.24    0.76   20.98   26.94   21.83   34.67   39.00
B5    11.70   10.24    5.80   38.26   13.66   10.99   17.55   38.80
B6    13.66   10.47    3.99   38.66   25.05   21.34   32.90   40.43
B7    15.99   10.52    2.36   38.75   38.74   33.27   51.07   40.65
B8    17.65   10.59    1.51   38.86   47.44   41.78   63.22   41.38
B9    40.87   40.39   29.99   69.74    6.06    5.07    7.90   39.94
B10   43.21   40.82   27.12   70.05   11.76   10.32   15.65   41.28
B11   46.38   41.50   24.53   70.52   18.85   15.65   24.50   39.72
B12   47.39   41.21   22.11   70.32   22.60   19.85   30.09   41.31
B13   66.46   71.77   65.89   87.86   -5.94   -6.53    8.83  227.74
B14   70.90   69.80   64.51   86.90    7.84   -6.88   10.43  318.67
B15   72.85   75.88   52.86   89.80   -0.59    9.96    9.98   93.36
B16   59.22   61.11   51.37   82.43    0.76   -1.11    1.35  304.65
B17   67.99   67.53   51.11   85.77    6.43    4.93    8.11   37.54
B18   63.74   69.40   52.32   86.70   -7.06    5.20    8.77  143.60
B19   61.86   63.44   62.35   83.68    1.68  -10.36   10.50  279.21
B20    3.02    2.09    0.71   15.93   19.94   14.03   24.38   35.14
B21    8.08    4.55    0.74   25.41   40.33   29.85   50.17   36.50
B22   29.35   25.12   14.03   57.18   20.94   15.36   25.97   36.26
C1     4.15    3.97    2.21   23.58    4.74    8.34    9.60   60.28
C2     4.48    4.04    1.25   23.80    8.23   19.06   20.76   66.63
C3     5.20    4.35    0.96   24.78   13.25   24.99   28.28   62.06
C4     5.23    4.36    0.98   24.81   13.32   24.82   28.17   61.76
C5    22.60   21.83   10.50   53.83    7.26   19.78   21.08   69.83
C6    25.14   22.19    5.61   54.22   16.76   39.45   42.86   66.98
C7    26.31   21.68    2.40   53.68   23.94   58.60   63.30   67.77
C8    28.46   22.44    1.76   54.50   29.09   66.05   72.18   66.23
C9    47.64   48.44   33.31   75.10    2.64    9.23    9.60   74.01
C10   50.49   49.74   27.67   75.91    6.88   19.48   20.66   70.55
C11   52.85   50.49   23.03   76.37   11.12   28.52   30.61   68.71
C12   52.94   49.45   18.78   75.73   14.10   36.03   38.69   68.61
C13   56.78   64.30   63.28   84.12  -12.43  -10.49   16.26  220.13
C14   64.63   59.90   60.08   81.78   16.18  -11.40   19.80  324.84
C15   70.71   73.77   43.64   88.82   -0.83   18.92   18.94   92.53
C16   44.88   46.60   38.53   73.93   -0.12   -0.13    0.23  232.96
C17   59.89   56.38   40.00   79.83   13.63    8.08   15.84   30.65
C18   52.37   60.25   42.07   81.97  -14.31    9.10   16.95  147.52
C19   48.35   49.05   55.85   75.49    2.95  -17.92   18.17  279.33
C20    1.88    1.56    0.72   12.97    9.84    8.78   13.19   41.70
C21   23.15   17.76    5.91   49.20   29.74   29.35   41.79   44.64
C22   35.97   33.33   20.83   64.42   13.34   12.24   18.10   42.53
D1     3.88    4.01    2.25   23.70    0.20    8.24    8.24   88.49
D2     3.94    4.12    1.32   24.05   -0.40   18.70   18.70   91.21
D3     4.30    4.34    1.07   24.75    1.64   23.28   23.34   85.96
D4     4.41    4.49    1.08   25.22    1.08   23.92   23.93   87.42
D5    25.75   27.09   13.52   59.06   -1.52   19.92   19.99   94.33
D6    25.12   26.83    8.03   58.81   -3.14   36.98   37.11   94.85
D7    26.03   27.88    3.98   59.77   -3.41   57.83   57.93   93.38
D8    24.83   25.99    2.13   58.03   -0.95   68.49   68.49   90.79
D9    54.13   57.13   37.91   80.25   -2.34   11.59   11.82  101.42
D10   56.27   59.01   31.61   81.30   -1.51   22.47   22.51   93.85
D11   56.10   59.36   25.87   81.49   -2.76   32.18   32.31   94.90
D12   56.64   60.11   21.78   81.90   -3.17   40.47   40.60   94.47
D13   47.86   56.94   60.25   80.15  -18.49  -14.38   23.42  217.86
D14   57.88   50.17   54.76   76.18   24.51  -15.57   29.04  327.56
D15   68.47   71.34   35.21   87.65   -0.62   28.10   28.11   91.29
D16   32.89   34.00   28.43   64.96    0.42   -0.66    0.79  302.63
D17   51.97   46.10   30.26   73.60   20.73   11.30   23.61   28.61
D18   41.81   51.17   33.01   76.78  -21.43   12.57   24.84  149.61
D19   37.00   36.89   48.97   67.18    4.82  -24.69   25.15  281.04
D20   14.51   11.11    3.49   39.76   25.62   26.41   36.80   45.86
D21   23.17   22.43   14.45   54.47    7.12    9.60   11.96   53.44
D22   40.17   39.14   24.47   68.85    7.74   12.89   15.03   59.01
E1     3.59    4.09    2.33   23.96   -5.26    7.99    9.57  123.40
E2     3.18    3.95    1.36   23.52   -9.91   17.21   19.86  119.95
E3     3.36    4.38    1.12   24.88  -12.86   22.73   26.11  119.53
E4     3.42    4.47    1.16   25.18  -13.07   22.71   26.20  119.92
E5    11.93   13.63    7.50   43.69   -8.15   12.98   15.32  122.12
E6    11.10   13.90    5.03   44.08  -15.68   24.83   29.37  122.29
E7    10.46   14.32    2.80   44.69  -23.15   39.94   46.17  120.11
E8    10.27   14.79    1.96   45.34  -27.35   48.30   55.51  119.52
E9    36.69   40.14   26.99   69.57   -6.43    9.69   11.63  123.60
E10   36.24   40.95   23.96   70.14  -10.41   16.03   19.12  123.01
E11   35.78   41.81   20.61   70.74  -14.51   23.57   27.67  121.62
E12   34.58   41.92   17.17   70.81  -18.90   31.12   36.41  121.28
E13   41.03   50.92   57.36   76.62  -23.14  -17.51   29.02  217.13
E14   52.47   43.03   50.21   71.57   30.78  -18.53   35.92  328.96
E15   66.05   68.49   26.85   86.25    0.10   38.68   38.68   89.85
E16   24.64   25.47   20.67   57.52    0.39    0.64    0.83   51.33
E17   45.61   38.51   22.27   68.39   25.90   16.22   30.56   32.07
E18   33.28   43.21   25.12   71.69  -27.19   16.62   31.88  148.57
E19   28.85   28.31   43.09   60.17    6.13  -29.78   30.40  281.62
E20   23.02   15.91    1.35   46.85   39.31   57.57   69.71   55.68
E21   17.82   14.88    3.35   45.46   19.88   37.26   42.23   61.92
E22   30.17   26.56    9.88   58.56   18.13   29.97   35.03   58.82
F1     1.43    1.80    1.23   14.42   -8.26    3.30    8.90  158.30
F2     1.23    1.92    1.04   15.04  -17.22    6.94   18.56  158.05
F3     1.17    2.14    1.00   16.22  -23.92    9.52   25.74  158.31
F4     1.31    2.51    1.16   17.98  -27.12   10.30   29.01  159.21
F5     6.71    8.34    5.97   34.68  -12.76    4.01   13.39  162.64
F6     5.63    8.49    5.26   34.97  -25.76    7.99   26.97  162.79
F7     4.53    8.45    4.48   34.90  -39.02   12.01   40.83  162.89
F8     3.14    7.61    3.70   33.17  -52.19   13.68   53.96  165.31
F9    36.25   40.01   31.35   69.48   -7.53    2.49    7.93  161.70
F10   35.70   41.25   30.89   70.35  -13.10    4.70   13.93  160.27
F11   34.29   41.54   30.17   70.56  -18.81    6.19   19.81  161.81
F12   32.81   41.68   28.80   70.65  -24.40    8.56   25.85  160.67
F13   34.72   45.05   54.16   72.93  -27.57  -20.54   34.38  216.70
F14   47.90   37.31   46.12   67.50   36.11  -20.82   41.69  330.04
F15   64.60   66.61   21.80   85.31    0.92   46.30   46.31   88.87
F16   18.38   19.08   15.64   50.78   -0.04    0.23    0.28   88.58
F17   40.53   32.67   16.86   63.88   30.28   19.90   36.24   33.33
F18   27.43   37.40   19.61   67.57  -31.37   20.17   37.29  147.24
F19   22.67   21.82   38.08   53.83    7.65  -34.19   35.04  282.60
F20   27.85   27.06   14.74   59.02    7.17   16.66   18.14   66.69
F21   34.97   32.63   13.30   63.86   12.40   28.83   31.39   66.73
F22   39.18   37.80   18.93   67.87    8.88   22.14   23.85   68.15
G1     2.24    2.79    2.65   19.17   -8.83   -2.99    9.34  198.82
G2     1.94    2.92    3.00   19.69  -17.81   -4.70   18.44  194.85
G3     1.74    3.10    3.43   20.44  -25.89   -6.48   26.68  194.08
G4     1.93    3.58    3.86   22.20  -28.84   -6.19   29.49  192.13
G5     9.04   10.97    9.57   39.53  -12.22   -1.82   12.36  188.54
G6     7.88   11.11   10.23   39.76  -23.38   -3.59   23.65  188.73
G7     6.40   10.89   10.52   39.38  -36.24   -5.18   36.61  188.14
G8     5.30   10.98   11.45   39.54  -49.24   -7.82   49.85  189.02
G9    35.96   39.81   32.42   69.32   -7.86    0.60    7.89  175.64
G10   34.60   40.38   34.16   69.74  -14.18   -1.28   14.24  185.15
G11   33.29   40.81   34.81   70.04  -20.03   -1.71   20.11  184.88
G12   32.04   41.49   36.35   70.51  -26.51   -3.05   26.69  186.57
G13   28.69   39.14   50.58   68.85  -31.88  -23.66   39.70  216.58
G14   41.52   29.88   40.21   61.54   43.35  -23.73   49.41  331.31
G15   62.17   63.40   15.60   83.65    2.49   57.01   57.06   87.50
G16   11.92   12.26   10.21   41.61    0.74   -0.34    0.86  161.49
G17   34.33   25.76   11.69   57.81   36.31   22.98   42.97   32.33
G18   21.14   30.91   14.73   62.43  -36.52   22.60   42.95  148.26
G19   15.91   14.66   31.55   45.16   10.65  -39.75   41.16  284.99
G20   37.51   37.03   17.39   67.30    6.01   24.58   25.31   76.24
G21   35.78   35.19   11.28   65.90    6.32   38.14   38.67   80.58
G22   44.01   41.28    3.01   70.37   12.73   82.55   83.52   81.24
H1     2.47    2.81    3.30   19.26   -4.60   -7.62    8.92  238.85
H2     2.27    2.95    4.40   19.85  -11.16  -13.48   17.51  230.37
H3     1.92    2.76    5.38   19.03  -15.41  -20.11   25.35  232.56
H4     2.26    3.31    6.86   21.22  -17.17  -23.16   28.83  233.47
H5     9.59   10.99   11.56   39.55   -7.76   -8.12   11.24  226.30
H6     8.97   11.31   14.77   40.10  -15.27  -16.04   22.15  226.40
H7     7.85   10.99   18.44   39.55  -22.70  -25.62   34.23  228.46
H8     7.37   11.11   22.32   39.77  -28.17  -33.22   43.56  229.71
H9    36.40   39.83   35.78   69.35   -6.46   -4.27    7.76  213.43
H10   35.63   40.10   39.67   69.53   -9.85   -9.25   13.51  223.18
H11   35.63   41.56   46.65   70.56  -14.26  -16.18   21.56  228.61
H12   34.75   41.44   50.89   70.49  -16.90  -21.17   27.10  231.39
H13   23.69   33.94   47.15   64.91  -35.54  -26.51   44.33  216.72
H14   35.62   23.56   34.54   55.64   50.01  -26.12   56.42  332.42
H15   60.15   60.63   11.43   82.18    4.09   65.77   65.90   86.44
H16    7.80    8.00    6.61   33.97    0.78   -0.08    0.88  182.58
H17   29.01   20.26    7.59   52.14   41.38   27.19   49.51   33.32
H18   16.05   25.26   10.42   57.33  -41.00   26.07   48.59  147.55
H19   11.54   10.06   26.54   37.94   13.93  -44.08   46.23  287.54
H20   42.31   43.78   18.08   72.08    0.33   31.27   31.27   89.39
H21   33.43   34.99   24.35   65.74   -1.02    7.75    7.82   97.48
H22   35.68   39.38   13.10   69.02   -7.47   38.27   38.99  101.05
I1     4.03    4.07    5.45   23.92    1.44  -12.07   12.15  276.81
I2     4.14    4.10    8.32   24.00    2.63  -24.11   24.26  276.23
I3     4.24    4.18   11.55   24.24    3.08  -34.49   34.62  275.09
I4     4.43    4.24   15.53   24.47    4.66  -44.89   45.13  275.92
I5    13.78   14.28   14.73   44.63    0.12   -8.10    8.11  270.80
I6    13.75   14.07   18.81   44.33    1.16  -18.18   18.22  273.65
I7    13.97   14.15   23.60   44.44    2.12  -27.60   27.69  274.39
I8    14.57   14.57   28.42   45.03    3.26  -34.99   35.14  275.31
I9    38.21   39.85   36.25   69.36   -0.64   -4.90    4.95  262.49
I10   38.87   40.41   40.81   69.76   -0.26  -10.34   10.34  268.54
I11   39.65   41.04   46.21   70.20    0.32  -16.27   16.27  271.11
I12   39.85   41.09   50.75   70.23    0.80  -21.44   21.45  272.11
I13   19.95   29.82   44.16   61.50  -38.28  -28.81   47.90  216.97
I14   32.01   19.99   30.98   51.83   53.90  -27.37   60.45  333.08
I15   58.57   58.49    8.99   81.01    5.40   71.68   71.89   85.69
I16    5.52    5.61    4.73   28.40    1.27   -0.57    1.42  339.95
I17   25.58   16.96    5.32   48.21   44.53   30.52   53.99   34.43
I18   12.93   21.55    7.82   53.53  -43.78   28.65   52.32  146.79
I19    8.71    7.09   22.72   31.99   17.51  -47.39   50.53  290.27
I20   42.77   47.43   19.11   74.46   -8.56   33.13   34.22  104.50
I21   12.38   16.53    4.46   47.65  -22.15   34.10   40.67  123.01
I22   29.60   37.88   20.37   67.93  -24.44   19.24   31.10  141.79
J1     2.00    1.82    2.94   14.48    5.98  -13.28   14.57  294.24
J2     2.30    1.84    4.78   14.59   12.16  -24.69   27.52  296.21
J3     2.78    1.89    7.83   14.91   20.24  -37.97   43.03  298.06
J4     3.09    1.88   10.61   14.86   25.76  -47.76   54.26  298.34
J5    11.09   10.81   11.94   39.24    5.06   -9.79   11.01  297.34
J6    11.78   10.78   15.24   39.21   10.15  -18.74   21.31  298.41
J7    12.36   10.59   19.75   38.88   15.61  -29.58   33.45  297.82
J8    13.27   10.92   22.99   39.44   19.21  -35.06   39.97  298.71
J9    39.42   40.22   36.81   69.62    2.07   -5.23    5.62  291.57
J10   40.60   40.56   40.92   69.87    4.68  -10.31   11.32  294.39
J11   41.64   40.43   45.64   69.77    8.28  -16.34   18.31  296.87
J12   42.51   40.33   50.00   69.70   11.19  -21.53   24.26  297.47
J13   14.52   23.32   38.70   55.39  -41.68  -32.33   52.75  217.80
J14   27.12   15.56   26.01   46.40   58.72  -28.57   65.30  334.05
J15   56.46   55.67    6.65   79.43    7.03   78.11   78.43   84.85
J16    2.72    2.80    2.45   19.23    0.51   -1.20    1.32  294.95
J17   20.89   12.76    3.00   42.40   48.60   34.40   59.54   35.30
J18    7.95   15.15    4.65   45.83  -48.87   29.88   57.28  148.55
J19    5.41    3.95   17.66   23.51   21.15  -51.54   55.71  292.30
J20   31.44   40.12   26.44   69.56  -24.56   10.62   26.75  156.61
J21    4.23    7.89    1.58   33.76  -38.13   32.29   49.97  139.74
J22    1.09    1.79    0.87   14.34  -18.65    8.44   20.48  155.67
K1     4.84    4.07    4.82   23.92   12.35   -8.81   15.16  324.53
K2     5.95    4.14    7.02   24.13   24.65  -18.80   30.99  322.67
K3     7.41    4.35    9.74   24.78   36.89  -27.81   46.20  322.99
K4     8.57    4.45   12.69   25.10   45.99  -36.32   58.60  321.70
K5    15.10   13.94   14.34   44.14   10.35   -7.97   13.06  322.46
K6    16.92   13.81   17.77   43.94   21.56  -16.58   27.19  322.46
K7    19.21   14.08   22.05   44.34   31.96  -24.81   40.46  322.17
K8    22.00   14.43   27.06   44.83   43.35  -33.07   54.52  322.67
K9    41.25   40.78   36.67   70.02    6.02   -4.36    7.43  324.08
K10   43.62   40.78   40.40   70.02   13.10   -9.36   16.10  324.42
K11   46.78   41.71   45.68   70.67   19.37  -14.83   24.40  322.56
K12   49.19   41.95   49.12   70.83   25.29  -18.58   31.38  323.71
K13   12.08   20.08   35.61   51.93  -42.60  -34.04   54.53  218.63
K14   22.33   11.75   21.06   40.81   62.24  -28.96   68.64  335.05
K15   48.72   45.85    2.91   73.45   12.72   88.59   89.49   81.83
K16    1.35    1.39    1.08   11.92   -0.01    1.09    1.09   89.14
K17   17.15    9.83    1.40   37.54   50.43   40.88   64.92   39.03
K18    4.79   10.06    2.23   37.94  -48.68   32.94   58.78  145.92
K19    3.57    2.22   13.66   16.60   26.15  -53.65   59.68  295.98
K20    2.58    3.36    2.27   21.42  -11.80    4.11   12.49  160.81
K21    1.29    1.77    1.63   14.23  -11.39   -1.99   11.56  189.94
K22    1.74    2.22    3.47   16.60   -9.34  -13.40   16.33  235.14
L1     3.65    3.01    2.80   20.05   12.55   -2.57   12.81  348.42
L2     4.39    3.00    3.07   20.05   23.12   -4.61   23.58  348.73
L3     5.80    3.41    3.97   21.62   33.72   -7.90   34.64  346.82
L4     6.43    3.67    4.75   22.57   36.50  -10.76   38.05  343.58
L5    12.61   10.94   10.25   39.47   14.73   -4.18   15.32  344.18
L6    15.39   11.38   11.48   40.21   28.92   -6.75   29.70  346.86
L7    18.26   11.35   12.26   40.17   45.04   -9.11   45.96  348.55
L8    20.06   11.71   13.03   40.75   51.66  -10.27   52.67  348.76
L9    42.64   41.62   35.93   70.60    7.69   -2.31    8.03  343.27
L10   44.40   41.26   36.62   70.35   13.91   -3.71   14.40  345.07
L11   47.87   42.06   37.55   70.92   21.33   -4.03   21.71  349.32
L12   49.69   41.73   38.83   70.68   27.30   -6.15   27.98  347.30
L13    8.02   13.91   28.95   44.10  -40.75  -37.49   55.36  222.61
L14   17.51    8.48   16.38   34.96   63.50  -28.83   69.74  335.59
L15   45.31   41.87    2.42   70.78   14.73   87.90   89.14   80.49
L16    0.49    0.50    0.57    4.52    0.34   -2.93    2.95  276.69
L17   13.22    7.06    0.80   31.94   51.19   40.07   65.01   38.06
L18    2.90    6.78    1.57   31.28  -48.31   28.14   55.90  149.77
L19    2.05    0.99    9.21    8.89   31.21  -53.42   61.87  300.30
L20    0.73    0.86    0.81    7.73   -3.95   -1.92    4.41  205.97
L21    0.97    0.87    0.92    7.86    4.94   -3.48    6.05  324.89
L22    2.36    1.83    1.60   14.56   13.34   -1.04   13.38  355.52
GS0    76.42   79.01   68.27   91.24    0.56   -2.91    2.97  280.85
GS1    71.52   73.82   62.82   88.83    0.79   -1.91    2.08  292.53
GS2    61.11   63.01   53.53   83.46    0.89   -1.71    1.94  297.12
GS3    52.36   54.07   45.84   78.50    0.63   -1.52    1.65  291.40
GS4    47.03   48.90   40.28   75.38   -0.26    0.04    0.29  194.49
GS5    40.54   42.16   34.79   70.97   -0.28   -0.03    0.39  213.60
GS6    34.54   35.92   29.45   66.45   -0.27    0.27    0.38  139.02
GS7    30.17   31.38   25.83   62.82   -0.25    0.08    0.40  205.10
GS8    25.93   26.91   22.21   58.88    0.00   -0.06    0.33  224.51
GS9    22.39   23.28   19.25   55.35   -0.20   -0.12    0.44  209.31
GS10   19.45   20.38   16.95   52.25   -0.96   -0.36    1.06  203.32
GS11   15.82   16.45   13.74   47.56   -0.24   -0.49    0.72  234.14
GS12   12.72   13.30   11.26   43.21   -0.69   -0.89    1.25  228.67
GS13   10.16   10.59    8.93   38.86   -0.28   -0.75    0.88  241.65
GS14    8.25    8.58    7.11   35.15   -0.15   -0.14    0.36  218.32
GS15    6.69    6.91    5.71   31.60    0.36   -0.07    0.62  193.41
GS16    5.31    5.45    4.47   27.99    0.68    0.19    0.84  196.91
GS17    3.88    4.00    3.37   23.67    0.33   -0.45    0.56  304.48
GS18    2.67    2.79    2.38   19.17   -0.32   -0.72    0.81  243.18
GS19    1.88    1.96    1.55   15.28   -0.19    0.73    0.75  104.16
GS20    1.30    1.36    0.98   11.68   -0.23    2.14    2.16   95.38
GS21    1.05    1.10    0.75    9.77   -0.13    2.65    2.66   92.65
GS22    0.83    0.85    0.65    7.68    0.57    1.02    1.19   57.82
GS23    0.45    0.45    0.55    4.12    0.41   -3.15    3.18  277.39
END_DATA
