lprof/data/targets/Agfa/Reflective/C81238XX.it8
IT8.7/2
ORIGINATOR "FotoTune"
DESCRIPTOR "Agfa IT8"
MATERIAL "Agfacolor"
MANUFACTURER "Agfa"
CREATED "Mon Apr 12 11:41:50 1999"
PROD_DATE "1999:04"
SERIAL "5x7 c81238xx"
NUMBER_OF_FIELDS 9
BEGIN_DATA_FORMAT
SAMPLE_ID XYZ_X XYZ_Y XYZ_Z LAB_L LAB_A LAB_B LAB_C LAB_H
END_DATA_FORMAT
NUMBER_OF_SETS 288
BEGIN_DATA
A1     3.28    2.70    2.03   18.82   11.80    1.84   11.94    8.84
A2     3.88    2.67    1.61   18.68   21.95    5.94   22.74   15.14
A3     5.09    3.03    1.60   20.15   31.72    8.64   32.86   15.24
A4     5.37    3.18    1.76   20.75   32.61    7.88   33.54   13.59
A5    11.24    9.81    7.61   37.49   13.74    1.88   13.88    7.76
A6    13.55   10.09    6.50   37.99   27.23    7.35   28.20   15.10
A7    16.02   10.28    5.66   38.35   40.65   11.81   42.33   16.19
A8    18.49   10.63    5.19   38.95   51.54   15.22   53.74   16.45
A9    41.08   40.11   32.84   69.54    7.57    0.33    7.58    2.53
A10   43.49   40.38   31.67   69.74   13.93    2.45   14.15    9.97
A11   46.68   40.96   30.30   70.14   21.36    5.27   22.00   13.85
A12   47.05   39.54   28.13   69.14   26.71    7.05   27.62   14.78
A13   75.15   77.91   67.56   90.74    0.11   -3.11    3.11  271.94
A14   75.48   77.81   67.40   90.69    0.99   -3.05    3.21  288.02
A15   75.47   78.12   65.49   90.83    0.36   -1.03    1.09  289.14
A16   74.37   76.93   65.15   90.29    0.46   -1.64    1.71  285.88
A17   75.04   77.43   65.31   90.52    0.82   -1.39    1.62  300.53
A18   74.81   77.61   65.63   90.60    0.00   -1.56    1.56  270.22
A19   74.67   77.09   67.16   90.37    0.75   -3.40    3.49  282.52
A20    1.35    1.04    0.61    9.33   11.35    4.57   12.24   21.88
A21    4.77    2.85    0.67   19.42   30.94   20.92   37.35   34.06
A22    9.06    4.91    0.69   26.49   44.15   32.51   54.83   36.36
B1     3.10    2.69    1.53   18.77    9.10    7.09   11.53   37.92
B2     3.69    2.76    0.81   19.08   17.26   17.51   24.59   45.39
B3     4.45    2.96    0.74   19.86   24.72   20.26   31.96   39.35
B4     5.01    3.24    0.75   20.95   27.26   22.11   35.10   39.03
B5    11.74   10.22    5.72   38.22   14.06   11.37   18.08   38.96
B6    13.59   10.35    3.90   38.47   25.46   21.60   33.40   40.32
B7    15.83   10.33    2.26   38.42   39.21   33.51   51.58   40.52
B8    17.47   10.44    1.47   38.62   47.54   41.92   63.38   41.40
B9    40.85   40.35   29.94   69.72    6.07    5.11    7.94   40.04
B10   43.23   40.83   26.99   70.06   11.79   10.54   15.81   41.79
B11   46.35   41.46   24.51   70.49   18.92   15.65   24.55   39.61
B12   47.22   41.06   21.83   70.21   22.55   20.23   30.30   41.89
B13   66.27   71.58   65.64   87.76   -5.95   -6.45    8.78  227.30
B14   70.78   69.72   64.38   86.86    7.76   -6.83   10.34  318.65
B15   72.64   75.65   52.72   89.70   -0.59    9.94    9.97   93.38
B16   59.19   61.08   51.17   82.42    0.79   -0.90    1.20  311.14
B17   67.70   67.28   50.92   85.65    6.34    4.93    8.03   37.89
B18   63.75   69.37   52.12   86.68   -6.95    5.39    8.80  142.21
B19   61.75   63.36   62.13   83.63    1.59  -10.22   10.34  278.84
B20    2.97    2.03    0.69   15.68   20.24   14.04   24.64   34.75
B21    7.97    4.45    0.71   25.11   40.64   29.87   50.43   36.32
B22   29.19   24.94   13.82   57.01   21.06   15.60   26.21   36.54
C1     4.16    3.92    2.12   23.40    5.55    8.91   10.51   58.10
C2     4.47    3.98    1.23   23.59    8.88   19.09   21.05   65.04
C3     5.16    4.26    0.94   24.50   13.89   24.77   28.40   60.72
C4     5.30    4.36    0.94   24.84   14.06   25.42   29.06   61.06
C5    22.53   21.68   10.34   53.69    7.61   20.04   21.44   69.20
C6    25.06   22.05    5.53   54.07   17.09   39.56   43.10   66.63
C7    26.17   21.51    2.37   53.49   24.26   58.61   63.43   67.53
C8    28.12   22.06    1.70   54.09   29.51   65.99   72.29   65.90
C9    47.57   48.32   32.96   75.02    2.80    9.61   10.01   73.74
C10   50.28   49.44   27.18   75.72    7.12   19.98   21.22   70.38
C11   52.85   50.47   22.72   76.35   11.16   29.09   31.16   69.00
C12   52.74   49.25   18.42   75.60   14.11   36.59   39.22   68.90
C13   56.74   64.25   63.19   84.10  -12.42  -10.44   16.23  220.07
C14   64.24   59.45   59.71   81.54   16.33  -11.43   19.93  324.99
C15   70.38   73.46   43.33   88.67   -0.89   19.07   19.09   92.70
C16   44.69   46.34   38.18   73.76    0.08    0.04    0.09   14.13
C17   59.72   56.23   39.79   79.74   13.60    8.20   15.88   31.10
C18   52.32   60.20   41.70   81.95  -14.32    9.52   17.20  146.38
C19   48.14   48.78   55.51   75.32    3.11  -17.85   18.11  279.85
C20    1.88    1.53    0.69   12.81   10.48    8.90   13.75   40.28
C21   22.81   17.39    5.61   48.74   30.20   29.95   42.54   44.76
C22   35.79   33.10   20.47   64.24   13.53   12.63   18.51   43.03
D1     3.88    3.96    2.18   23.54    0.93    8.65    8.69   83.90
D2     3.95    4.08    1.26   23.92    0.25   19.16   19.16   89.23
D3     4.34    4.32    1.01   24.69    2.38   24.04   24.15   84.36
D4     4.45    4.47    1.02   25.15    1.94   24.65   24.72   85.50
D5    25.69   27.01   13.32   58.97   -1.41   20.36   20.41   93.96
D6    25.22   26.89    7.93   58.87   -2.91   37.47   37.58   94.45
D7    26.09   27.88    3.84   59.78   -3.17   58.71   58.79   93.09
D8    24.81   25.83    2.05   57.86   -0.32   68.93   68.93   90.26
D9    54.08   57.05   37.60   80.21   -2.28   11.93   12.15  100.82
D10   56.32   59.08   31.22   81.33   -1.50   23.14   23.19   93.71
D11   56.06   59.35   25.70   81.48   -2.82   32.46   32.58   94.96
D12   56.46   59.93   21.33   81.81   -3.17   41.19   41.31   94.41
D13   48.03   57.06   60.21   80.21  -18.33  -14.20   23.19  217.78
D14   57.73   50.05   54.62   76.10   24.48  -15.56   29.01  327.57
D15   68.37   71.27   34.99   87.61   -0.69   28.36   28.37   91.42
D16   32.97   34.07   28.24   65.02    0.45   -0.23    0.52  331.22
D17   51.78   45.92   30.01   73.49   20.71   11.49   23.68   29.03
D18   41.78   51.09   32.64   76.74  -21.29   13.03   24.97  148.53
D19   36.97   36.76   48.81   67.10    5.11  -24.66   25.18  281.71
D20   14.39   10.95    3.31   39.50   25.99   27.24   37.65   46.34
D21   23.08   22.30   14.13   54.33    7.30   10.18   12.53   54.35
D22   40.08   39.00   23.95   68.75    7.89   13.65   15.77   59.97
E1     3.63    4.08    2.28   23.92   -4.51    8.33    9.47  118.40
E2     3.24    3.95    1.34   23.51   -8.89   17.54   19.66  116.86
E3     3.44    4.39    1.11   24.93  -11.88   23.06   25.94  117.24
E4     3.48    4.46    1.11   25.12  -12.05   23.42   26.33  117.22
E5    12.12   13.78    7.57   43.92   -7.81   13.08   15.23  120.82
E6    11.26   14.01    4.99   44.24  -15.24   25.33   29.56  121.03
E7    10.58   14.39    2.74   44.78  -22.58   40.49   46.37  119.15
E8    10.38   14.78    1.89   45.33  -26.44   48.89   55.59  118.41
E9    36.75   40.18   26.75   69.60   -6.39   10.15   12.00  122.21
E10   36.33   41.03   23.72   70.19  -10.34   16.58   19.55  121.93
E11   35.89   41.88   20.36   70.79  -14.37   24.16   28.11  120.74
E12   34.65   41.97   16.94   70.85  -18.83   31.74   36.90  120.68
E13   41.17   51.06   57.42   76.71  -23.07  -17.44   28.92  217.08
E14   52.24   42.74   49.99   71.38   31.02  -18.62   36.18  329.02
E15   65.99   68.43   26.51   86.21    0.09   39.22   39.22   89.87
E16   24.60   25.40   20.47   57.46    0.55    0.96    1.10   60.49
E17   45.29   38.17   21.98   68.14   26.05   16.35   30.76   32.12
E18   33.31   43.20   24.70   71.69  -27.08   17.37   32.17  147.33
E19   28.92   28.32   43.06   60.17    6.39  -29.73   30.41  282.13
E20   22.82   15.70    1.30   46.58   39.58   57.78   70.03   55.58
E21   17.80   14.81    3.22   45.37   20.20   37.94   42.99   61.97
E22   29.99   26.28    9.64   58.30   18.58   30.32   35.56   58.49
F1     1.46    1.81    1.19   14.44   -7.47    3.80    8.38  153.07
F2     1.27    1.96    1.02   15.26  -16.59    7.53   18.22  155.60
F3     1.18    2.13    0.98   16.16  -23.22    9.81   25.20  157.11
F4     1.36    2.56    1.13   18.18  -26.71   11.08   28.92  157.46
F5     6.74    8.32    5.87   34.64  -12.26    4.43   13.03  160.17
F6     5.67    8.48    5.15   34.95  -25.17    8.50   26.56  161.34
F7     4.57    8.47    4.42   34.93  -38.60   12.41   40.55  162.17
F8     3.19    7.68    3.62   33.29  -51.92   14.43   53.89  164.47
F9    36.42   40.19   31.27   69.60   -7.48    2.82    8.00  159.31
F10   35.77   41.33   30.67   70.40  -13.12    5.14   14.09  158.64
F11   34.22   41.51   29.90   70.53  -18.94    6.57   20.05  160.88
F12   32.79   41.69   28.36   70.66  -24.47    9.27   26.16  159.23
F13   34.83   45.17   54.15   73.01  -27.49  -20.39   34.22  216.57
F14   47.75   37.15   46.06   67.38   36.22  -20.95   41.85  329.95
F15   64.32   66.29   21.35   85.14    0.97   46.91   46.92   88.81
F16   18.33   18.97   15.47   50.65    0.25    0.44    0.50   59.08
F17   40.29   32.44   16.54   63.70   30.31   20.33   36.50   33.87
F18   27.53   37.47   19.31   67.63  -31.19   20.92   37.56  146.15
F19   22.59   21.65   37.94   53.65    8.06  -34.34   35.27  283.21
F20   27.67   26.80   14.36   58.78    7.49   17.23   18.79   66.52
F21   34.82   32.44   12.88   63.70   12.56   29.70   32.26   67.08
F22   39.04   37.60   18.63   67.72    9.06   22.55   24.30   68.11
G1     2.28    2.78    2.60   19.16   -8.02   -2.53    8.41  197.49
G2     2.00    2.96    2.95   19.88  -17.26   -4.04   17.73  193.18
G3     1.76    3.12    3.38   20.55  -25.73   -5.95   26.41  193.02
G4     1.96    3.61    3.79   22.32  -28.50   -5.59   29.04  191.08
G5     9.01   10.89    9.38   39.38  -11.84   -1.41   11.91  186.79
G6     7.94   11.14   10.08   39.80  -22.93   -3.05   23.14  187.58
G7     6.47   10.96   10.42   39.51  -36.10   -4.66   36.40  187.36
G8     5.32   11.01   11.27   39.58  -49.26   -7.20   49.79  188.32
G9    35.93   39.76   32.06   69.29   -7.81    1.09    7.88  172.05
G10   34.72   40.47   34.03   69.81  -14.10   -0.98   14.15  183.94
G11   33.37   40.88   34.50   70.08  -19.97   -1.16   20.01  183.34
G12   32.14   41.60   36.36   70.59  -26.52   -2.94   26.69  186.32
G13   28.70   39.14   50.51   68.85  -31.83  -23.57   39.61  216.51
G14   41.34   29.70   40.08   61.40   43.47  -23.83   49.57  331.28
G15   62.07   63.28   15.40   83.59    2.55   57.40   57.46   87.46
G16   11.91   12.19    9.93   41.53    1.09    0.41    1.16   20.73
G17   34.17   25.60   11.62   57.65   36.43   22.91   43.03   32.16
G18   21.17   30.90   14.29   62.42  -36.33   23.69   43.38  146.90
G19   15.93   14.60   31.49   45.08   11.11  -39.80   41.32  285.60
G20   37.68   37.14   17.11   67.39    6.16   25.35   26.10   76.33
G21   35.79   35.17   11.06   65.88    6.48   38.76   39.29   80.51
G22   43.73   40.93    2.89   70.12   12.98   83.03   84.04   81.12
H1     2.57    2.88    3.29   19.54   -3.91   -7.05    8.07  240.95
H2     2.34    3.00    4.45   20.03  -10.52  -13.43   17.06  231.92
H3     1.97    2.80    5.44   19.22  -15.07  -20.13   25.15  233.20
H4     2.31    3.36    6.93   21.41  -17.08  -23.07   28.69  233.49
H5     9.80   11.17   11.60   39.86   -7.45   -7.72   10.74  225.94
H6     9.18   11.51   14.85   40.43  -14.93  -15.66   21.64  226.39
H7     7.99   11.09   18.57   39.72  -22.19  -25.58   33.86  229.07
H8     7.45   11.20   22.35   39.92  -27.99  -33.01   43.28  229.71
H9    36.60   40.00   35.78   69.47   -6.34   -4.07    7.53  212.68
H10   35.95   40.40   39.78   69.76   -9.74   -9.00   13.25  222.76
H11   35.80   41.71   46.74   70.67  -14.14  -16.10   21.42  228.72
H12   35.12   41.86   51.09   70.77  -16.91  -20.90   26.89  231.04
H13   24.02   34.29   47.31   65.19  -35.32  -26.22   43.98  216.59
H14   35.58   23.52   34.55   55.60   50.04  -26.22   56.49  332.36
H15   60.04   60.50   11.32   82.11    4.15   65.98   66.12   86.40
H16    7.90    8.05    6.53   34.08    1.34    0.46    1.42   19.14
H17   28.85   20.12    7.47   51.97   41.51   27.39   49.74   33.42
H18   16.15   25.32   10.23   57.39  -40.71   26.80   48.74  146.64
H19   11.55    9.97   26.43   37.79   14.59  -44.15   46.49  288.29
H20   42.39   43.85   17.88   72.12    0.40   31.78   31.78   89.28
H21   33.56   35.07   24.07   65.81   -0.87    8.36    8.41   95.90
H22   35.83   39.49   12.85   69.10   -7.34   39.10   39.78  100.62
I1     4.18    4.18    5.52   24.26    2.08  -11.81   11.99  279.97
I2     4.24    4.16    8.43   24.21    3.25  -24.16   24.38  277.66
I3     4.41    4.32   11.78   24.68    3.51  -34.42   34.60  275.83
I4     4.56    4.35   15.81   24.81    4.97  -44.97   45.24  276.30
I5    13.99   14.43   14.88   44.83    0.56   -8.14    8.15  273.96
I6    14.01   14.30   19.08   44.65    1.52  -18.21   18.27  274.74
I7    14.13   14.24   23.73   44.58    2.53  -27.60   27.72  275.23
I8    14.74   14.69   28.49   45.21    3.57  -34.81   35.00  275.85
I9    38.40   39.99   36.40   69.46   -0.41   -4.95    4.97  265.30
I10   39.13   40.66   41.04   69.93   -0.19  -10.34   10.34  268.98
I11   40.01   41.34   46.35   70.41    0.52  -16.07   16.07  271.86
I12   40.25   41.47   50.94   70.51    0.88  -21.19   21.21  272.38
I13   20.17   30.07   44.27   61.71  -38.12  -28.57   47.64  216.85
I14   31.83   19.83   30.88   51.65   54.01  -27.51   60.60  333.01
I15   58.43   58.32    8.88   80.92    5.45   71.93   72.14   85.66
I16    5.52    5.55    4.63   28.23    2.07   -0.32    2.10  351.22
I17   25.33   16.73    5.19   47.92   44.76   30.64   54.24   34.39
I18   13.03   21.60    7.61   53.60  -43.39   29.63   52.53  145.66
I19    8.72    7.02   22.61   31.85   18.19  -47.43   50.81  290.98
I20   42.99   47.62   18.94   74.58   -8.43   33.69   34.74  104.06
I21   12.56   16.69    4.33   47.86  -21.77   35.22   41.40  121.73
I22   29.76   38.05   20.10   68.06  -24.35   19.98   31.49  140.63
J1     2.07    1.86    2.95   14.72    6.58  -12.91   14.49  297.01
J2     2.38    1.88    4.84   14.80   12.95  -24.61   27.82  297.76
J3     2.87    1.92    7.91   15.06   21.01  -38.01   43.43  298.93
J4     3.13    1.89   10.62   14.92   26.35  -47.70   54.50  298.92
J5    11.20   10.84   11.92   39.29    5.62   -9.63   11.16  300.28
J6    11.90   10.82   15.31   39.28   10.70  -18.81   21.64  299.64
J7    12.48   10.62   19.81   38.93   16.14  -29.61   33.72  298.59
J8    13.26   10.85   22.89   39.32   19.65  -35.10   40.22  299.24
J9    39.60   40.33   36.89   69.71    2.28   -5.20    5.68  293.65
J10   40.77   40.69   41.07   69.96    4.81  -10.34   11.40  294.95
J11   41.90   40.72   45.74   69.99    8.15  -16.08   18.02  296.88
J12   42.86   40.60   50.12   69.90   11.39  -21.32   24.17  298.12
J13   14.74   23.59   38.86   55.67  -41.53  -32.08   52.47  217.68
J14   27.05   15.52   25.99   46.35   58.61  -28.62   65.23  333.97
J15   56.31   55.47    6.55   79.31    7.18   78.37   78.70   84.77
J16    2.80    2.84    2.41   19.38    1.19   -0.60    1.35  334.32
J17   20.64   12.57    2.88   42.10   48.72   34.76   59.85   35.50
J18    8.06   15.24    4.56   45.96  -48.39   30.62   57.26  147.67
J19    5.41    3.90   17.53   23.35   21.86  -51.53   55.98  292.98
J20   31.67   40.32   26.14   69.69  -24.33   11.36   26.85  154.95
J21    4.25    7.85    1.51   33.68  -37.53   32.88   49.89  138.77
J22    1.08    1.75    0.82   14.07  -17.83    8.71   19.84  153.96
K1     5.14    4.30    5.01   24.63   13.08   -8.58   15.64  326.73
K2     6.22    4.31    7.22   24.65   25.38  -18.74   31.55  323.55
K3     7.59    4.39    9.87   24.93   37.87  -27.98   47.08  323.54
K4     8.72    4.49   12.73   25.24   46.65  -36.17   59.03  322.22
K5    15.54   14.31   14.70   44.66   10.65   -7.98   13.31  323.16
K6    17.22   14.01   18.06   44.24   21.95  -16.70   27.58  322.74
K7    19.60   14.34   22.44   44.72   32.33  -24.92   40.83  322.38
K8    22.28   14.59   27.23   45.07   43.67  -32.97   54.72  322.95
K9    41.77   41.35   37.05   70.42    5.90   -4.20    7.24  324.60
K10   44.04   41.18   40.84   70.29   13.15   -9.45   16.19  324.30
K11   47.49   42.41   46.35   71.15   19.24  -14.81   24.28  322.43
K12   49.70   42.53   49.53   71.24   24.94  -18.35   30.97  323.65
K13   12.35   20.45   35.97   52.35  -42.53  -33.85   54.36  218.51
K14   22.19   11.64   20.97   40.64   62.28  -29.06   68.73  334.99
K15   48.49   45.54    2.82   73.24   12.99   88.94   89.89   81.69
K16    1.38    1.41    1.05   12.05    0.53    1.62    1.71   71.71
K17   17.01    9.73    1.35   37.35   50.50   41.16   65.15   39.18
K18    4.85   10.08    2.16   37.99  -48.10   33.76   58.76  144.93
K19    3.55    2.17   13.55   16.35   26.81  -53.76   60.08  296.50
K20    2.61    3.37    2.18   21.47  -11.34    4.97   12.38  156.34
K21    1.28    1.74    1.55   14.06  -11.08   -1.34   11.16  186.90
K22    1.72    2.18    3.37   16.42   -9.00  -12.95   15.77  235.20
L1     3.80    3.10    2.83   20.42   13.23   -2.23   13.41  350.42
L2     4.51    3.06    3.09   20.28   23.84   -4.35   24.24  349.66
L3     5.88    3.43    3.94   21.68   34.42   -7.65   35.25  347.48
L4     6.52    3.71    4.78   22.67   37.07  -10.73   38.59  343.86
L5    12.89   11.13   10.35   39.79   15.15   -3.91   15.64  345.51
L6    15.70   11.59   11.72   40.54   29.31   -6.87   30.10  346.81
L7    18.42   11.43   12.44   40.29   45.39   -9.40   46.35  348.29
L8    20.11   11.72   13.18   40.76   51.89  -10.70   52.98  348.35
L9    43.03   42.06   36.19   70.92    7.50   -2.15    7.80  344.03
L10   44.93   41.86   37.21   70.78   13.67   -3.80   14.19  344.47
L11   48.10   42.36   37.77   71.12   21.08   -3.97   21.44  349.32
L12   49.84   41.89   39.01   70.79   27.22   -6.20   27.92  347.17
L13    8.09   14.01   29.04   44.25  -40.79  -37.36   55.32  222.49
L14   17.13    8.23   15.95   34.47   63.59  -28.66   69.75  335.74
L15   45.03   41.50    2.28   70.53   15.03   88.68   89.95   80.38
L16    0.50    0.50    0.56    4.45    0.62   -2.76    2.82  282.67
L17   12.98    6.90    0.75   31.59   51.22   40.26   65.15   38.17
L18    2.91    6.74    1.51   31.21  -47.81   28.67   55.75  149.06
L19    2.00    0.94    8.97    8.52   31.60  -53.21   61.89  300.70
L20    0.72    0.84    0.77    7.52   -3.47   -1.54    3.80  203.93
L21    0.97    0.86    0.88    7.74    5.48   -2.99    6.24  331.33
L22    2.32    1.77    1.54   14.24   14.02   -0.92   14.05  356.24
GS0    76.35   78.93   68.08   91.21    0.56   -2.80    2.86  281.39
GS1    71.68   74.01   63.03   88.92    0.76   -1.97    2.12  291.19
GS2    61.27   63.20   53.72   83.54    0.84   -1.75    1.95  295.67
GS3    52.50   54.25   45.83   78.61    0.53   -1.33    1.43  292.00
GS4    47.01   48.89   40.05   75.38   -0.28    0.33    0.44  129.64
GS5    40.46   42.08   34.65   70.93   -0.32    0.09    0.34  165.74
GS6    34.56   35.90   29.37   66.45   -0.15    0.37    0.41  111.24
GS7    30.24   31.39   25.78   62.83   -0.05    0.18    0.20  107.29
GS8    25.88   26.80   22.05   58.78    0.22    0.08    0.28  188.07
GS9    22.54   23.35   19.28   55.42    0.18   -0.07    0.21  325.77
GS10   19.56   20.43   16.92   52.33   -0.71   -0.16    0.73  191.95
GS11   15.86   16.42   13.59   47.53    0.14   -0.11    0.18  319.28
GS12   12.82   13.35   11.18   43.29   -0.32   -0.52    0.63  235.96
GS13   10.21   10.57    8.75   38.84    0.21   -0.15    0.27  327.17
GS14    8.28    8.56    6.94   35.11    0.38    0.47    0.61   50.99
GS15    6.63    6.78    5.48   31.29    0.96    0.53    1.10   28.53
GS16    5.21    5.29    4.22   27.54    1.40    0.82    1.63   30.16
GS17    3.83    3.89    3.22   23.30    1.09   -0.14    1.10  352.80
GS18    2.65    2.74    2.26   18.97    0.33    0.01    0.35  178.15
GS19    1.88    1.93    1.47   15.12    0.36    1.42    1.47   75.81
GS20    1.28    1.32    0.91   11.39    0.50    2.57    2.62   79.08
GS21    1.07    1.09    0.73    9.73    0.43    3.01    3.05   81.90
GS22    0.82    0.82    0.62    7.43    1.28    1.19    1.75   42.90
GS23    0.44    0.44    0.51    3.98    0.70   -2.86    2.93  283.77
END_DATA
