lprof/data/targets/Agfa/Reflective/C90205XX.it8
IT8.7/2
ORIGINATOR "FotoTune"
DESCRIPTOR "Agfa IT8"
MATERIAL "Agfacolor"
MANUFACTURER "Agfa"
CREATED "Tue May 11 10:10:16 1999"
PROD_DATE "1999:05"
SERIAL "5x7 c90205xx"
NUMBER_OF_FIELDS 9
BEGIN_DATA_FORMAT
SAMPLE_ID XYZ_X XYZ_Y XYZ_Z LAB_L LAB_A LAB_B LAB_C LAB_H
END_DATA_FORMAT
NUMBER_OF_SETS 288
BEGIN_DATA
A1     3.41    2.80    2.03   19.21   12.50    2.52   12.75   11.40
A2     4.18    2.82    1.67   19.30   23.60    6.30   24.43   14.94
A3     5.57    3.28    1.62   21.10   33.30   10.01   34.77   16.72
A4     5.54    3.28    1.78   21.12   32.94    8.26   33.97   14.08
A5    13.18   11.32    7.75   40.11   15.75    5.80   16.78   20.22
A6    15.62   11.43    7.27   40.31   29.89    8.07   30.95   15.11
A7    16.70   10.57    5.73   38.84   42.37   12.31   44.12   16.20
A8    18.20   10.38    4.97   38.51   51.89   15.52   54.16   16.66
A9    40.80   39.69   31.83   69.25    7.98    1.35    8.09    9.61
A10   43.51   40.14   30.69   69.57   14.74    3.66   15.19   13.95
A11   46.35   40.54   29.33   69.86   21.68    6.32   22.58   16.26
A12   46.57   39.03   27.35   68.77   26.94    7.70   28.02   15.94
A13   74.99   77.74   67.12   90.66    0.12   -2.85    2.85  272.38
A14   75.28   77.48   66.98   90.54    1.23   -2.93    3.18  292.88
A15   75.00   77.62   64.37   90.61    0.39   -0.36    0.53  317.87
A16   73.93   76.43   64.15   90.07    0.53   -1.09    1.21  296.32
A17   74.79   77.08   64.52   90.35    1.02   -0.92    1.38  317.88
A18   74.63   77.45   64.93   90.53   -0.03   -1.02    1.02  267.99
A19   74.57   77.04   66.99   90.34    0.64   -3.28    3.34  281.17
A20    1.34    1.04    0.65    9.32   10.95    3.78   11.59   19.06
A21    4.99    2.99    0.73   19.97   31.33   20.75   37.58   33.52
A22    9.23    5.01    0.75   26.75   44.47   32.08   54.83   35.81
B1     2.91    2.54    1.49   18.10    8.74    6.28   10.77   35.69
B2     3.76    2.80    0.88   19.26   17.65   16.69   24.29   43.38
B3     4.62    3.06    0.76   20.28   25.33   20.51   32.60   39.01
B4     5.20    3.32    0.76   21.26   28.25   22.17   35.91   38.11
B5    12.22   10.48    5.65   38.70   15.40   12.48   19.83   39.00
B6    15.23   11.21    3.99   39.93   29.22   23.58   37.54   38.90
B7    17.03   10.91    2.24   39.44   41.62   35.50   54.71   40.46
B8    17.33   10.27    1.50   38.32   48.07   41.08   63.22   40.51
B9    40.65   39.92   29.19   69.42    6.80    5.78    8.92   40.32
B10   43.31   40.50   26.22   69.82   13.02   11.48   17.36   41.38
B11   45.99   40.97   23.80   70.15   19.37   16.36   25.35   40.19
B12   46.68   40.49   21.26   69.82   22.76   20.67   30.74   42.26
B13   67.06   72.11   65.47   88.03   -5.32   -5.86    7.91  227.73
B14   70.60   69.49   64.03   86.75    7.86   -6.68   10.32  319.62
B15   72.27   75.25   51.43   89.51   -0.52   11.02   11.03   92.73
B16   59.33   61.11   49.59   82.44    1.02    0.90    1.37   41.32
B17   67.35   66.90   49.85   85.46    6.39    5.80    8.64   42.22
B18   64.35   69.71   51.33   86.85   -6.32    6.56    9.11  133.97
B19   62.95   64.56   62.60   84.26    1.68   -9.61    9.76  279.93
B20    3.01    2.05    0.72   15.73   20.74   13.61   24.81   33.28
B21    8.16    4.56    0.75   25.42   40.97   29.62   50.56   35.88
B22   29.67   25.49   13.65   57.55   20.60   17.01   26.72   39.54
C1     4.20    3.94    2.12   23.48    5.81    9.03   10.73   57.26
C2     4.91    4.32    1.29   24.70    9.92   20.10   22.42   63.72
C3     5.52    4.55    0.95   25.40   14.36   26.10   29.79   61.19
C4     5.27    4.30    0.94   24.65   14.48   25.15   29.01   60.07
C5    22.92   21.97   10.24   54.00    8.04   20.89   22.39   68.96
C6    25.12   21.96    5.35   53.99   17.70   40.32   44.03   66.30
C7    26.88   21.75    2.30   53.76   25.94   59.59   65.00   66.47
C8    28.49   22.34    1.73   54.39   29.70   66.24   72.60   65.85
C9    47.56   47.93   32.15   74.78    3.80   10.40   11.07   69.92
C10   49.76   48.65   26.70   75.23    7.88   19.96   21.45   68.45
C11   52.18   49.47   21.86   75.75   12.07   29.68   32.04   67.88
C12   52.00   48.28   17.89   74.99   14.82   36.72   39.60   68.03
C13   56.68   64.17   62.79   84.05  -12.35  -10.14   15.98  219.39
C14   63.60   58.53   59.09   81.04   17.07  -11.68   20.69  325.61
C15   70.02   72.99   42.21   88.44   -0.70   20.08   20.08   91.99
C16   44.26   45.62   37.15   73.31    0.82    0.64    1.04   37.96
C17   58.88   55.10   38.72   79.10   14.35    8.49   16.67   30.61
C18   52.47   60.21   41.05   81.95  -13.93   10.37   17.36  143.35
C19   48.33   48.76   55.47   75.30    3.71  -17.85   18.23  281.73
C20    1.86    1.51    0.72   12.69   10.40    8.35   13.34   38.73
C21   22.76   17.16    5.26   48.46   31.17   31.27   44.15   45.09
C22   36.08   33.31   20.23   64.42   13.74   13.44   19.22   44.36
D1     4.15    4.21    2.35   24.36    1.27    8.50    8.60   81.54
D2     3.84    3.97    1.27   23.56    0.23   18.38   18.39   89.30
D3     4.03    4.24    1.03   24.45   -0.75   23.38   23.39   91.85
D4     4.27    4.29    1.01   24.61    1.85   23.90   23.98   85.58
D5    25.76   26.96   13.31   58.94   -0.93   20.31   20.33   92.62
D6    26.44   27.39    7.42   59.33    0.19   40.26   40.26   89.74
D7    25.88   26.90    3.57   58.88   -0.15   58.83   58.83   90.15
D8    24.87   25.73    2.05   57.78    0.33   68.76   68.76   89.73
D9    56.03   58.35   38.33   80.93   -0.51   12.20   12.21   92.39
D10   55.93   58.55   30.50   81.04   -1.23   23.74   23.78   92.96
D11   55.91   58.37   25.06   80.94   -0.85   32.67   32.68   91.49
D12   56.42   59.72   20.69   81.69   -2.82   42.28   42.37   93.82
D13   47.82   56.83   59.81   80.09  -18.31  -14.03   23.08  217.46
D14   57.11   49.29   54.06   75.63   25.01  -15.76   29.56  327.77
D15   67.84   70.60   33.78   87.29   -0.44   29.55   29.55   90.85
D16   32.28   33.21   27.27   64.33    0.97    0.19    0.99   11.45
D17   50.92   44.92   28.84   72.85   21.26   12.26   24.54   29.97
D18   41.67   50.88   31.72   76.60  -21.10   14.22   25.44  146.02
D19   36.69   36.35   48.48   66.78    5.57  -24.83   25.45  282.65
D20   14.13   10.55    3.17   38.81   27.42   26.98   38.46   44.53
D21   23.13   22.24   13.90   54.28    7.80   10.68   13.23   53.87
D22   39.87   38.62   23.45   68.47    8.43   14.11   16.44   59.17
E1     3.66    4.07    2.25   23.89   -3.84    8.55    9.37  114.16
E2     3.39    4.20    1.42   24.31   -9.90   17.76   20.33  119.13
E3     3.44    4.40    1.12   24.95  -11.91   22.90   25.81  117.51
E4     3.36    4.36    1.12   24.81  -12.57   22.61   25.87  119.08
E5    12.63   14.40    7.65   44.81   -8.11   14.26   16.41  119.63
E6    11.92   14.69    4.70   45.21  -14.70   28.58   32.15  117.22
E7    11.07   15.03    2.71   45.67  -22.81   42.23   48.00  118.38
E8    10.04   14.38    1.92   44.76  -26.69   47.65   54.62  119.25
E9    38.49   40.85   28.14   70.07   -2.80    8.64    9.07  107.92
E10   35.87   40.25   23.11   69.65   -9.55   16.78   19.31  119.62
E11   34.85   40.80   19.24   70.03  -14.64   25.22   29.15  120.14
E12   34.32   41.47   16.48   70.50  -18.49   32.22   37.15  119.85
E13   41.17   51.00   57.06   76.68  -22.92  -17.10   28.60  216.74
E14   51.68   42.12   49.45   70.96   31.38  -18.74   36.54  329.16
E15   65.43   67.70   25.48   85.86    0.41   40.40   40.41   89.43
E16   24.20   24.88   19.82   56.95    0.99    1.42    1.73   55.25
E17   44.50   37.31   21.05   67.51   26.50   17.10   31.54   32.83
E18   33.24   42.99   23.86   71.54  -26.71   18.65   32.58  145.08
E19   28.81   28.00   42.75   59.89    7.19  -29.84   30.69  283.54
E20   22.88   15.66    1.34   46.53   40.06   57.22   69.85   55.00
E21   17.53   14.39    3.15   44.79   21.26   37.41   43.03   60.40
E22   29.80   26.00    9.27   58.04   18.96   31.11   36.44   58.64
F1     1.38    1.69    1.20   13.82   -7.30    2.51    7.72  161.02
F2     1.20    1.85    1.02   14.65  -16.04    6.62   17.35  157.57
F3     1.21    2.14    1.07   16.22  -22.88    8.56   24.42  159.48
F4     1.32    2.48    1.12   17.83  -26.16   10.51   28.19  158.12
F5     6.40    7.93    5.49   33.85  -12.42    4.84   13.33  158.68
F6     5.38    8.14    4.85   34.26  -25.70    8.92   27.21  160.86
F7     4.34    8.11    4.17   34.22  -38.61   12.62   40.62  161.89
F8     3.17    7.59    3.52   33.12  -51.50   14.82   53.59  163.95
F9    35.99   39.40   30.24   69.04   -6.49    3.47    7.36  151.90
F10   35.10   40.26   29.38   69.65  -12.18    5.89   13.53  154.17
F11   33.21   40.14   27.87   69.57  -18.30    8.21   20.06  155.83
F12   32.67   41.46   27.55   70.49  -24.19   10.34   26.31  156.85
F13   34.89   45.18   53.96   73.01  -27.34  -20.17   33.97  216.42
F14   47.17   36.50   45.51   66.90   36.68  -21.12   42.33  330.07
F15   63.67   65.49   20.60   84.74    1.24   47.72   47.74   88.51
F16   18.17   18.62   14.81   50.24    1.16    1.36    1.79   49.22
F17   39.78   31.90   16.10   63.26   30.64   20.62   36.93   33.94
F18   27.57   37.37   18.63   67.56  -30.74   22.24   37.93  144.11
F19   22.76   21.62   37.88   53.62    8.98  -34.29   35.45  284.65
F20   27.38   26.35   13.88   58.38    8.08   17.79   19.54   65.57
F21   34.26   31.69   12.18   63.07   13.32   30.60   33.38   66.47
F22   38.97   37.25   18.17   67.46    9.99   23.11   25.18   66.63
G1     2.21    2.70    2.55   18.82   -7.97   -2.73    8.42  198.88
G2     1.74    2.63    2.76   18.51  -17.61   -4.94   18.30  195.67
G3     1.73    3.08    3.28   20.34  -25.69   -5.64   26.31  192.39
G4     1.90    3.48    3.64   21.87  -28.18   -5.43   28.70  190.88
G5     8.69   10.58    9.14   38.86  -12.20   -1.48   12.30  186.89
G6     7.50   10.71    9.82   39.08  -23.97   -3.46   24.22  188.22
G7     6.15   10.52   10.10   38.76  -36.22   -4.90   36.56  187.71
G8     5.20   10.79   11.12   39.22  -49.15   -7.36   49.70  188.51
G9    35.22   38.75   31.23   68.57   -7.07    1.11    7.15  171.14
G10   34.25   39.71   33.22   69.26  -13.35   -0.71   13.37  183.04
G11   33.27   40.68   33.89   69.96  -19.74   -0.51   19.74  181.49
G12   31.89   41.32   35.43   70.40  -26.57   -1.97   26.64  184.24
G13   28.56   38.99   50.20   68.74  -31.89  -23.42   39.56  216.29
G14   40.49   28.78   39.33   60.58   44.35  -24.24   50.55  331.35
G15   61.38   62.41   14.61   83.13    2.88   58.56   58.64   87.19
G16   11.58   11.82    9.53   40.93    1.28    0.74    1.49   29.82
G17   33.33   24.74   10.81   56.82   37.07   23.97   44.14   32.89
G18   20.81   30.41   13.62   62.01  -36.28   24.76   43.93  145.69
G19   15.61   14.16   31.08   44.47   11.91  -40.21   41.93  286.49
G20   36.92   36.21   16.54   66.68    6.75   25.48   26.36   75.16
G21   35.14   34.31   10.55   65.21    7.14   39.24   39.89   79.69
G22   43.49   40.50    2.86   69.82   13.58   82.75   83.86   80.68
H1     2.36    2.64    3.14   18.58   -3.98   -7.67    8.64  242.59
H2     2.12    2.72    4.06   18.91  -10.37  -13.12   16.72  231.68
H3     1.89    2.67    5.21   18.67  -14.65  -19.88   24.68  233.61
H4     2.24    3.22    6.71   20.88  -16.42  -23.08   28.32  234.57
H5     9.39   10.66   11.26   38.99   -7.01   -8.18   10.77  229.43
H6     8.64   10.92   14.30   39.46  -15.27  -15.91   22.06  226.17
H7     7.60   10.70   18.05   39.08  -22.98  -25.56   34.37  228.06
H8     7.19   10.86   21.80   39.34  -28.06  -32.94   43.28  229.57
H9    35.92   39.11   34.89   68.83   -5.85   -3.89    7.02  213.72
H10   35.20   39.47   38.76   69.08   -9.35   -8.81   12.85  223.26
H11   35.50   41.09   45.74   70.24  -13.32  -15.65   20.55  229.59
H12   34.88   41.53   50.26   70.54  -16.76  -20.36   26.37  230.53
H13   23.19   33.39   46.49   64.48  -35.90  -26.48   44.60  216.40
H14   34.28   22.23   33.35   54.27   51.37  -26.75   57.92  332.49
H15   59.18   59.40   10.49   81.51    4.66   67.51   67.67   86.06
H16    7.36    7.44    6.06   32.78    1.82    0.34    1.86   10.66
H17   27.88   19.17    6.86   50.88   42.39   28.03   50.83   33.48
H18   15.62   24.62    9.48   56.71  -40.78   28.12   49.53  145.41
H19   11.03    9.39   25.80   36.71   15.59  -44.89   47.52  289.15
H20   41.73   42.91   17.08   71.49    1.12   32.53   32.55   88.03
H21   33.22   34.52   23.52   65.37   -0.16    8.64    8.64   91.07
H22   35.97   39.46   12.43   69.08   -6.78   40.24   40.80   99.57
I1     3.75    3.74    4.98   22.76    2.28  -11.62   11.85  281.12
I2     3.87    3.76    7.90   22.85    3.66  -24.52   24.80  278.48
I3     4.05    3.87   11.22   23.24    4.62  -35.24   35.53  277.47
I4     4.19    3.90   14.95   23.33    6.24  -45.38   45.80  277.83
I5    13.51   13.85   14.17   44.00    1.04   -7.72    7.80  277.73
I6    13.63   13.85   18.23   43.99    1.87  -17.47   17.57  276.10
I7    13.51   13.64   22.86   43.69    2.39  -27.49   27.60  274.97
I8    14.16   14.03   27.44   44.27    4.02  -34.68   34.91  276.61
I9    37.86   39.16   35.32   68.87    0.38   -4.44    4.46  274.85
I10   38.57   39.85   39.43   69.36    0.51   -9.24    9.25  273.19
I11   38.99   40.10   44.79   69.54    1.06  -15.71   15.75  273.87
I12   39.40   40.31   49.65   69.68    1.75  -21.15   21.22  274.71
I13   19.53   29.32   43.50   61.07  -38.50  -28.74   48.03  216.74
I14   30.54   18.62   29.62   50.25   55.34  -27.97   62.00  333.19
I15   57.48   57.10    8.21   80.24    6.05   73.25   73.49   85.28
I16    5.07    5.05    4.18   26.85    2.57   -0.08    2.58  178.38
I17   24.38   15.85    4.68   46.78   45.64   31.40   55.40   34.53
I18   12.56   20.94    7.11   52.88  -43.41   30.43   53.01  144.97
I19    8.19    6.44   21.81   30.49   19.41  -48.22   51.99  291.92
I20   42.61   47.08   18.09   74.24   -8.09   34.99   35.90  103.01
I21   12.08   16.02    4.11   47.00  -21.42   35.06   41.09  121.41
I22   29.82   38.03   19.40   68.04  -24.07   21.44   32.24  138.30
J1     1.87    1.68    2.72   13.72    6.36  -12.84   14.33  296.35
J2     2.16    1.69    4.52   13.79   12.72  -24.59   27.68  297.33
J3     2.65    1.75    7.59   14.14   21.04  -38.33   43.73  298.76
J4     2.94    1.75   10.24   14.07   26.60  -47.93   54.81  299.03
J5    10.70   10.25   11.30   38.28    6.35   -9.50   11.43  303.73
J6    11.48   10.33   14.74   38.42   11.44  -18.83   22.03  301.27
J7    11.94    9.99   18.88   37.82   17.26  -29.56   34.23  300.27
J8    12.78   10.31   22.09   38.39   20.53  -35.16   40.72  300.29
J9    38.92   39.50   35.88   69.11    2.72   -4.81    5.53  299.46
J10   39.81   39.69   39.57   69.25    4.89   -9.61   10.78  297.01
J11   41.17   39.72   44.39   69.28    9.01  -15.68   18.08  299.88
J12   41.82   39.45   49.06   69.07   11.83  -21.54   24.58  298.77
J13   14.11   22.78   38.04   54.84  -41.82  -32.40   52.90  217.76
J14   26.23   14.83   25.23   45.40   59.37  -28.91   66.04  334.04
J15   55.44   54.42    6.19   78.71    7.61   78.90   79.26   84.49
J16    2.60    2.63    2.28   18.49    1.30   -1.10    1.69  319.86
J17   20.25   12.22    2.82   41.57   49.11   34.39   59.96   34.99
J18    7.68   14.68    4.41   45.19  -48.53   30.11   57.12  148.18
J19    5.18    3.67   17.15   22.53   22.69  -52.06   56.79  293.55
J20   31.78   40.40   25.76   69.75  -24.19   12.15   27.08  153.35
J21    4.14    7.78    1.55   33.54  -38.31   32.17   50.03  139.98
J22    1.10    1.76    0.88   14.16  -17.70    8.03   19.44  155.62
K1     4.74    3.93    4.74   23.45   13.26   -9.16   16.12  325.35
K2     5.89    4.01    6.94   23.68   25.92  -19.24   32.28  323.40
K3     7.28    4.18    9.51   24.25   37.90  -27.97   47.11  323.58
K4     8.53    4.39   12.40   24.92   46.43  -35.78   58.62  322.38
K5    15.22   13.90   14.15   44.10   11.20   -7.53   13.50  326.08
K6    16.69   13.35   17.16   43.29   23.08  -16.29   28.24  324.78
K7    18.86   13.53   21.45   43.54   33.65  -25.03   41.93  323.35
K8    21.51   13.84   26.23   44.00   44.66  -33.08   55.57  323.48
K9    40.74   40.15   35.75   69.57    6.43   -3.84    7.48  329.24
K10   43.35   40.35   39.42   69.71   13.64   -8.60   16.12  327.73
K11   46.75   41.44   44.94   70.49   20.08  -14.26   24.63  324.60
K12   48.90   41.65   48.49   70.62   25.40  -18.22   31.25  324.35
K13   12.00   19.95   35.43   51.78  -42.55  -34.06   54.50  218.68
K14   21.61   11.22   20.48   39.95   62.60  -29.25   69.09  334.95
K15   47.78   44.66    2.84   72.67   13.53   87.85   88.88   81.24
K16    1.32    1.35    1.07   11.62    0.65    0.65    0.93   45.04
K17   16.95    9.67    1.38   37.25   50.68   40.64   64.96   38.72
K18    4.74    9.85    2.17   37.56  -47.68   32.88   57.92  145.42
K19    3.47    2.09   13.39   15.95   27.38  -54.03   60.56  296.88
K20    2.51    3.24    2.16   20.99  -11.15    4.45   12.00  158.26
K21    1.26    1.69    1.59   13.81  -10.52   -2.18   10.75  191.74
K22    1.62    2.04    3.16   15.70   -8.39  -12.75   15.27  236.67
L1     3.52    2.85    2.66   19.42   13.19   -2.61   13.45  348.79
L2     4.32    2.90    2.91   19.64   23.98   -4.14   24.33  350.20
L3     5.92    3.43    3.40   21.68   34.81   -4.13   35.06  353.23
L4     6.51    3.72    4.57   22.69   36.78   -9.55   38.00  345.44
L5    12.50   10.65    9.88   38.97   16.15   -3.83   16.60  346.70
L6    14.87   10.73   10.59   39.11   30.56   -5.86   31.12  349.17
L7    17.80   10.75   11.06   39.15   46.98   -7.28   47.54  351.18
L8    19.53   11.18   12.42   39.89   52.73  -10.05   53.68  349.21
L9    41.82   40.61   34.71   69.90    8.26   -1.77    8.45  347.90
L10   44.22   40.81   35.65   70.04   14.74   -2.89   15.02  348.90
L11   47.15   41.25   36.50   70.35   21.78   -3.55   22.06  350.74
L12   48.81   40.81   37.46   70.04   27.68   -5.41   28.20  348.95
L13    8.05   13.91   28.92   44.10  -40.53  -37.42   55.15  222.71
L14   17.05    8.20   16.00   34.39   63.47  -28.92   69.76  335.50
L15   44.28   40.57    2.32   69.87   15.66   87.24   88.64   79.82
L16    0.53    0.53    0.62    4.78    0.89   -3.30    3.41  285.18
L17   12.93    6.86    0.79   31.50   51.22   39.39   64.62   37.56
L18    2.87    6.60    1.52   30.88  -47.03   27.98   54.72  149.25
L19    2.03    0.97    9.10    8.72   31.65  -53.33   62.01  300.68
L20    0.69    0.79    0.77    7.14   -2.66   -2.28    3.51  220.55
L21    0.90    0.79    0.88    7.21    5.24   -3.97    6.58  322.80
L22    2.18    1.67    1.49   13.65   13.59   -1.40   13.66  354.12
GS0    76.17   78.69   67.74   91.10    0.65   -2.67    2.74  283.79
GS1    69.38   71.90   58.81   87.93    0.16    0.48    0.51   71.35
GS2    58.98   60.56   49.44   82.14    1.48    0.56    1.58   20.78
GS3    53.08   54.61   45.05   78.82    1.15   -0.03    1.15  358.21
GS4    46.72   48.28   39.33   75.01    0.53    0.63    0.83   49.82
GS5    40.33   41.71   34.06   70.68    0.41    0.47    0.66   42.54
GS6    34.67   35.85   28.85   66.40    0.41    1.15    1.23   70.54
GS7    30.46   31.47   25.55   62.90    0.47    0.69    0.84   55.39
GS8    26.08   26.92   21.70   58.90    0.61    0.96    1.14   57.89
GS9    22.71   23.48   18.88   55.56    0.38    1.01    1.08   69.48
GS10   18.94   19.67   16.09   51.46   -0.05    0.31    0.37  100.93
GS11   16.18   16.61   13.18   47.76    0.99    1.38    1.70   53.88
GS12   13.10   13.46   10.81   43.44    0.84    0.90    1.24   47.09
GS13   10.28   10.52    8.34   38.76    1.11    1.25    1.68   47.89
GS14    8.18    8.41    6.66   34.81    0.69    1.12    1.33   56.98
GS15    6.57    6.71    5.61   31.14    0.99   -0.41    1.08  338.12
GS16    5.30    5.40    4.34   27.85    1.03    0.65    1.22   32.41
GS17    3.74    3.84    3.11   23.13    0.55    0.42    0.73   34.32
GS18    2.62    2.70    2.24   18.81    0.40   -0.07    0.41  349.82
GS19    1.86    1.90    1.50   14.99    0.44    0.81    0.92   62.10
GS20    1.22    1.25    0.96   10.90    0.63    1.00    1.19   57.58
GS21    1.04    1.05    0.79    9.44    0.93    1.30    1.60   54.51
GS22    0.86    0.87    0.68    7.82    0.70    0.76    1.03   47.81
GS23    0.46    0.46    0.57    4.14    0.78   -3.57    3.66  282.32
END_DATA
