lprof/data/targets/Agfa/Reflective/C90201XX.it8
IT8.7/2
ORIGINATOR "FotoTune"
DESCRIPTOR "Agfa IT8"
MATERIAL "Agfacolor"
MANUFACTURER "Agfa"
CREATED "Mon May 10 15:35:10 1999"
PROD_DATE "1999:05"
SERIAL "5x7 c90201xx"
NUMBER_OF_FIELDS 9
BEGIN_DATA_FORMAT
SAMPLE_ID XYZ_X XYZ_Y XYZ_Z LAB_L LAB_A LAB_B LAB_C LAB_H
END_DATA_FORMAT
NUMBER_OF_SETS 288
BEGIN_DATA
A1     3.51    2.91    2.18   19.69   11.96    1.89   12.11    9.00
A2     4.25    2.88    1.78   19.57   23.34    5.56   23.99   13.40
A3     5.66    3.37    1.74   21.44   32.98    9.33   34.27   15.80
A4     5.59    3.32    1.86   21.26   32.93    7.68   33.82   13.12
A5    13.43   11.63    8.18   40.61   15.18    5.05   16.00   18.41
A6    15.95   11.77    7.68   40.85   29.51    7.37   30.42   14.01
A7    16.94   10.76    6.02   39.18   42.22   11.55   43.78   15.30
A8    18.42   10.54    5.23   38.79   51.83   14.68   53.86   15.81
A9    41.40   40.45   32.85   69.79    7.49    0.75    7.53    5.71
A10   44.09   40.91   31.66   70.12   14.09    3.10   14.44   12.40
A11   47.09   41.42   30.33   70.47   21.10    5.78   21.88   15.32
A12   47.33   39.92   28.48   69.42   26.28    6.94   27.19   14.80
A13   75.06   77.82   67.38   90.69    0.11   -3.03    3.03  272.07
A14   75.28   77.49   67.09   90.54    1.22   -3.01    3.25  291.99
A15   75.19   77.81   64.91   90.69    0.42   -0.72    0.83  299.98
A16   74.16   76.69   64.65   90.18    0.51   -1.36    1.46  290.66
A17   74.86   77.18   64.91   90.40    0.98   -1.22    1.57  308.76
A18   74.67   77.49   65.18   90.54   -0.05   -1.22    1.23  268.10
A19   74.53   76.99   67.18   90.32    0.65   -3.49    3.55  280.52
A20    1.35    1.07    0.67    9.50   10.65    3.88   11.34   20.01
A21    5.00    2.99    0.73   20.03   31.21   20.83   37.53   33.72
A22    9.32    5.08    0.76   26.95   44.37   32.12   54.78   35.90
B1     2.99    2.64    1.58   18.53    8.28    6.01   10.24   35.97
B2     3.88    2.93    0.90   19.75   17.28   17.13   24.33   44.76
B3     4.74    3.16    0.77   20.65   25.25   21.11   32.91   39.90
B4     5.28    3.39    0.77   21.56   28.04   22.64   36.03   38.90
B5    12.71   11.03    6.18   39.63   14.71   11.57   18.72   38.19
B6    15.72   11.70    4.26   40.74   28.65   23.29   36.92   39.11
B7    17.60   11.40    2.46   40.25   41.17   34.99   54.03   40.35
B8    17.71   10.58    1.56   38.85   47.82   41.26   63.16   40.78
B9    41.68   41.19   30.72   70.31    6.05    4.89    7.78   38.96
B10   44.19   41.65   27.44   70.62   12.18   10.76   16.26   41.47
B11   47.04   42.28   25.10   71.06   18.41   15.56   24.10   40.21
B12   47.67   41.68   22.51   70.65   21.94   19.66   29.46   41.88
B13   67.21   72.26   65.75   88.09   -5.28   -5.99    7.99  228.61
B14   70.82   69.86   64.24   86.93    7.51   -6.56    9.97  318.82
B15   72.46   75.44   52.52   89.61   -0.51    9.99    9.99   92.96
B16   60.08   62.02   50.83   82.93    0.73    0.33    0.82   27.39
B17   67.88   67.62   51.03   85.81    6.01    5.10    7.89   40.31
B18   63.91   69.20   52.03   86.60   -6.24    5.36    8.23  139.40
B19   62.36   64.14   62.11   84.04    1.24   -9.50    9.58  277.43
B20    3.06    2.09    0.71   15.95   20.57   14.06   24.92   34.36
B21    8.27    4.63    0.75   25.65   41.05   30.09   50.89   36.24
B22   30.36   26.29   14.41   58.31   19.92   16.29   25.74   39.26
C1     4.34    4.13    2.30   24.09    5.05    8.52    9.91   59.38
C2     5.06    4.51    1.36   25.28    9.29   20.28   22.31   65.39
C3     5.68    4.74    0.98   25.96   13.78   26.69   30.03   62.69
C4     5.40    4.48    0.97   25.20   13.81   25.60   29.08   61.67
C5    23.65   22.86   10.95   54.93    7.32   20.22   21.51   70.11
C6    25.69   22.67    5.67   54.74   16.90   40.02   43.44   67.11
C7    27.57   22.55    2.41   54.60   25.14   60.10   65.15   67.29
C8    29.16   23.11    1.77   55.18   28.81   67.06   72.99   66.75
C9    48.47   49.00   33.55   75.45    3.41    9.48   10.07   70.21
C10   50.80   49.89   27.96   76.00    7.32   19.15   20.50   69.08
C11   53.09   50.68   23.09   76.49   11.22   28.60   30.74   68.59
C12   52.93   49.51   18.90   75.77   13.89   35.83   38.44   68.82
C13   57.26   64.65   63.16   84.31  -12.02  -10.06   15.68  219.93
C14   64.35   59.67   59.76   81.67   16.03  -11.27   19.60  324.89
C15   70.37   73.38   43.47   88.63   -0.75   18.82   18.83   92.29
C16   45.28   46.83   38.72   74.07    0.45   -0.16    0.47  337.67
C17   59.71   56.15   40.27   79.70   13.73    7.51   15.65   28.69
C18   52.54   60.19   42.17   81.94  -13.73    8.92   16.37  146.99
C19   48.50   49.22   55.50   75.59    2.91  -17.35   17.60  279.48
C20    1.88    1.55    0.72   12.91   10.05    8.68   13.28   40.84
C21   23.27   17.74    5.65   49.17   30.40   30.55   43.10   45.14
C22   36.92   34.36   21.39   65.25   12.94   12.53   18.02   44.10
D1     4.27    4.39    2.53   24.90    0.51    7.89    7.91   86.28
D2     3.92    4.10    1.33   24.01   -0.54   18.50   18.51   91.65
D3     4.14    4.40    1.07   24.96   -1.50   23.64   23.68   93.64
D4     4.41    4.49    1.07   25.24    1.05   24.21   24.24   87.52
D5    26.33   27.75   14.03   59.67   -1.68   19.60   19.68   94.90
D6    27.10   28.25    7.88   60.12   -0.51   39.76   39.76   90.74
D7    26.57   27.72    3.79   59.63   -0.61   58.74   58.74   90.60
D8    25.24   26.17    2.10   58.19    0.06   69.10   69.10   89.95
D9    56.97   59.43   39.71   81.53   -0.79   11.39   11.41   93.96
D10   56.64   59.40   31.72   81.51   -1.50   22.65   22.71   93.78
D11   56.25   58.87   26.05   81.22   -1.22   31.41   31.44   92.22
D12   56.78   60.24   21.65   81.97   -3.13   40.85   40.97   94.38
D13   48.14   57.11   60.08   80.24  -18.14  -14.03   22.93  217.74
D14   57.78   50.22   54.63   76.20   24.16  -15.39   28.65  327.50
D15   68.15   70.99   34.96   87.47   -0.56   28.16   28.17   91.15
D16   33.17   34.31   28.37   65.21    0.35   -0.12    0.43  185.59
D17   51.84   46.08   30.01   73.60   20.42   11.68   23.53   29.78
D18   42.20   51.39   32.72   76.92  -20.83   13.23   24.67  147.58
D19   37.35   37.25   49.12   67.46    4.77  -24.39   24.85  281.05
D20   14.45   10.86    3.34   39.34   27.07   26.74   38.04   44.64
D21   23.67   22.90   14.62   54.97    7.24    9.99   12.35   54.10
D22   40.75   39.73   24.65   69.28    7.71   13.31   15.39   59.90
E1     3.71    4.16    2.40   24.19   -4.41    7.77    8.93  119.62
E2     3.41    4.27    1.49   24.54  -10.68   17.51   20.51  121.38
E3     3.43    4.43    1.14   25.06  -12.57   22.67   25.92  119.01
E4     3.37    4.41    1.15   25.01  -13.22   22.51   26.11  120.42
E5    12.85   14.75    8.05   45.29   -8.76   13.61   16.19  122.76
E6    12.00   14.91    4.89   45.51  -15.49   28.06   32.05  118.90
E7    11.15   15.24    2.80   45.96  -23.47   42.06   48.17  119.17
E8     9.99   14.40    1.95   44.80  -27.22   47.40   54.67  119.87
E9    39.03   41.50   29.08   70.53   -3.02    7.86    8.43  110.99
E10   36.24   40.75   23.78   70.00   -9.81   16.14   18.89  121.30
E11   35.32   41.47   19.93   70.50  -15.02   24.55   28.78  121.46
E12   34.75   42.03   17.10   70.88  -18.66   31.42   36.54  120.71
E13   41.11   50.92   57.09   76.64  -22.91  -17.23   28.66  216.95
E14   52.22   42.87   49.97   71.46   30.61  -18.45   35.75  328.92
E15   65.37   67.71   26.15   85.87    0.23   39.24   39.24   89.65
E16   24.68   25.49   20.67   57.54    0.48    0.72    0.88   56.24
E17   45.15   38.12   21.78   68.10   25.81   16.68   30.73   32.88
E18   33.38   43.18   24.69   71.68  -26.81   17.35   31.94  147.08
E19   29.27   28.69   43.26   60.50    6.31  -29.40   30.07  282.11
E20   23.20   16.03    1.37   47.01   39.45   57.61   69.83   55.60
E21   17.67   14.62    3.30   45.11   20.65   36.92   42.30   60.78
E22   30.26   26.56    9.68   58.56   18.46   30.62   35.76   58.92
F1     1.39    1.75    1.25   14.10   -7.96    2.36    8.30  163.48
F2     1.22    1.89    1.04   14.88  -16.61    6.65   17.90  158.19
F3     1.21    2.18    1.08   16.43  -23.49    8.81   25.08  159.44
F4     1.34    2.55    1.14   18.15  -26.88   10.76   28.95  158.20
F5     6.52    8.15    5.78   34.29  -13.03    4.21   13.70  162.11
F6     5.44    8.31    5.07   34.63  -26.37    8.36   27.66  162.41
F7     4.36    8.24    4.32   34.48  -39.41   12.23   41.26  162.76
F8     3.18    7.64    3.65   33.23  -51.96   14.09   53.83  164.83
F9    36.22   39.75   30.97   69.29   -6.82    2.77    7.36  157.94
F10   35.53   40.85   30.22   70.07  -12.46    5.27   13.53  157.11
F11   33.52   40.65   28.65   69.93  -18.74    7.53   20.20  158.10
F12   32.92   41.83   28.44   70.76  -24.43    9.32   26.15  159.11
F13   34.76   45.05   53.88   72.93  -27.38  -20.24   34.04  216.49
F14   47.53   36.99   45.82   67.28   36.08  -20.85   41.68  329.97
F15   63.89   65.82   21.38   84.90    1.04   46.45   46.46   88.72
F16   18.49   19.10   15.44   50.79    0.44    0.74    0.89   63.18
F17   40.35   32.56   16.72   63.79   30.08   20.06   36.17   33.70
F18   27.72   37.60   19.35   67.73  -30.86   21.01   37.33  145.76
F19   23.07   22.12   38.32   54.15    8.05  -33.97   34.90  283.33
F20   27.79   26.95   14.47   58.93    7.37   17.23   18.74   66.84
F21   34.77   32.39   12.72   63.65   12.57   30.08   32.60   67.32
F22   39.44   37.85   18.86   67.90    9.54   22.36   24.31   66.90
G1     2.28    2.81    2.68   19.26   -8.49   -3.08    9.03  199.95
G2     1.82    2.77    2.99   19.09  -18.12   -5.73   19.01  197.54
G3     1.80    3.22    3.49   20.90  -26.37   -6.07   27.06  192.98
G4     1.96    3.60    3.88   22.31  -28.69   -6.12   29.34  192.04
G5     8.95   10.95    9.66   39.51  -12.85   -2.18   13.04  189.63
G6     7.73   11.09   10.41   39.74  -24.61   -4.23   24.97  189.73
G7     6.29   10.79   10.65   39.22  -36.71   -5.90   37.18  189.14
G8     5.31   10.97   11.60   39.52  -49.07   -8.31   49.78  189.60
G9    35.85   39.59   32.47   69.17   -7.53    0.25    7.53  178.14
G10   34.59   40.14   34.00   69.57  -13.53   -1.33   13.59  185.59
G11   33.59   41.10   34.79   70.24  -19.90   -1.31   19.94  183.76
G12   32.33   41.82   36.41   70.74  -26.48   -2.74   26.62  185.90
G13   28.60   39.02   50.32   68.77  -31.85  -23.50   39.58  216.42
G14   41.01   29.42   39.88   61.14   43.56  -23.99   49.72  331.15
G15   61.65   62.85   15.44   83.36    2.56   56.89   56.94   87.43
G16   11.85   12.20   10.03   41.53    0.63    0.10    0.67  192.08
G17   33.89   25.35   11.34   57.42   36.43   23.36   43.28   32.67
G18   20.97   30.67   14.22   62.22  -36.46   23.55   43.40  147.14
G19   15.81   14.48   31.41   44.91   11.13  -39.96   41.49  285.56
G20   37.68   37.21   17.46   67.43    5.99   24.65   25.36   76.35
G21   35.78   35.14   11.10   65.86    6.49   38.62   39.17   80.45
G22   44.09   41.28    2.97   70.36   12.98   82.85   83.85   81.09
H1     2.36    2.68    3.25   18.73   -4.45   -8.17    9.30  241.43
H2     2.16    2.78    4.24   19.15  -10.55  -13.81   17.39  232.63
H3     1.92    2.72    5.37   18.88  -14.71  -20.33   25.09  234.11
H4     2.30    3.29    6.97   21.17  -16.41  -23.67   28.80  235.26
H5     9.50   10.85   11.68   39.32   -7.47   -8.88   11.61  229.96
H6     8.74   11.12   14.69   39.78  -15.77  -16.39   22.74  226.11
H7     7.65   10.82   18.44   39.27  -23.30  -26.09   34.98  228.24
H8     7.19   10.90   21.91   39.40  -28.26  -33.06   43.49  229.48
H9    36.28   39.60   35.47   69.18   -6.14   -4.12    7.39  213.91
H10   35.60   39.89   39.31   69.39   -9.33   -9.01   12.98  223.96
H11   35.67   41.33   46.10   70.40  -13.45  -15.80   20.75  229.57
H12   35.19   41.88   50.71   70.79  -16.72  -20.45   26.42  230.73
H13   23.09   33.28   46.42   64.39  -35.95  -26.54   44.68  216.43
H14   34.65   22.67   33.74   54.72   50.69  -26.55   57.22  332.35
H15   59.30   59.64   10.82   81.64    4.40   66.74   66.88   86.23
H16    7.46    7.61    6.37   33.14    1.28   -0.45    1.35  340.57
H17   28.17   19.47    7.12   51.24   42.00   27.52   50.22   33.24
H18   15.57   24.64    9.82   56.72  -41.10   26.97   49.16  146.74
H19   11.07    9.49   25.92   36.92   14.92  -44.78   47.20  288.43
H20   42.17   43.51   17.83   71.90    0.72   31.51   31.52   88.70
H21   33.74   35.14   24.28   65.85   -0.44    8.08    8.09   93.15
H22   36.26   39.89   12.95   69.38   -7.12   39.31   39.96  100.26
I1     3.82    3.83    5.22   23.10    1.83  -12.34   12.47  278.41
I2     3.89    3.82    8.12   23.07    3.21  -25.01   25.21  277.32
I3     4.07    3.92   11.41   23.40    4.19  -35.50   35.74  276.73
I4     4.27    4.04   15.26   23.80    5.45  -45.37   45.69  276.85
I5    13.68   14.10   14.70   44.36    0.57   -8.50    8.52  273.88
I6    13.71   14.01   18.56   44.24    1.34  -17.79   17.84  274.28
I7    13.61   13.81   23.27   43.96    1.90  -27.81   27.88  273.91
I8    14.33   14.32   27.88   44.68    3.34  -34.72   34.87  275.48
I9    38.29   39.75   35.81   69.29   -0.05   -4.41    4.41  269.23
I10   39.19   40.60   40.32   69.89    0.20   -9.48    9.49  271.22
I11   39.50   40.76   45.44   70.01    0.70  -15.69   15.72  272.53
I12   39.89   41.01   50.22   70.18    1.12  -20.95   20.98  273.04
I13   19.42   29.21   43.40   60.97  -38.59  -28.78   48.15  216.71
I14   30.87   18.96   29.95   50.64   54.85  -27.82   61.50  333.11
I15   57.63   57.40    8.51   80.40    5.69   72.42   72.64   85.51
I16    5.13    5.18    4.36   27.25    1.70   -0.51    1.79  344.12
I17   24.58   16.05    4.85   47.03   45.39   30.92   54.92   34.25
I18   12.51   20.92    7.24   52.87  -43.68   29.86   52.91  145.64
I19    8.24    6.54   21.99   30.74   18.80  -48.14   51.69  291.32
I20   43.03   47.67   18.70   74.62   -8.48   34.26   35.30  103.90
I21   12.14   16.22    4.19   47.26  -22.06   34.99   41.35  122.23
I22   30.08   38.40   19.93   68.31  -24.25   20.78   31.94  139.40
J1     1.96    1.77    2.91   14.24    6.10  -13.50   14.81  294.30
J2     2.24    1.75    4.82   14.15   12.76  -25.67   28.67  296.41
J3     2.76    1.84    7.94   14.64   20.89  -38.88   44.13  298.24
J4     3.03    1.82   10.59   14.50   26.34  -48.32   55.03  298.60
J5    11.05   10.65   11.90   38.99    5.88  -10.09   11.68  300.20
J6    11.86   10.76   15.55   39.17   10.88  -19.56   22.38  299.08
J7    12.32   10.39   19.57   38.53   16.82  -29.83   34.24  299.42
J8    13.09   10.67   22.73   39.02   19.85  -35.30   40.50  299.35
J9    39.57   40.32   36.56   69.69    2.20   -4.75    5.24  294.91
J10   40.68   40.63   40.74   69.91    4.73   -9.98   11.05  295.27
J11   42.31   41.00   45.56   70.18    8.57  -15.53   17.74  298.90
J12   42.72   40.56   49.83   69.86   11.15  -21.06   23.82  297.89
J13   14.13   22.81   38.07   54.88  -41.85  -32.39   52.92  217.74
J14   26.55   15.11   25.60   45.79   58.97  -28.90   65.67  333.89
J15   55.82   54.97    6.51   79.02    7.18   78.04   78.37   84.75
J16    2.70    2.77    2.45   19.08    0.68   -1.50    1.65  294.51
J17   20.53   12.46    2.95   41.94   48.90   33.97   59.53   34.79
J18    7.74   14.84    4.61   45.42  -48.96   29.40   57.10  149.02
J19    5.21    3.72   17.28   22.72   22.15  -52.06   56.57  293.04
J20   32.31   41.01   26.85   70.18  -24.17   11.00   26.56  155.53
J21    4.19    7.94    1.58   33.85  -38.96   32.44   50.69  140.23
J22    1.11    1.81    0.88   14.45  -18.51    8.40   20.33  155.60
K1     4.82    4.03    4.96   23.78   12.74   -9.77   16.06  322.53
K2     6.03    4.14    7.28   24.15   25.48  -19.80   32.26  322.14
K3     7.48    4.32    9.90   24.71   37.84  -28.51   47.38  323.01
K4     8.78    4.55   12.80   25.42   46.47  -36.07   58.83  322.17
K5    15.55   14.27   14.75   44.62   10.87   -8.16   13.59  323.08
K6    17.15   13.84   17.84   43.99   22.62  -16.63   28.08  323.67
K7    19.20   13.86   21.98   44.03   33.27  -25.20   41.74  322.85
K8    21.83   14.14   26.57   44.42   44.32  -32.94   55.22  323.38
K9    41.40   40.96   36.75   70.15    5.95   -4.24    7.31  324.52
K10   44.08   41.21   40.23   70.32   13.12   -8.61   15.69  326.70
K11   47.47   42.33   45.90   71.10   19.43  -14.36   24.16  323.53
K12   49.53   42.46   49.17   71.19   24.69  -18.02   30.57  323.87
K13   11.89   19.83   35.28   51.64  -42.62  -34.10   54.57  218.66
K14   21.93   11.48   20.84   40.38   62.25  -29.26   68.78  334.83
K15   48.02   45.08    2.88   72.94   13.03   87.98   88.94   81.57
K16    1.35    1.39    1.11   11.90    0.07    0.54    0.54   80.69
K17   17.17    9.86    1.45   37.60   50.37   40.42   64.58   38.75
K18    4.72    9.89    2.24   37.64  -48.33   32.40   58.19  146.16
K19    3.49    2.13   13.52   16.17   26.78  -54.03   60.29  296.36
K20    2.51    3.28    2.24   21.13  -11.91    3.86   12.52  162.05
K21    1.28    1.75    1.64   14.10  -11.22   -2.37   11.47  191.89
K22    1.67    2.11    3.35   16.07   -8.87  -13.45   16.12  236.62
L1     3.44    2.80    2.76   19.24   12.73   -3.74   13.26  343.67
L2     4.28    2.90    3.01   19.66   23.42   -4.89   23.92  348.20
L3     5.91    3.45    3.52   21.75   34.42   -4.81   34.76  352.05
L4     6.55    3.74    4.69   22.78   36.86  -10.08   38.22  344.71
L5    12.48   10.69   10.18   39.06   15.61   -4.63   16.28  343.47
L6    14.94   10.83   10.84   39.29   30.22   -6.37   30.89  348.10
L7    17.89   10.87   11.28   39.36   46.61   -7.62   47.23  350.71
L8    19.67   11.32   12.72   40.11   52.51  -10.52   53.55  348.67
L9    42.39   41.28   35.36   70.38    7.92   -1.90    8.15  346.51
L10   44.54   41.28   36.32   70.38   14.26   -3.27   14.63  347.11
L11   47.65   41.92   37.22   70.81   21.18   -3.74   21.51  349.96
L12   49.21   41.35   38.17   70.43   27.09   -5.70   27.69  348.12
L13    7.92   13.73   28.65   43.84  -40.58  -37.44   55.21  222.70
L14   17.24    8.30   16.16   34.60   63.60  -28.92   69.86  335.54
L15   44.18   40.56    2.36   69.87   15.36   86.90   88.25   79.98
L16    0.53    0.54    0.61    4.84    0.60   -3.16    3.21  280.60
L17   13.05    6.95    0.81   31.69   51.15   39.41   64.57   37.61
L18    2.82    6.56    1.53   30.76  -47.50   27.67   54.97  149.77
L19    2.03    0.97    9.12    8.74   31.39  -53.37   61.91  300.46
L20    0.70    0.81    0.81    7.36   -3.17   -2.51    4.05  218.40
L21    0.90    0.81    0.92    7.30    4.78   -4.43    6.51  317.15
L22    2.13    1.64    1.57   13.49   13.15   -2.45   13.38  349.43
GS0    76.10   78.58   67.87   91.05    0.72   -2.88    2.96  284.01
GS1    69.58   72.15   59.47   88.04    0.11    0.00    0.11  179.46
GS2    59.61   61.22   50.40   82.49    1.47    0.09    1.47    3.47
GS3    53.69   55.39   46.06   79.26    0.81   -0.47    0.94  329.46
GS4    47.58   49.29   40.74   75.64    0.23   -0.14    0.28  172.51
GS5    41.15   42.72   35.26   71.37   -0.11   -0.03    0.25  258.15
GS6    35.37   36.68   29.83   67.04    0.05    0.65    0.69   85.46
GS7    31.02   32.19   26.33   63.50   -0.02    0.37    0.40   86.65
GS8    26.60   27.58   22.62   59.50    0.08    0.22    0.38   57.56
GS9    23.19   24.11   19.74   56.20   -0.21    0.29    0.39  120.98
GS10   19.40   20.25   16.81   52.12   -0.62   -0.25    0.73  208.79
GS11   16.62   17.19   13.99   48.49    0.35    0.47    0.63   52.78
GS12   13.51   13.99   11.50   44.21    0.21    0.08    0.41  203.44
GS13   10.51   10.85    8.75   39.33    0.38    0.72    0.84   62.54
GS14    8.38    8.68    7.09   35.36    0.04    0.31    0.40   76.51
GS15    6.61    6.84    5.91   31.42    0.28   -1.32    1.36  280.53
GS16    5.29    5.47    4.55   28.01    0.30   -0.22    0.38  332.55
GS17    3.74    3.88    3.24   23.27    0.04   -0.28    0.43  226.86
GS18    2.63    2.74    2.36   18.95   -0.21   -0.88    0.94  249.27
GS19    1.85    1.92    1.57   15.09   -0.09    0.20    0.39  176.04
GS20    1.22    1.27    1.00   11.03    0.01    0.73    0.73   88.12
GS21    1.03    1.07    0.81    9.55    0.23    1.15    1.18   77.57
GS22    0.84    0.88    0.68    7.88    0.05    0.82    0.82   85.35
GS23    0.45    0.45    0.57    4.13    0.55   -3.63    3.66  278.60
END_DATA
