lprof/data/targets/Wolf/Emissive/E0105111.it8
IT8.7/1
ORIGINATOR "Wolf Faust"
DESCRIPTOR "Ektachrome Type 3, L* a* b* (light D50, viewing angle 2)"
MANUFACTURER "Wolf Faust - http://www.coloraid.de"
CREATED "May 11, 2001"
PROD_DATE "2001:05"
SERIAL "E0105111 Batch Average Data"
MATERIAL "For Kodak Ektachrome Product Family"
NUMBER_OF_FIELDS 9
BEGIN_DATA_FORMAT
SAMPLE_ID   XYZ_X   XYZ_Y   XYZ_Z          LAB_L   LAB_A   LAB_B          LAB_C   LAB_H
END_DATA_FORMAT
NUMBER_OF_SETS 288
BEGIN_DATA
A1           2.43    2.01    1.37          15.54   10.66    3.34          11.17   17.41
A2           2.85    1.95    1.16          15.22   20.01    5.57          20.77   15.57
A3           3.15    1.78    0.94          14.27   29.36    7.19          30.22   13.76
A4           4.21    1.98    0.73          15.35   40.86   12.61          42.76   17.15
A5           9.58    8.23    5.91          34.46   14.07    3.94          14.62   15.66
A6          11.14    8.00    5.05          33.99   28.06    7.38          29.01   14.75
A7          14.33    8.66    4.70          35.33   43.59   11.53          45.09   14.81
A8          16.22    8.02    3.80          34.03   60.38   14.57          62.12   13.56
A9          30.77   29.39   23.12          61.12    9.25    2.09           9.49   12.83
A10         33.02   29.77   22.40          61.44   15.99    4.03          16.50   14.17
A11         30.42   25.67   18.60          57.71   22.63    5.37          23.27   13.36
A12         37.36   28.02   18.30          59.90   37.34    9.80          38.61   14.70
A13         73.02   75.65   63.79          89.69    0.18   -1.34           1.36   276.98
A14         74.17   76.46   64.16          90.07    0.94   -1.05           1.43   313.80
A15         74.04   76.45   62.84          90.07    0.66    0.22           0.83   169.08
A16         73.22   75.96   62.93          89.84   -0.05   -0.26           0.52   231.49
A17         74.07   76.46   62.95          90.07    0.71    0.13           0.88   213.21
A18         73.30   76.11   63.06          89.91   -0.19   -0.27           0.55   218.88
A19         73.18   75.88   64.24          89.80    0.04   -1.58           1.60   270.44
A20          1.59    1.42    1.40          12.07    6.27   -3.03           6.99   334.09
A21          5.72    3.55    0.77          22.12   30.65   23.59          38.68   37.57
A22         10.24    5.99    0.91          29.38   41.17   33.75          53.24   39.35
B1           3.14    2.83    1.82          19.35    7.24    4.85           8.72   33.90
B2           3.99    3.05    1.00          20.22   16.86   16.56          23.63   44.49
B3           4.27    2.82    0.54          19.30   24.77   23.06          33.84   42.95
B4           5.14    2.87    0.19          19.51   35.17   29.96          46.20   40.42
B5          12.99   11.57    6.52          40.52   12.70   11.60          17.21   42.42
B6          15.09   11.66    4.39          40.67   25.14   22.48          33.73   41.81
B7          16.59   11.11    2.74          39.76   37.71   31.88          49.39   40.21
B8          19.71   10.70    0.94          39.07   57.14   49.95          75.89   41.16
B9          34.87   34.55   25.97          65.39    5.39    4.29           6.91   38.54
B10         34.40   32.20   21.23          63.50   11.94    9.85          15.49   39.55
B11         37.79   33.33   19.71          64.42   19.24   14.55          24.13   37.10
B12         41.04   32.93   15.70          64.10   30.84   23.06          38.51   36.79
B13         64.74   70.42   63.59          87.20   -7.01   -5.45           8.89   217.89
B14         69.03   67.38   61.01          85.69    8.97   -5.53          10.54   328.32
B15         72.83   75.74   53.43          89.74   -0.41    9.27           9.28   92.47
B16         60.60   62.98   52.20          83.43   -0.29   -0.27           0.57   216.02
B17         67.43   66.49   51.82          85.25    7.40    3.28           8.10   23.86
B18         63.34   69.55   53.26          86.77   -8.37    4.35           9.43   152.59
B19         61.28   63.25   60.68          83.57    0.71   -8.86           8.89   274.55
B20          3.41    2.77    1.58          19.08   12.83    6.97          14.60   28.47
B21          8.97    5.06    0.78          26.91   41.56   31.62          52.23   37.27
B22         29.68   25.43   12.05          57.48   20.86   21.38          29.88   45.71
C1           6.80    6.61    3.72          30.90    4.37    9.67          10.62   65.72
C2           6.88    6.36    2.16          30.29    7.90   20.41          21.89   68.86
C3           7.25    6.27    1.19          30.08   12.38   30.71          33.11   68.04
C4           7.13    5.68    0.43          28.58   17.71   41.19          44.83   66.74
C5          23.25   22.28   11.32          54.31    8.11   18.08          19.82   65.82
C6          26.12   23.44    6.74          55.52   15.20   36.54          39.58   67.41
C7          28.61   24.01    3.25          56.09   22.75   56.29          60.71   68.00
C8          28.39   21.94    1.19          53.96   31.12   71.99          78.43   66.62
C9          38.36   38.42   26.26          68.32    4.27    8.84           9.83   64.15
C10         39.83   38.75   22.53          68.56    7.87   16.05          17.88   63.85
C11         39.34   37.29   18.91          67.48   10.98   21.55          24.19   62.99
C12         47.38   41.74    9.54          70.68   20.92   52.03          56.09   68.09
C13         57.21   65.06   62.95          84.51  -13.11   -9.46          16.17   215.83
C14         61.91   56.60   56.75          79.95   17.76  -11.12          20.96   327.95
C15         71.03   74.27   43.56          89.05   -1.23   19.47          19.51   93.61
C16         47.46   49.11   40.75          75.52    0.30   -0.31           0.53   263.53
C17         58.38   54.21   40.11          78.58   15.32    5.81          16.39   20.79
C18         54.24   62.82   43.34          83.35  -15.48    9.91          18.39   147.39
C19         48.97   49.74   55.99          75.90    2.77  -17.31          17.54   279.08
C20          2.02    1.87    1.47          14.77    5.21    0.78           5.31   59.53
C21         23.78   17.66    4.97          49.07   33.01   33.78          47.24   45.66
C22         35.49   31.94   17.59          63.29   16.54   17.25          23.91   46.19
D1           4.60    4.83    2.79          26.24   -0.69    8.16           8.21   94.82
D2           4.66    4.85    1.76          26.29   -0.20   17.48          17.49   90.64
D3           4.24    4.51    0.84          25.28   -1.47   27.89          27.93   93.02
D4           4.14    4.38    0.48          24.88   -1.20   33.77          33.79   92.04
D5          17.82   18.58    9.68          50.18   -0.49   16.21          16.23   91.71
D6          17.83   18.89    5.34          50.55   -2.03   34.44          34.51   93.37
D7          17.72   18.96    2.53          50.63   -2.94   52.29          52.38   93.22
D8          16.56   17.49    1.38          48.86   -1.70   60.71          60.73   91.61
D9          49.17   51.20   27.03          76.79   -0.53   22.12          22.13   91.35
D10         46.90   48.80   13.84          75.32   -0.44   47.17          47.17   90.53
D11         49.33   52.03    8.45          77.30   -2.25   67.30          67.34   91.91
D12         47.59   50.74    6.19          76.52   -3.66   75.16          75.24   92.79
D13         49.18   58.96   61.98          81.27  -19.77  -14.12          24.30   215.54
D14         54.09   45.67   51.84          73.32   27.36  -17.30          32.37   327.69
D15         69.38   72.74   34.14          88.32   -1.63   30.83          30.87   93.03
D16         32.53   33.84   28.81          64.82   -0.33   -1.50           1.62   255.29
D17         48.32   41.37   28.10          70.43   24.61    9.36          26.34   20.82
D18         44.20   54.81   32.95          78.93  -23.66   16.39          28.78   145.29
D19         35.25   35.25   50.04          65.93    4.33  -28.03          28.37   278.75
D20         14.82   10.98    2.77          39.53   28.43   31.27          42.26   47.72
D21         22.46   21.55   12.73          53.54    7.85   12.64          14.89   58.15
D22         38.36   35.87   19.94          66.41   12.51   17.50          21.52   54.45
E1           5.86    6.52    3.76          30.69   -4.71    9.07          10.23   117.42
E2           5.11    6.32    2.31          30.20  -11.42   18.96          22.14   121.06
E3           4.57    6.21    1.38          29.92  -16.98   28.08          32.82   121.16
E4           4.43    6.34    0.72          30.24  -20.30   38.47          43.50   117.82
E5          24.67   27.76   15.47          59.66   -8.74   15.99          18.23   118.63
E6          22.78   28.27    9.76          60.13  -19.06   33.11          38.20   119.92
E7          20.92   28.70    5.54          60.52  -29.38   50.63          58.54   120.13
E8          18.00   26.97    2.60          58.95  -37.28   66.08          75.87   119.43
E9          45.80   50.14   33.11          76.15   -7.11   11.35          13.40   122.06
E10         44.84   51.18   28.20          76.78  -12.56   20.14          23.74   121.95
E11         41.18   49.06   21.67          75.48  -17.83   29.66          34.61   121.02
E12         36.40   46.89   13.35          74.11  -27.07   46.41          53.73   120.26
E13         44.23   54.92   61.11          78.99  -23.85  -17.18          29.40   215.77
E14         48.79   38.71   48.23          68.53   34.06  -21.48          40.27   327.76
E15         68.16   71.45   28.36          87.70   -1.58   38.70          38.73   92.34
E16         23.66   24.63   21.65          56.70   -0.36   -2.70           2.77   261.45
E17         41.78   33.43   21.02          64.50   31.36   12.02          33.59   20.98
E18         38.17   49.68   26.66          75.87  -28.88   21.15          35.80   143.78
E19         27.13   26.61   45.53          58.60    6.06  -35.44          35.95   279.68
E20         27.16   19.36    2.71          51.10   38.52   51.69          64.47   53.31
E21         16.46   13.52    2.66          43.53   20.74   39.00          44.17   62.00
E22         30.09   26.21    8.49          58.23   19.15   34.30          39.29   60.82
F1           3.95    4.73    3.42          25.94   -8.49    3.11           9.05   159.85
F2           2.85    4.14    2.75          24.13  -18.41    4.88          19.05   165.17
F3           2.36    4.23    2.27          24.42  -29.06    9.31          30.52   162.24
F4           1.84    4.56    1.92          25.42  -44.88   14.30          47.10   162.33
F5          11.92   14.75   10.54          45.29  -15.13    4.95          15.92   161.88
F6           9.82   15.21    9.36          45.92  -33.44    9.94          34.89   163.46
F7           6.97   13.85    7.08          44.01  -50.43   15.24          52.68   163.19
F8           6.21   14.03    6.12          44.27  -59.35   19.89          62.60   161.48
F9          31.18   35.77   27.50          66.34  -11.75    3.31          12.21   164.33
F10         25.66   33.17   22.80          64.29  -24.53    8.16          25.86   161.59
F11         24.48   34.57   22.20          65.41  -34.31   11.25          36.10   161.84
F12         20.49   33.26   19.40          64.37  -48.07   15.12          50.39   162.54
F13         40.78   51.96   60.33          77.26  -26.65  -19.41          32.97   216.07
F14         44.34   33.16   44.93          64.29   39.85  -24.91          46.99   327.99
F15         67.06   70.14   23.20          87.06   -1.25   46.68          46.69   91.53
F16         17.45   18.03   15.74          49.52    0.36   -2.15           2.22   278.64
F17         36.44   27.34   15.01          59.28   37.01   16.48          40.51   24.01
F18         33.54   45.43   20.90          73.17  -32.73   27.20          42.56   140.28
F19         21.41   20.39   41.51          52.27    8.45  -41.37          42.22   281.54
F20         26.60   24.84   12.73          56.91   11.18   18.45          21.57   58.79
F21         34.65   31.10   11.26          62.59   16.71   32.54          36.59   62.81
F22         39.74   37.45   16.41          67.60   11.71   27.40          29.80   66.85
G1           2.84    3.30    3.00          21.21   -5.96   -2.12           6.34   199.63
G2           2.03    2.77    2.75          19.09  -13.25   -3.85          13.80   196.22
G3           1.73    2.74    2.99          18.96  -19.71   -5.92          20.58   196.71
G4           1.40    3.04    3.55          20.18  -33.89   -7.70          34.76   192.81
G5          12.19   14.97   13.24          45.59  -14.53   -2.49          14.75   189.74
G6          10.27   14.88   14.66          45.46  -27.95   -6.46          28.69   193.02
G7           8.22   14.48   15.37          44.91  -42.52   -9.19          43.51   192.20
G8           6.75   14.09   14.32          44.35  -54.10   -7.51          54.62   187.90
G9          29.41   33.52   29.72          64.57  -10.73   -3.40          11.26   197.60
G10         26.38   33.80   30.20          64.80  -23.70   -3.76          24.00   189.03
G11         24.63   34.04   32.28          64.99  -31.88   -6.65          32.56   191.78
G12         20.88   33.45   33.61          64.52  -46.82   -9.43          47.76   191.39
G13         37.22   48.79   59.37          75.32  -29.58  -21.78          36.74   216.38
G14         39.67   27.70   41.19          59.61   45.98  -28.31          54.00   328.38
G15         66.10   68.88   19.04          86.44   -0.68   53.96          53.96   90.73
G16         11.87   12.20   10.98          41.51    0.81   -2.92           3.07   284.78
G17         31.46   21.89   10.34          53.90   42.90   20.46          47.53   25.49
G18         28.83   40.90   16.09          70.10  -36.80   32.47          49.08   138.57
G19         16.05   14.74   36.95          45.26   10.94  -47.39          48.64   282.99
G20         36.59   35.75   15.82          66.32    7.14   26.62          27.56   74.98
G21         36.20   34.71    9.63          65.51    9.34   42.80          43.81   77.69
G22         48.51   44.22    2.92          72.38   16.73   86.74          88.34   79.08
H1           2.81    3.17    3.41          20.72   -4.40   -5.86           7.35   233.16
H2           2.19    2.82    4.04          19.30  -10.67  -12.26          16.26   228.98
H3           1.99    2.74    4.77          18.97  -13.62  -17.04          21.82   231.35
H4           1.69    2.75    6.52          19.01  -21.04  -25.46          33.04   230.43
H5           9.52   10.81   12.57          39.26   -7.10  -11.55          13.56   238.43
H6           8.51   10.84   15.64          39.31  -15.81  -19.53          25.13   231.02
H7           7.75   11.20   20.29          39.91  -25.21  -28.90          38.36   228.90
H8           6.22    9.64   22.92          37.18  -28.73  -38.81          48.29   233.49
H9          30.28   32.55   30.85          63.79   -4.07   -6.53           7.71   238.06
H10         28.52   32.28   34.66          63.56   -9.83  -12.60          15.99   232.07
H11         29.70   34.97   41.30          65.72  -14.61  -17.91          23.12   230.81
H12         26.85   35.03   51.52          65.77  -25.93  -29.98          39.64   229.14
H13         34.15   45.94   58.34          73.50  -32.05  -23.88          39.96   216.69
H14         35.79   23.43   37.78          55.51   51.08  -30.87          59.69   328.86
H15         65.20   67.53   15.04          85.77    0.21   62.07          62.07   89.81
H16          7.74    7.96    7.08          33.89    0.62   -2.20           2.33   284.95
H17         27.26   17.59    6.50          49.00   48.00   26.35          54.76   28.77
H18         24.66   36.54   11.65          66.93  -40.07   38.85          55.81   135.89
H19         11.93   10.52   32.66          38.74   13.18  -52.47          54.10   284.09
H20         36.51   37.24   13.41          67.45    2.01   34.76          34.82   86.69
H21         28.64   29.33   19.05          61.06    1.38   10.17          10.28   82.21
H22         34.14   37.88   11.17          67.92   -8.04   41.99          42.76   100.84
I1           4.56    4.62    6.65          25.62    1.45  -14.63          14.71   275.63
I2           4.38    4.36    9.84          24.83    2.43  -28.06          28.17   274.95
I3           4.40    4.21   14.54          24.37    4.69  -42.55          42.81   276.28
I4           4.58    4.22   22.51          24.40    7.00  -60.07          60.48   276.65
I5          14.32   14.81   16.26          45.37    0.28  -10.60          10.61   271.50
I6          13.62   13.83   20.72          43.99    1.79  -22.75          22.83   274.50
I7          13.72   13.82   25.42          43.96    2.59  -31.70          31.81   274.66
I8          14.53   14.20   36.74          44.52    5.20  -48.39          48.67   276.13
I9          31.33   32.29   31.34          63.58    0.71   -7.65           7.70   275.26
I10         31.25   31.98   34.46          63.32    1.51  -12.75          12.84   276.71
I11         31.79   32.57   38.39          63.80    1.41  -17.40          17.46   274.61
I12         32.25   32.38   48.87          63.64    3.74  -30.65          30.88   276.95
I13         31.23   43.11   57.07          71.63  -34.36  -25.80          42.97   216.91
I14         32.20   19.76   34.43          51.56   55.70  -32.98          64.73   329.37
I15         64.31   66.06   11.67          85.02    1.39   69.98          70.00   88.86
I16          4.48    4.64    4.28          25.68    0.05   -2.73           2.77   271.00
I17         23.21   13.76    3.80          43.88   52.94   31.58          61.65   30.82
I18         20.85   32.30    8.32          63.59  -42.93   44.12          61.56   134.22
I19          8.47    7.06   28.13          31.93   15.68  -57.09          59.21   285.35
I20         39.99   43.38   15.53          71.81   -5.65   36.79          37.22   98.73
I21         11.04   15.03    3.92          45.67  -23.04   33.90          40.99   124.21
I22         28.41   36.77   17.99          67.10  -25.49   22.91          34.27   138.05
J1           1.23    1.03    2.19           9.19    8.35  -16.23          18.26   297.21
J2           1.53    1.04    4.23           9.32   16.64  -30.63          34.86   298.51
J3           1.92    1.12    7.04           9.93   23.80  -43.34          49.45   298.77
J4           2.29    1.00   12.07           8.99   36.07  -62.29          71.97   300.07
J5           8.81    8.41   10.46          34.82    6.18  -12.86          14.28   295.67
J6           9.94    8.71   14.89          35.41   12.78  -24.38          27.53   297.65
J7          11.03    8.87   19.97          35.72   19.77  -35.45          40.60   299.15
J8          11.39    7.97   28.10          33.92   30.12  -53.61          61.49   299.33
J9          29.25   29.60   28.57          61.30    2.73   -7.17           7.68   290.82
J10         27.59   26.85   29.68          58.82    6.94  -13.22          14.94   297.68
J11         29.93   28.41   34.98          60.25    9.82  -18.79          21.20   297.57
J12         31.72   27.93   45.00          59.81   18.34  -32.71          37.50   299.27
J13         29.65   41.53   56.25          70.55  -35.57  -26.82          44.55   217.02
J14         29.86   17.50   32.14          48.88   58.62  -34.22          67.87   329.73
J15         63.67   64.82    9.15          84.39    2.69   77.00          77.04   88.00
J16          2.82    2.93    2.67          19.75   -0.06   -2.12           2.17   268.39
J17         20.48   11.37    2.29          40.20   56.08   36.31          66.81   32.92
J18         18.58   29.47    6.17          61.19  -43.94   48.84          65.70   131.98
J19          6.60    5.18   25.04          27.24   18.21  -59.87          62.58   286.91
J20         30.29   39.30   23.09          68.96  -26.32   15.67          30.63   149.23
J21          3.82    7.44    1.51          32.79  -39.92   31.44          50.81   141.78
J22          1.21    1.91    0.82          14.98  -17.42   10.49          20.34   148.95
K1           2.11    1.70    2.26          13.82   11.20   -8.86          14.29   321.62
K2           2.66    1.74    3.12          14.04   21.63  -15.32          26.51   324.69
K3           3.35    1.80    4.35          14.38   32.14  -22.58          39.28   324.91
K4           4.01    1.80    5.51          14.38   42.28  -28.76          51.14   325.77
K5           7.31    6.20    7.39          29.91   13.71  -10.32          17.16   322.99
K6           9.13    6.26   10.31          30.06   29.30  -20.58          35.81   324.91
K7          10.67    6.15   13.58          29.77   42.74  -30.70          52.63   324.31
K8          11.94    5.43   17.28          27.91   59.94  -43.05          73.80   324.31
K9          23.63   21.98   21.86          53.99   11.14   -7.78          13.60   325.08
K10         24.85   21.64   24.57          53.63   18.03  -13.51          22.53   323.16
K11         28.90   22.98   29.87          55.04   28.40  -20.06          34.77   324.77
K12         33.70   23.47   37.54          55.54   43.81  -30.49          53.38   325.17
K13         27.20   39.01   54.81          68.76  -37.41  -28.38          46.96   217.19
K14         26.43   14.42   28.65          44.82   62.60  -35.71          72.07   330.30
K15         62.63   62.58    5.86          83.22    5.34   88.26          88.42   86.54
K16          1.06    1.12    1.05           9.90   -0.42   -1.99           2.06   258.48
K17         16.23    8.12    0.82          34.22   59.58   43.58          73.82   36.18
K18         15.24   24.98    3.60          57.06  -44.57   55.56          71.23   128.73
K19          4.40    2.98   20.25          19.97   23.66  -63.22          67.50   290.52
K20          2.16    2.89    2.05          19.60  -12.52    2.98          12.89   166.58
K21          1.17    1.56    1.42          12.97  -10.15   -1.73          10.31   189.69
K22          1.55    1.99    2.80          15.43   -9.41  -10.52          14.12   228.18
L1           2.04    1.67    1.55          13.63   10.50   -2.08          10.71   348.78
L2           2.52    1.67    1.77          13.65   20.64   -4.50          21.13   347.67
L3           3.28    1.81    2.04          14.47   30.67   -5.70          31.19   349.46
L4           4.14    1.95    2.41          15.22   40.43   -7.80          41.18   349.09
L5           7.30    6.00    5.73          29.39   15.84   -3.94          16.32   346.04
L6           8.92    5.78    6.15          28.85   32.83   -6.83          33.53   348.25
L7          11.25    6.10    7.04          29.65   47.58   -9.33          48.48   348.91
L8          13.52    6.02    7.57          29.47   63.74  -11.81          64.83   349.51
L9          24.16   22.49   19.80          54.54   11.14   -2.66          11.46   346.61
L10         27.61   23.49   21.82          55.56   21.07   -5.00          21.66   346.67
L11         29.07   22.62   21.86          54.67   30.63   -6.60          31.33   347.86
L12         33.02   22.57   22.19          54.62   45.39   -7.34          45.98   350.81
L13         23.88   35.36   52.35          66.03  -39.59  -30.44          49.94   217.56
L14         21.83   10.81   23.73          39.26   66.56  -36.75          76.03   331.10
L15         60.94   60.05    4.11          81.86    7.26   95.15          95.42   85.64
L16          0.29    0.29    0.48           2.60    0.43   -4.52           4.54   275.43
L17         12.45    5.72    0.42          28.70   60.07   41.58          73.05   34.69
L18         12.20   21.21    2.81          53.17  -47.18   54.47          72.06   130.90
L19          2.90    1.55   15.07          12.92   30.93  -63.62          70.74   295.93
L20          0.69    0.81    0.81           7.29   -3.36   -2.74           4.37   218.85
L21          0.93    0.84    0.93           7.58    4.61   -4.19           6.26   317.75
L22          1.87    1.44    1.24          12.24   12.60   -0.67          12.62   356.93
GS0         73.45   75.83   63.61          89.78    0.70   -1.02           1.26   307.48
