lprof/data/pics/scandmo.it8
LCMS/MEASUREMENT
MANUFACTURER	"little cms measurement tool"
CREATED	"Thu Jun 27 2002"
MATERIAL	"Image '/lprof-1.09/pics/party_4s.jpg'"
CHISQ_DOF	"3"
NUMBER_OF_SETS	"264"
NUMBER_OF_FIELDS	"5"
BEGIN_DATA_FORMAT
SAMPLE_ID	RGB_R	RGB_G	RGB_B	CHI_SQD_PAR
END_DATA_FORMAT
BEGIN_DATA
A1	50.5679	29.1235	37.4568	1.07555
A2	64.1728	24.1728	35.1728	0.412011
A3	72.7901	20.3457	33.1235	0.847535
A4	77.8395	19.5062	33.7284	0.823394
A5	103.543	65.5432	76.5432	0.975313
A6	125.198	60.8642	75.642	1.598
A7	140.506	50.8395	71.0617	1.05415
A8	145.074	42.0741	69.0741	0.891316
A9	169.988	133.321	146.877	1.56774
A10	181.469	128.136	143.802	1.02784
A11	192.765	121.988	140.099	1.09546
A12	199.741	120.383	141.42	1.41668
A13	225.21	223.099	227.877	1.1738
A14	229.58	218.802	227.247	1.35686
A15	229.815	224.815	221.815	1.01379
A16	222.469	216.469	219.58	0.820457
A17	228.136	217.469	220.469	1.31437
A18	224.741	221.407	218.185	2.5037
A19	225.025	217.42	227.728	1.44938
B1	61.4198	37.4938	42	1.17401
B2	73.4321	32.7654	33.5432	0.696455
B3	84.1358	28.4074	25.5679	1.17546
B4	93.0123	23.5679	17.5679	1.17705
B5	116.975	78.642	80.9753	1.35061
B6	137.037	72.2963	65	1.64137
B7	154.593	63.3951	51.0617	1.62539
B8	164.012	51.5679	37.0123	1.15614
B9	179.852	150.457	157.469	1.62932
B10	192.432	145.617	149.296	1.7027
B11	200.148	140.012	139.012	1.10168
B12	205.494	137.827	135.086	1.55907
B13	208.593	217.148	224.012	1.55608
B14	222.938	199.21	223.568	1.87126
B15	227.79	220.457	206.235	1.13305
B16	199.58	188.062	197.247	1.06373
B17	220.222	195.333	199.111	1.17515
B18	203.679	212.889	201.889	1.8155
B19	203.84	193.827	220.123	1.68049
C1	79.7901	58.1975	57.1728	1.56738
C2	89.1481	59.4815	46.1481	1.24793
C3	95.4321	56.2469	30.3827	1.39966
C4	100.556	54.5432	20.0741	1.18812
C5	157.519	117.963	103.741	0.985651
C6	174.074	113.938	76.6173	1.83545
C7	184.914	111.148	49.7778	1.58729
C8	186.642	107.012	26.642	1.1679
C9	194.259	169.988	169.123	2.12385
C10	202.815	166.247	154.605	1.65655
C11	208.259	164.469	135.21	1.81107
C12	217	160.42	107.951	1.63843
C13	186.877	212.679	222.593	1.55586
C14	218.827	179.506	221.21	1.61122
C15	225.148	215.864	183.617	1.1439
C16	175.16	162.543	173.321	1.40156
C17	214.111	172.889	179.444	1.78913
C18	181.79	203.79	181.235	1.0923
C19	183.432	171.358	216.481	1.91314
D1	62.8642	50.4198	48.4198	1.24229
D2	64.4815	50.4815	37.4815	0.776388
D3	64.5309	53.0864	25.9753	0.855172
D4	59.7284	53.0617	20.1728	1.10592
D5	119.728	108.728	90.7284	0.8946
D6	123.136	110.469	61.9136	1.34264
D7	121.506	112.728	38.5062	1.19558
D8	118.086	111.84	24.0864	0.928054
D9	205.358	187.469	148.914	1.58172
D10	207.642	188.086	106.457	2.0742
D11	204.222	189.16	67.8765	1.27239
D12	200.062	187.198	51.716	1.42367
D13	165.84	208.173	221.506	3.71969
D14	212.617	155.21	215.79	2.00782
D15	223.827	211.827	162.494	0.979793
D16	149.667	138.037	147.667	1.59788
D17	208.815	148.914	157.099	1.53609
D18	162.358	199.21	158.889	1.45649
D19	157.901	149.753	211.173	1.93382
E1	65.8272	61.5185	55.5432	1.809
E2	61.9753	65.7654	43.3086	0.893515
E3	53.3457	69.7407	31.7901	1.44824
E4	43.3086	70.8642	21.1728	1.6836
E5	137.58	144.136	116.37	1.27803
E6	126.198	151.259	87.8642	1.79751
E7	109.21	155.79	60.5556	1.53614
E8	107.025	153.975	56.7531	1.57458
E9	189	190.728	174.593	1.71061
E10	183.259	192.975	150.79	1.44428
E11	175.432	195.84	130.012	1.51803
E12	169.667	195.901	116.259	1.33903
E13	146.519	207.519	221.259	1.53518
E14	208.284	136.284	212.728	1.4467
E15	222.679	210.235	139.123	0.95013
E16	129.432	117.432	126.654	1.15616
E17	203.346	127.457	133.679	1.31222
E18	145.79	194.79	139.79	0.8763
E19	138.963	129.84	205.679	2.91852
F1	53.8765	55.9259	55.2222	1.39847
F2	40.1111	60.3333	50.1852	1.33676
F3	31.0247	65.963	46.8025	1.42193
F4	23.1852	67.716	38.8765	1.10811
F5	89.9753	109.716	99.3827	1.20738
F6	66.0741	117.247	88.2346	1.61729
F7	49.2099	122.383	78.1358	1.5074
F8	51.3086	122.284	80.1111	1.72839
F9	144.778	162.642	155.506	2.23573
F10	128.84	171.543	148.395	1.85383
F11	112.037	179.42	141.395	1.94023
F12	113.815	180.519	143.296	1.55938
F13	132.568	204.975	220.173	1.84755
F14	203.914	120.79	206.605	2.01923
F15	222.012	208.691	120.062	1.48509
F16	111.506	101.914	108.469	1.37121
F17	198.321	112.531	117.358	1.51027
F18	128.259	187.704	124.148	1.10885
F19	124.531	117.272	202.481	1.9727
G1	43.7284	44.0617	51.9506	0.916378
G2	37.2716	48.2716	54.2716	0.758491
G3	30.037	52.3704	54.9259	1.02403
G4	22.4074	57.6296	58.0741	0.707504
G5	93.6296	110.63	117.63	0.732196
G6	70.8519	119.963	121.074	1.02144
G7	52.8025	124.802	121.37	0.974514
G8	54.8148	124.926	121.704	1.16803
G9	144	163.321	169.16	1.18389
G10	127.654	176.481	173.556	1.54532
G11	109.321	185.21	181.42	1.14767
G12	108.111	186.123	181.457	1.10745
G13	118.469	200.321	221	1.31937
G14	196.58	106.667	202.148	1.98768
G15	221.827	206.494	104.938	1.42879
G16	96.1358	85.5062	91.8272	1.50981
G17	190.432	96.5062	98.9506	1.68239
G18	111.42	182.086	106.198	1.02622
G19	110.704	104.148	196.741	3.64059
H1	47.358	45.7778	58.8765	0.802862
H2	42.5185	50.9136	69.7901	1.08526
H3	33.0741	55.8519	78.7531	1.30501
H4	26.3457	58.9877	87.1111	1.12592
H5	88.6914	96.6914	117.691	0.930618
H6	72.8889	104.728	133.062	1.30378
H7	55.4691	113.049	151.16	1.49532
H8	53.4444	112	151.111	1.06695
H9	158.247	161.802	178.247	2.04926
H10	143.667	168.778	190	1.28504
H11	134.247	176.247	200.247	1.01896
H12	124.074	185.074	213.407	1.29839
H13	105.642	198.975	221.42	1.37779
H14	191.506	94.3333	195.815	1.79217
H15	222.37	205.37	90.4815	1.21682
H16	79.9383	68.8272	71.9383	1.45491
H17	183.519	80.6296	82.5432	1.64456
H18	98.9877	172.988	93.9877	0.813846
H19	94.5679	91.5679	190.123	1.66565
I1	64.679	57.8519	82.9012	1.27617
I2	62.2469	63.3086	109	1.02281
I3	50.679	67.2222	134.914	1.46142
I4	35.8025	71.5062	150.469	1.92141
I5	113.284	104.395	128.284	1.15355
I6	110.049	106.173	150	2.80588
I7	106.716	110.963	173.815	1.54619
I8	97.5556	118.568	202.099	1.00396
I9	168.753	158.481	179.963	2.14563
I10	170.975	160.741	191.469	1.94902
I11	165.704	160.136	200.444	1.44073
I12	164.025	167.136	220.21	1.65546
I13	95.1235	194.951	218.593	1.44644
I14	181.716	81.4568	188.988	1.47838
I15	220.679	202.531	75.0617	1.31925
I16	66.1605	54.3951	58.5679	1.69521
I17	175.926	67.0617	67.0247	1.26129
I18	87.284	162.506	80.284	0.888134
I19	78.7284	76.642	180.247	2.00978
I20	31.1235	10.1728	21.3086	1.78819
I21	69.3704	32.1852	39.2469	0.678311
I22	71.9259	36.0247	36.1975	0.926663
J1	36.9383	26.3951	53.1235	1.15921
J2	38.7901	29.0123	80.679	0.649847
J3	35.1975	32.9136	104.728	1.16616
J4	27.4568	35.0494	120.309	1.54506
J5	96.7037	77.1481	107.148	1.29983
J6	102.852	76.4568	130.198	1.42939
J7	105.469	76.8889	149.716	1.37484
J8	107.975	77.5802	173.728	1.54186
J9	161.716	140.037	165.333	2.04302
J10	165.901	138.975	178.432	2.05939
J11	165.42	138.346	189.802	1.27495
J12	178.42	139.457	214.123	1.4696
J13	85.963	186.778	213	1.72926
J14	169.111	69.4444	177.938	1.58078
J15	218.481	199.37	60.4691	1.43977
J16	49.4938	39.8272	44.1852	1.59358
J17	162.259	51.2963	49.7407	1.70379
J18	74.0741	148.407	64.4074	1.0991
J19	63.2963	64.321	166.222	1.47729
J20	102.938	45.321	43.3704	1.54467
J21	117.481	59.7284	47.3827	0.988708
J22	127.407	73.6173	59.2099	1.1966
K1	54.2593	32.8148	52.7037	0.720828
K2	62.1235	30.1235	67.1235	0.76457
K3	70.9506	28.358	79.2716	1.04333
K4	72.037	28.3704	83.8148	0.938673
K5	94.1605	61.1605	92.1605	0.858149
K6	107.568	56.5679	109.679	1.34779
K7	120.691	51.0247	128.802	1.51706
K8	126.975	46.9753	135.975	0.987108
K9	155.901	122.012	154.901	1.81913
K10	171.494	119.827	169.16	1.27213
K11	182.198	115.198	184.198	0.678597
K12	196.963	109.407	197.296	1.18432
K13	78.321	174.926	206.79	1.39027
K14	152.099	59.1728	160.778	2.38817
K15	215.148	193.148	42.7037	2.05163
K16	36.642	28.4198	33.9753	1.97226
K17	146.79	37.0247	35.679	1.81757
K18	63.5185	135.074	53.963	0.7991
K19	49.4444	52.6667	150.889	1.20995
K20	166.198	111.099	102.506	1.47346
K21	178.407	116.407	103.407	1.06979
K22	185.185	125.407	124.074	0.887996
L1	54.2716	31.6543	46.284	1.00212
L2	65.9259	27.8148	51.5926	1.02046
L3	74.2099	24.2963	54.2716	1.05049
L4	79.8025	23.1481	58.2593	0.928122
L5	97.2593	57.9259	80.9259	1.72965
L6	116.728	51.1728	89.3704	1.39733
L7	129.926	42.6173	94.3333	1.41027
L8	130.691	40.1975	97.9753	1.76661
L9	162.272	123.099	143.432	2.35643
L10	178.728	117.235	150.728	1.84498
L11	188.963	111.247	156.963	1.1165
L12	197.494	106.407	163.84	1.55446
L13	67.9877	159.086	195.222	2.5065
L14	130.16	48.4321	136.469	1.46587
L15	207.679	182.321	26.9383	1.76315
L16	19.7531	13.4691	19.7654	2.61607
L17	130.062	25.3704	19.0988	1.37647
L18	45.642	110.111	35.4938	0.997101
L19	33.0864	44.6173	135.58	1.32226
L20	182.469	125.049	132.519	1.49061
L21	185.84	129.84	132.84	0.993187
L22	183.037	134.37	132.704	0.853809
DMIN	253.816	254.762	253.268	0.973894
GS1	225.828	216.828	221.828	1.18847
GS2	214.314	203.797	211.797	2.00463
GS3	201.115	188.341	198.341	1.49346
GS4	186.257	172.716	184.337	1.4565
GS5	173.701	157.701	170.701	4.66191
GS6	162.958	146.851	158.87	1.33138
GS7	150.341	134.663	146.973	1.1989
GS8	135.682	122.586	132.843	1.03731
GS9	128.674	115.674	125.674	0.866731
GS10	117.559	104.774	113.839	1.06494
GS11	105.77	95.7701	104.77	0.936866
GS12	99.2759	86.2452	96.0996	1.08314
GS13	90.2797	76.7203	85.6207	1.03559
GS14	78.9617	65.9617	74.9617	0.880596
GS15	71.2107	60.2107	66.3257	0.912517
GS16	62.8966	49.5287	58.6513	0.980824
GS17	53.977	41.2222	50.0996	0.872283
GS18	42.2222	36.2222	40.2222	0.720873
GS19	36.1494	27.4943	35.8238	0.953799
GS20	27.1494	16.659	25.4598	0.948369
GS21	22.3563	11.2529	21.7011	1.18868
GS22	16.387	6.08046	18	0.955556
DMAX	7.17625	3.45977	12.6015	1.60839
END_DATA